-----BEGIN PGP MESSAGE-----

hQEMA0xBmd614XhhAQgAjmSg0lD3XGGBE4MIBNuEToIOJ3GIWgwrPfeHcuLgf96I
K7etV0e04TaNfdxFOPg9TZ6MWX43Kufv3RDbDQD8i4Wpx01JDAAtPvS3v+ioKD6/
L/UD6t1UtdLDrQhS1hLJ43cUiBZNyX5w3X4HfhTrhaddGFuSWOUgZzvPWL80A6cD
8TBpNae9c3HnrGZ8u/hSZAyEXxHDIIguM5RK5Tgo7rX+wHH3Swhc9DOVTXfEE03I
MLbxyzLxOK2Oqh7PKsgj6QZTzrK+0JrThmao/Gf9h9Hk2iY/Am7h0h6OkXA/R7CA
YoXnc2zZ7HmztgzZt1d0c6QxOu1+gqp1jK7K0lCR0NLtATEhOicxivJpeD8M3sgK
agTE1RNqpaTuztqLzpsAh+L488qjSTB+hPyzdRM31iNe5E//D+yRbfqNdStHZJZC
L0bhSTRNaKswE7BPpFU4SqPFsNq0xaaMXzkxyLg619zdEC7CzRXkDv2A1PCbzC0W
IaqYcKAF2Q4v2rTqxfWkEJ6S424p8M9dL22vL4yWv2bPgqZAmGCuh1LenFak+AAZ
ZAqqdG23xeh1oM2gWWtYbuYQI744PCze8SDvURk4AJjMm6691OS0y0EsaX6kN8dC
RK5rGxd4wIqniTfMY/OUL0TSfJIDLSdKFFlaJu7VR30ed929nak/MMlRU75n23bt
WYtk25m3j693mDfmfTZi4dZ/azaY9lCeImfiQQuF/uf3xK8y52Vwtl7dneNg5Cyv
8r87GD1Hz+4r5QL87VrazByPxM1KRVrW6jCPWMeB/ri4Vg2aoaJ+MPEyiEhUa9Ma
ao5zpv1EplOATuSLrO/nMHcVzTuJU0UT8J6qDM1VfICR/tyxyHX8PN59fnJTcBlx
gf0gOQ6CJln6sruWbVsIVkQY0Q0PKMF/WwphSdcAjSr0Gat3uGjbPh8y81pGcYKn
PER1tqcJBVQWZKLQJ9J0upigNkI2vR89wRrzcO7a66z+rTOTKJbkSVw+sI3U5x7I
3VcioLy/Uw34rKPFt3H9KXzBq6SL+V83l6EPzxZxPEOJHnVRq4BPl9R4mngS8cJD
ATcOLYuyNBpcUAfv3HC61BaOudVHOOA6uOsBSLI4FSVkcAPXJ4h0e1MMeLvR6rvD
HuJytfJ+AXO9lDhUGxO/0XhXnCpB77dnZdiWWt+ewd8C47AMCqiorpTWnSGlGQug
f1Cu47EiIqK6aC82bNKlvO5R6zKgpTQu5I7KpbJTMxgj2eWql0LfV2l7GHHib9aR
SLzdXIfT23kGrm0zCoJewV9Yx5HmQhfeUIOnK4P9HGnRUulNWqligtvIb65zwf3w
yZ7PimfJQyu+unqp9nUNmNlVmDypcj8tSoZ+9acivDIHm+d20rzP6Db3CZWX0egY
Rklk0S9IjuLNtJh5No3K0aak3nRAOqolufaeZMrAT8GA7z481rkAt9zFiVDM09bW
IK9qmAYJ17uhFUrrLw94iweGWCbWYUePM0MC5isN36mppHnI0hT0bIZkS9CagULB
uHnogUd7NwSBFLNZEBSvGkUOmzkfCKKn7syqz5CzhM1Cx81LyJLXLmEgqhWYl2ET
gts6fXxNrvREF5oz5D2kjW0M+mrAXiULRvmxn6xaBegBn419MP5ghdNWKAVD1Dow
cLXc2ELUw7gjVucTXElEUCSOFcUnZUmlxTdis7DB05myPdszlDYluXMZEmaDUS+V
0KoP3QPVt4Erx3/nCiGzqVKHn6I9sCwaTV3HiG8dRPVxmQXHlURQQMs2auUiCz5s
zy90Jnu7L7jOt9U2M0vnESZYMh61NeRM/V8/9/h4gTTaa75i//zi9fX/Z4KNLaJY
iwUjNGr0WoAuPTXq4SldNW4MaMeT0JaLMNZm0X8QJxREr7zSUUPW9QuA7IiPpC4h
0sZGVCwjnI2UNDvMJOJZPyPkwXEYCrRgrXss1f49Utbl+rqifGyRuKNfLxFM1TWh
6TtVqk0xxfD1aUXFiUxrL+Wty7YJFgc8U81qZ7NdppCDnLlIe5bKbFqBfZeOjBNU
NjJkzXm1wBcLmr8jLPtET39Tyq8zPjzJIC47vG1YyvBraJfi40CGWjDUl3TL5IgV
DtFdiETTP4BYVk14BD2nqaFROp89UhTUxHlBQHSMhdsGqLTEOYRTEvLev5/ALpFo
MJFnd7mEsjp+AAF/DqAze1mAzsGkJyV/Z9TIF+T8YGaRz/sZePlaMPud6C2QZ1xS
mW4RvdGVAN18NA0mJMk78Z57NwVYyebwV7jafs6etaumr1/9QeNa4R3WY5dn8rMt
6jK7T/Nvp1zdKRC9NxXiLncNKlQdgV+pKXPm+Uv2WWovHF0LcsZxmTKoy8n3dUQj
dcFUMGIyUKuHkluhfqvYcjMksLU4AUjcKyuzxguWIQ9GUFMz3rH8nCHOkehlsVba
h2dVc4MHPQu1Th/tBYl1PeQm0YlcNvoAT6XZwdTUPrfxByghOUQaygUGoUPSIl4/
x9KTQdY2LCP7k4C9/Pon2GQI3iupDdGMpgIv9Gz/h8V2Doql7BZoH0T+7f65d3pB
gv4lxTI1bZdrWA9NDtBwKT36dlRt/xMpJC0X9T8ky9Xukocm59Hs5xbbVDykohrf
a8wwVmQx8JgJkSNWG5366Ykn79d0HkcfiEkNEeUdwrnr8IMzdTrUooQp3OUiHNAL
N3z92Ds5kWUf1u553cbwjLD9gt89WhYFIvrn+eYzxamMcCJM5Y9GuM8d53hnr08S
PDQ1IHY4C2LS38FrdwilOwGMMCKJ3E42/Ukw0co8b0OLJ277rwLiAv+bP/aG+ZBX
li8jcYEu/dPkH3K/rrzD5c3RXQTDB9l9nbRer6n4yXF/OyoQohvOXT40zZAvdi1C
gwOp8GLZWWw6Mg0MbpIpimiJdOMnSUsQzEXSH6TcuyyQDM8xMvjr62hmP5Od/zb3
0mPtyxXH/wnulNtcmVsFNGJ1UR+grpEpOpD+zZ8aga6SiVeRhCYwsAVa+pAXYrQU
k9WZj6shMToShP+3hYQTa3zIBaH8AKR8FkSlp/29qbsqBdPXNCdl7smz6Jpb/e/c
58jtFfRFMm8BDx8f217NWnzOejsuTuNNg9CRz/bNmigoiNf80vikEGGov7UpC4rb
+VSj9nICNyU1HrtBNYffjxUQBMnfFnwVq8ZHxgG4RsBsPdRFyN1KDKCOEyUDYoM7
CYDOwHFOWzL96DUpuIyAPq8V/Wb4sS5LNuEssXbHe+eXtOQL0FL2oigUuXD7SLr+
nAoDOclyFMM5bE8J/60vZVDn0NCikGgel6OqDAnIP66fn8Pxin2LiRXhYl/RWPek
W/2l9s3DxRGTQgFiQA03g/RJfmaHXxlDbk9dWOGmfBufy8Zj6LuyxOozSerQe0Fq
7/fzH54Ie2fyBuMFaLD/CAcrfpU53lu1U8xFunRtynDmAdu5YdVw98J3vEBTcIg5
3IlGhmmhVrY/SrUXQ5R2Ak9Eyp/Us1Roo7TCz3CepLaZMULdlTQ2aPCPoQ4cqxhk
P0sB6R/BM0V5fbYZ29YAn+IHDy3/9q/Obo5Y8Ax254QUJQk4epJ1JV/fLW6K7J/l
9fYPOzMsepwF7mo5ncXdHd4a1A6h/nGKszpbJqjnlZ2/OZzPQtkVR/P9xg4BEEz4
om3IFSteKc23Yt2seBXouMouvwz2eTLO3/9ftBe38m7AhQvvXWFm0sgGto7vSY9m
UnRLSZDcOpO7/HLZAlB1TrA0ltWMWOmUgUQ3mu7ka//43O94XjA+3Y0M+VE/hFF1
DoYCSuqGcZRMlu7atD/smoCalGv/rqrGyLLklz1hzA8VeIDuDjndpI1RibLAe/l9
wq0cA+xMdxA+B92K3diOkgySSNpgU6+vK32rX0G5AjbQcuxILYkZ5TNp49PVui12
hHDk6v5HngJP1EEH05E+u+DzGkaci+8+Yx6plMKD/tjW4Oq1CSc6kYWANof7bAPF
Yy2KUHP1BRhNp4SCbdIZDZCjem7OP9XIIZo2Vpsgnr/93PdFR0AyQIOog0SzxUzj
jrP1rgxSIQS5aSfIy42/V+tFPayazmSPJddIX6bNYb8nfxsoq3o2BwFkM7tHXJil
o2b5S/79QhaYJRa19QML26fTeeV8wmc8VTAoCTplS764KC7LNska6WOMcRr+G90q
iqRi1mAVj3RfaIT1TG6B8+r3V+NJ1mjP+INPZSMWMrb50YZ0Wmpz0sJdiRYlTz3k
DEcQZvdbg/L4NcGEUPULTJXfuCLzKac3l9nYd6UBL0yTRVw9bcW2k9wEPG2RTadO
QpQWZNqfdsmvfG3b6t0zUM9C4lAaLKRrRJ/ys0V4sYdx2030pM4X0df2FdpUXS+p
WjrGMS6UjFiSrlPFsA9JmiusbkVsWermByZqRhohGOFlaftd+gbj5+EnUv04Rw4w
Jlt5mlsVlepbTMde4hSZMVrWgkW01oZNRG1HKVptv7D9pu/6Ieaw+Chck2AOGu8a
Ge0aHHv4q4MBlGTyqB5wiZ9sOtKE3CsQG+mN/NG2PvLTdx45hfpoQpNpfsizkWPG
poQrJwdH8by9ZbBPmuaBdBFlC1UfO/LGcVxBAa3GOdJljEKw0oJoyp1Sbx//p3ks
ddWC3QSIy2ZaugRUJ52R8e4eSFuHOlh2k7yfBgqbbIH8jRIXhsbaSopKTLzxKpvB
KkjNmEBsVZ2ZNWb1vzzko6uOuTbWfhzSRczo/EnZEllpnJKX4fT0OQUMEWsEkvnf
NkMrM4DWy9f/t6Njm9mO969zTTiL8KOAI+aSFHNDpAzMiU7ODeq9hWj+HH94V6HU
SCAyvGpja3NV3F+3MTpNEvaJhijWxI6te95hyhd+JHt+mhcJcjyWeW3EG0j52vd0
zWpIBPzHJqRrQJT2xXH8HVwsPzLdcSr0Oeh4TzeOHBARZW69O8LWZGEw+a+gRjHf
a954ko+a0NXlHTy4nB2EJkXfoUGJ6VQYsRMr6xZmIxmZbiEqKAUF4oI1/2/Etx67
cnueEwbz+Bj+ltH8N73KvGTjpwZBDocIKi+8XeMLTPeF7xpxRSUPuKZWJE8ifuAp
E5+S++VxRIrqeihKCOzpzFyqH0KI7jnicg0+ag4kGW2KPa4qJozamwQ1FoA2QNxG
s6xxfmInQo6aOFJO6szbGUhZziGxdvwbjQWYhhnM71NdZoN0uwBCZtSI3OfuNY3X
dfkwL/AYuJqXQmzEW8zSjuT6PaC2ltStLpsJ/bhGt/bgIAdX5b+qL9vi+yMRXQAY
U6Q6TXRc/WdmTALJh8Al/xndv2IUlP+5N7cVr0vTB+l6UiVi3mYI/mxPxQsGoxD7
N4cMab0e2JOmxGWmSflpQSRXDCtA4KIUuidtgBwhBWMnb7gCopBxlCi/9sprA7rJ
aJhl3HaMT6qijJdwRTlJKBPUFJ94h7x3bdznCddh05pIeRaPlltcDQ5fyob5/wYS
wVbT6yC+KwjLdAg1q10c00Vi/0O27Cu+VB2GrFxt1iWWExXln1Ak4s6y3vbwVQvE
KTOVPGoROJpzdc06eDfBgKxN0HzcMQC+tQlwlqADA1+SPnPUKLCYKMUZGVN6S4Hd
xZNFxXJ5PzHPyo8wqIZ6Z5W47tq7xc39RM5rLOVVayGpkHbN1hV6IAQWoVl51LEl
SCcVEscymxAqpCWyVo3rw+ICIlvp5W4e/NBXQW6ry30mJUcurocLNG9zkhdTHm1s
Gd9aLsGqHKIbeRz/Z9Y7KVUOPffTWgQpcdNakuPT3+Ud4KF8+wbGEsgUaJsddhWS
G5oBY2ejCl7E7FUbOuoklNekrBX6B6DKPWq6cxMyL7dVh4NfzdGTbgNIvIXnPQpU
VxlquZZXMHA3+o2Xw/IUN378hx2K2hxww61n1w+cv7zsg0XIYA5gXPnc8Hlip6ZO
R64LqNy3KIpMGj0DLgETmsVfqe9bye6QGQJuahDgAq3UloWJd+x4lYvMMjvGzlyo
1Dnfg094fR2TSkfrPhSBkcEBLt4qwIQEc/+OYM0ML8PR0e/bUtL75yr97CDFP3qX
v8+KW8Y2STo5YA0uQALTZxSCf7Abouces8XA2oijZidw/i49aZoD6SHxbWtKGvJm
hHdr9Jlz7jkV1usQyeeVUq0373faw+YeLXnSCAPX2JHXbwu+ChRfZW0Him2zMzzG
AQSsar2t+rp32+Uw351AFbh5GXAN3TJbUvb0La2KJzDDf3VmEBF3RuIdw9tE10fk
UQLTqayyxFf2srMoFDShhxc5mrnECY2Y9He4MI9wiSLW69iFMAu0lBoovZYREse/
RezJj8XaVgfliHaxtiohqmqcJpKYb1DU9UmTKdd9SFUCbPNBTS2Q2q2KnCKDavx+
eNlTzYiOip9wJ9sN69XU4okfGxjvjX5K9qwU8XsVNp46YBy0KADshUUv9TgbkN2Z
pOitRaJItRXTy1LDwK+YmmR6eyoeyNnvyzfJQ39uDQVnc8Is1a3VEVmQPi7jI1aq
6sJOvd8YAWMVwwGmBnBZcnFGWw/b8qhm/3yoGdnvCoqBMBjyTEeQcTS5Y+NVaSCn
tvNDBfrEFe2O8Lf/JiwsxJlDTIm5hAP2wHJnz6zhBivA4oKEyCvnuT2/JjGzskqs
RvxKXIRNkzXzVgM7qilD5mZ4NyWB4LimJ4qHidQVqduu7Ro3Di40h6p2FJ252DLy
EcbxhFlycPIC8EajFPd0NCO+2/VF4bhlkbHVDLvOjAzyKRovlV7FBKeNmK3dHDK9
h8QU/9y1JOwUF8l/GU10xd99R3IJKb8bLHdnSK1XUo9RUrqVt0npyNFjZKySgxx9
ZhEoEQYxD4AAQKGT1iufVK+nYGCUvTxRDhLKric0ob76AxUcZbe2FdwsSqgNChHz
2P0NH9V9pUlhXdSe1+PkI7aToeNbJkyHaVWaAzsyFQINxStCFjKdRhDOzm7jXx1m
sZtn0zylAvaETD3/wtzdkCzs/yGScmdrLwB+xYpiwExGWtB7dRc0iTWnwaMfw36S
kZc3pwapWkKbkJWBEl7Lj6nLrH0oY4gYPysJyvaOezDbxFFmPH5Kea6TouDs4wzI
6FX7HryoTxDAdFscG7hLpPN0tKM/ZkwjrBz4V9JqQBFjPBRovgYK+BHKXKJ8fG/M
nm05lIqQDtFHSYFDi+/0g2j8SPX3osU3ym594tXtPG9u22oZxIuUcoKeeCYigdPv
FdLy0oNrhv9T9ucmSPaYp30/cWsORwZ2cG2k+/zJfRFifmk/qh6OpCNjBvxm85Ov
98P9exbK/DIOGuu758beE5Nn4qtKM+MAXkD3OwKUDvkFtNbAp3d7ZDw/a7JrmfOu
RPi4Uzyq3HeiS2BUl5pkZCufHyHSfcKfDNFAkvnregwL9kUlaDh/MEwy4g5xQCN5
3j1BMBoqsWEZFSWF/7QcG9jGb/o+j1PvQtry2dw+ejWjQo301j3X3y1XZlO+8ucZ
nBo5yotCYwlP8vDZZcWB8NBsX6uw7Zoo065+a5O32c8xx9FXn17dSWJOuc5lNfO0
GoT4KiaWatHxWo0CWRPg9t2u2kVvijDa2+fff3FoAsYEz+ripuapVoUtlSJ0n5VA
Jhgggcnh5sEgEzBRGGhiaZGjpN5DVv2uFh2qQHU4zkVF6Y3tbFkmbXtJSVpehxTD
d4jzgEbrJMecA0L3puHqr7M7acw68uAfMai8UkQo5wo8ffUV6KYrdyb2WTfQKVPA
SJN9MMLSI6jIEdhJx4lV949YVouuU8kL2u9dJEMyolkxXc4lXbaFMpwUwcj6qw4K
GdexjBFx0t8EZBF1HwYEwRnFN0NkQjrXRqO24cjX16y1/q3dbvrETRH8L7Ft1dKr
eojc8kS4KH1m3KuzjIl4Wr3L4PvPXjeD8QCqN+11Om1qTLPtrDY1REq8OA4jBgco
0v7rQQtGVxhpL4pwBxID+Qz+iDapl75OmOJGbasl15anpvvHnHj2DKcG/Kv3JeEV
ozzrk5ur0NjTLoZKWhJ3Jj+GeiPWmJBA/5kcTxPfQcuHLsc+8vGabMmLSXgndZ+F
1zYSmD0EayxDnlc0klmE4qjzyW/0anN0bAn1WCybatANgXdB3K69BvyxrzsM+RQO
R49gnXr8LiyOaq1akWK7LENFsV1eAwg5Zc+48q1n4vAC0ieO8pkDc1jpOp9q5fN+
0DaXjodYa2+JGW5ue+6N+G0QXmQpMy/+vt5Pmiflm5aXN2TanaoEJ3j9wP/bgXVG
nhmTW1vvO8qewBGJtXgkrZSGbjbOVcaDOP6bQDBp3U+mvCx2A4D7eHs14g7a9SWO
V35tVSYHTmNGVmc7CvZZMlkm0OHBr/SgWSuFlQVoS1sqayxLui7okXwJbrmEUtxZ
wVpkP+cUKbnPmpWKBSP4Rdwps+O2g1awdo3E+C4ATvIwuU+7/s31BBVV44DDZM8v
u8f0LP6N/Rs2xxu8kHiwrPzZmO5NEeKdw2dJ79+tYkMPGEyXsAK5KCfbyJVPvlfN
UR3zFRBC0a5FlaSbqOS8Cxra7EZZRHln5Bueb7Fzp48tRZUAJLmOyh+eGoiJ1+Fe
uCabOvlXYQQm4oLlA3hZ5wkyJZJQjXhQRTInFDOFMKerJBfC/yMOsK9yLdWNo6BH
Gk4+HYPkwTxyR8vpJTMQJeXeqkYj1DWW6gb2/MA1vZJIKg0hdPnmqj7QcnPRHfKO
xSkUWMwt7q966BOxsvGjlKzb/ZJZUQOeCU2UNKx4av/K0r9i0AYr8ViblVGz07+b
bokpu2En/D1ZhiJSyqKMEJkAcj/dOdMjhEa3wScecg/bb3JnRXaqGcwTnycYW8o9
X4RzGadWN5gFIm7rQaoLazP6B5MNFiXa1Ufd04GMGm8t/pRuF99o+hgZ6Oqhj131
azPV86RRxtRekR+nINPtoLuoGq5KSVHWYuz6OA+NuzShy5gX9BnRvYOQ9bWhdVS0
7+DPLl8FUr4FvwDJYAhDV0/34lpeZa+WiFYltWNU3+hfJSoPJn3d0hGF+VA1PHJ7
ad7iBWO83TpvVjDxlIfvzcaOWXKQImi8Tm+UIFVhrWO/NViFWaxgi3Yu8tdSVd4j
S5JIfhnPxumKMj8kSV/8FvB+2uruoeWvqcTzoDq9UpBn6gFB2ksTJHAmHzradVfK
iktalAeQYeBKCdBRNqQBIS571eHV48PvGS5bVJOD/7r6m/OxMxrCOWSmClABkpu3
r0eW5Ro4ICXbxHJvSp76gjRZMs/oIDPWeVOr4/TfZRp37VtREb7aEQR85kEMIHuo
ELbsroQ30uuZ3YtwD1JAEimk+WSYpp9nxcQc/PIhFbNpXK1S35G+TPaOFieCuuKE
27ss1CnajW+wbd33FFDQqHoXsxuN0Yr25lz+QMsXMl3b9D9wA4bJ8Mcbu4Vndd9c
NOSy8E7xprhN0+V5jvuX+aashA82qTEoIoE4O0YIJY7uZ4i1AAv9bhgQUhaRQf1K
/uB+0zb4z87LJgSeHYtSat9+UzxnwgmgL03Be+7QMrYqoKBOrgWz6pIicyRZNvzW
HqDHeP2IFjTKjtexJlV0ChrKh9XDWHK1anJ6ye08RaUuODpMEygOtHGMJoo5+Qnv
w2ucqheVIpN3EPuiHS9/ZT0YxoJAV2Qqc4LCWJRY+MKVolnUphLINc3KAYiDICIm
SSv9Q28tHDs4lDKYbnYQIzo9YMQ9tn2xz1gMvTkrMdgq0Tv1xsdVIjwweIwntOMn
P4KTLnrXzG7q3gz/WLYBA6RA3a5QpkW8ibiVLuKCbaH9W1Vcyc4DllSYuiI19njD
p4sxQdvGvt6V9fJStQGBNs8OjBOFe7xUeHmZxUZLXpJ1hgpkHL26EiMp3HEScO/9
XmkQoO6XB2CHE3ufmtrXeILzY/7KULnGhqAuINx1i88hFg6/yxObIIhUwLtV/1YV
/onyhPByorevtldB32/L+W8eRyL0QgwICRxcaJvw7Xp/t9ZcvwEh6SH00ICNYM2x
t9mEtWfpBRryxfd0ubNNYh2HZ3X0P7fkc3+OTZM0rFdtLOo5hK1xyJznH3qVFz+f
OlRzdvfRodLi+YArjhAT3rSNlBkAicPfwruqcf1UuzyB2JXIuyUec3egN7sG6bGj
ExElpCvejVahTGp9NP3Z75+5WtovviwKTa5kqzqu3CuVRZEhIz6DgGyjXM4yWYa5
WufGMvA4dDjNRJtjS3Q2vvNVHb2NNOKl8IRa5+OVDnlrld42toMtSlgMnSUA5WN7
izbs12JdwSaBgvnd3IshBFwAtrW9XKPlvQ6764HWlZZ5sEus+dBFpbb+UnVw3x5W
qRWpKJnr9cY39cx3q00j4Px5NXq16UZVFI4EwV7jS3WqiFb2ZjiK+8iMsQnuWjvJ
KZPszjGmxcFjgeYmgBU01YEPq3DwOBul6Xg4zybZ76QgO5jeT5JD/w0HRsLY0FMp
IsThky1tAw4yIDqfqIytEdnHS16fKNDgLmWHYyhFsdYW4d+aR1NytuxTmQGa0xCR
WHAtV88mpo0boEnQeq89mNwlRUMj0AX7ZJHNntimdX7+EPb1MQd1v4nWgfyrdWgm
AFFW58hyfdqJzS4ldX4XyHxH6svnRW0TMIYVDapsWDXSQotwbAw48YqDcOQYUP0R
OD4WUedHFywChVNrNITNWYDNNdEiQsqxx0xteNHrHD+H9nDVSJFwzLF2DTUQImIv
uloU2licEQsZmMP3G77E06/8J7SfWGRxVzG0+Jm36rOcH+Eny28zoAoiJ4TOusbK
EZ4kbwxX4oTUJL4hVt7Hrq8ZIofOxzFvElgTNPdVDhzs9rUkeFj2UazvFFSvB3Gm
8CUoyRSji587b9rAcfQUYUNZVp1EF32PiFutVljOhEDXhu0oimPOCngZLae7xFbh
eDK0beomWXKwT2lISFwKW/Rng31ARwrEE4D24BmM5X6zkgFRcgiSF4ZQqbPUdNX/
62zHaJSJamL6qAr0HeWvujaQvSrz1fO6cukI5XYpSrAiryoopwHO1JcXZj6DwTDA
KPm58nUI7bKrhDZsjSNRQiPQRLvmxVHDiAYAePOP+QqFDHqptHqudZO2YLwdruDk
YGA72SWo5QvghJ0+TesCYkhaYicv23asSsueiTxGz9u1XP7jWMAr3tGVFQvDCtSE
iKfnuX/EdTytx+WcpNOLIYgamNbddA9sSpKr6kDhufzjhGHp7ooEc4ejXMiCc7N5
2vWn1AVuQUeTn1L5YGJc8lgm4aYMEFILBIi/5/+IdsXMk9hU4YFY8U7JWhLww0K9
T6ea/zfKqT/tQ/w/2KEfewTI+JYxXoRdGCguiNEdetc5TMvX7QdtVJs/1NjCB7YN
fesXa9Bh3TXJLFrH4IbVqEXt1s18XfnGSqXExV0853hPWKPLfPXKRzmNwpPn/PTl
Kle6+t8UvlnJn2EcYtzxHHfDnen0WwiHxo2zMw0CAM+NVqnD6t0Ab2twV5uRtGU3
MzkuSJjEDeoDcG78Dgl1P5YdthS8Sw7gqPZeI20Thdx0wFHJEEeA5VWFkrGFVrQX
6s2d+nT5a0jG50ysOPa3VGA+q1i/XeKw8VBT+1QKQsWCopcEQX2vZi8REV86bkl1
ZzYmhDxOB8qE7DdV9VsDcCNQGSRWy17fb805cQMpCfl50Z3HzjPHKXOc4GAkWQ7f
YsqcWnbvz24Duj3G8QDTXAYF7Ie9iuZFqLSAgZfOujTH/3zcCjC4IpjxQ7v7D2zc
zq/2XaonBtAEjl2CjLivLoUNRDhcSgMNq5nRxAn/qjlUTstAIJFq1sPO0vcoB0gZ
9pkeIWS7WALrg/KBDJPdaWPi7yoeSNZ1f3gohnbMdDIO9rEc9cc2xkRWyHmCIi1s
vRiIXAS0lUsRz41JgEeuJYhEuZ0AIMAAxN9W1x4FT5mI4yjaKcyHapk5zNHxya84
5hKe3+uYZULq6ByoMo80cW3N1/PePN/VzqJ/zy+aHYDsdLHjqhHgfv8Ne/bQNo70
PfosKB9j2P1U8MgWmOL8Zj7zAxXWa6dG2MOvbgZRbnebE4ssxLa7zqCb92AIf1jG
a29bCfrlCDPQc2sJCfzsaa3o5RtVh1xTjWXIzjSek1xO9baJ3wHL4yUyN7uJSvJQ
qc2Kyj/ov5PcZGY0xoD/PY0Cm5wEtFbLaLRvMgjhbApf/8eyL2Pyu3VUFYSmgO2y
wevYNELyQT2mVBqkDzW/pHq3rdUAzMu3T/eEMcUXkfy8d5DZ27uvRL+yo7RRr6TJ
Jjb4jcn81Z+qoYDvPtBjf/EhWHAhlTsODmu6WsGXaR//DnxRuBEnlQG1HoOqIHt2
tkBt26mLrKvfQZBN/df0WqfWFwAEc0qw7v0U5qxfGX8DcA90vB6CnG3B33N48f1h
Cb4gC8TzMD0COpmsBSp+0+jWnsShd339HyXrr1As701VPMQ3GBeUdfuhezNcVqyP
+wpPCLw7KhFto8ZW+6fTJpoZung7eDsGPDCxrIonfVtX3RoNNuotMy+879UrcZ8G
sLAun6vGrr+jYG2hjxabRlN0C490jmFnmRgqRbkestffhDFBS3byGb4qOzAtxmLu
uGv2XoXJ9Zi/s9FXBWwK5YQ28af2e4hL+ZcwSge5dlDa6/N2KfvYmyKpPe0HjyHc
sGVCNFYbY1U5jsMy/T1OhMcQ5RCv3VfvUiXcnMwYtKSZLHhEErxG3+X6UJMfPa9P
9zbP3Oi301KFfGI7zxLwW7k8IKsPW0SP3J2rQQekf+Z/VGUpb9Lemmn/Ug5VjvEU
/FGGAk1h3FXOgXkho/Rov5DPH1tovQ+E7c1DbngcBa6igodnNhU560PuevepBX/s
ctIUA/BlOYRQGnGMCnM3B8Hza+cMmQ9bEXM9QXqNxLuipCoXpLVA13l9ylAyMBhs
VfVGTE2+C9h6WHae2EnT3yhjlgRH5hF6n1N+5tnNI+agqOY+9Mw66iCxQK+uduTk
y0xTcTVaekOK8lblvzXXq1MY9by9/sMSi6BC/cWSLXt4F7XlOF2LBxuBcI1RDnXz
Bzu7Le5TXSSxu7cFIjUYOXYlwqkE0Bq3v7EIvzKJ8FNNDexNFIUiFV7ISo7Onn3f
eXnjlLFLju1xbxlZO8MeiWneSj+cu1aNwH7w2A5z/rGAhA5rJZm1IQ67RIGja8RE
W6igHj3MJf0uunPGKZt510NOEL0mObhQj3xgW/ydfVMR13V/iGFDazb2wJTii+yt
i/ve4me/vG0QhhlVTTsyxjG+IEbZsfIBX+i+77dKvl4iHqETlZqzylwlpxUwna+P
tbRhJKFgnAM/klf7YghEA10hMT8Ng6ngc7Yj2ii5cLIblK0COX+tgtlrHp/msZqV
CKBtT8mvuK2ADl6vpwno3hqG+DyQbqx5M7ogRM+XHccJwZXZHt9DS3QOBroYmZTz
FZVbgqsLh/6CECQUC/BO3ZEiJVjCwjni1kiQoDszTO+KauXiBpXXok2HX/uH63oa
VyskdKXZy3NRMvyezvHYHbHrHT2RJn6/vqcYXmMtGlEAzbBOpHSPZ7UNIurw47uJ
O3Q15OjI4oW3NEesRzKfT7+sBHBMY+JmP5n/GQN/Qh6aehWNToWj18y3Ns3Bh5t0
tWdagp/NkkIcSJT+n4q2/EqhwPSNIPWJCueTMng5KBwAm5g1/lcL+LNAk/4XF82u
KpD9D7AzfEgn+h2j8hr490PecAJ6K1dW7A7Qi36O1GJsNhD3TibbLimO+EgqC6KN
CLM5Uw7m2/GWiJkEpNGAWdWl93MVbF7eWhUQ6ctLCgBxwGq+fiqZJdeZlsY8yM9P
syHomPIFIR3BXo0tSwhHTfX0S2/VSCNCFYuTO1PEMnvW0AMkbAjvRdbLf2wXTO5h
1M71ZuOXATB78bugCh7JuPe73HU/ZkIWLVepHhQzExnzeD/wOKlPO8S6gpqahASZ
l21hMrApLdPK4mTGCJkDi3de/UN8wccllgPglKo5P8js7lFKOvPWqhbqgTQIDIbu
DXS0Ztyyp21FwZV+IKjVVTajvcOTHil4v6gDZfly/sdKLolWWc3g7RaaYutfD55i
9O9mWa+o6TOeuqLwLUIEDzPDePFxEubBUdvT4Lndzu/TNZTpDjaq9b43m20dKYTY
mveBQ8Aj4d2Mlx1EKspyQYFrS43xTZD4g2j5xjgeoifym9Sr044Pgi/iI+86RkcD
xP3Cf6UI0OFFizJ2Uq58nFy9Ms2Z9Ho8r6qgesKjtn6x5LVmIMVmCzFIxAIgLcad
gwxz+b0JV8fCttZ1MfJeF5pSMdmS58WQRKIoav6KY0Lsf5ic/QCb6vyXvPomiTAE
jXI2OdEQml0kzg7sul1LMGH/IREmuEYOydB57Qi24mjLxmuu/KKjiaXsphrQVYHU
3mA36lFci0s3YTxnnBlNnRmiNJ7GbxJyMXf/2C31Ha6dSbqJV0WwOendjlZ7Zta8
EQ8s+p7EYxCRzyXN1OAKBTTcuqGSEYyd9fTCpbibb/xXPctoTP9mAqko+CEFnNDE
U9CUoCNotyBA2ksorobnxaTDJKaVo6miRBslbMHXrct+R5mq9jEb6IDpL5xu0yaZ
iuXn+IrGWr30n1WVSJVJaT7JkV+yyqg4xydLDCKL9jRWJeo129ARTd+Zziu3hXEQ
CvoiVHd3y3fjvVJ7Y4bZPDM25VxQfBZNxkl6mQjZngBxp0sb3P+fIlZXjIB84xLr
Az01sjyIkefVTg8ibIfPHkUgYBNOJC4GZc/1jwIxHOlm78qPt/YGXJeY+Gtr2e/y
YAN6dMZdD8bjjmwrxFS/oPexWzFzkmCkjjK5EomB1JMexyPc17NRuYHQUYtRSEmy
Sz3wZvWbmrDLkdoo8/sgcVH3c52er5+EclkdqRvwRHBXOfkCJdf6PG79/8hWR+2n
u2LffifGY98txblp2k0KNR2IxOkSZHgR2EFo8UWMy60Sib8jBWcJ9jkjlgdZReHq
UUF63ShAZfa+4hpaE9MiWnGoel2f70UmxFNIrtrFVZPRaeQ72Qh88vUeRpS/JC9i
PrDa5xJZ3kVFITVCZP6QqFtYeXh9hhYQ2VEx6DDDEg/ljTxxtTj3uii/nG/t8JuY
nXZB8MaA9vtdR69Zs8anjUFPnVFsvORSwzqas2ir3jkOPZyc9Q1lXVNOg3+rVPAl
jBNazXKW71sD8S0QXANXuRKQQsaWEoFzJBeSs8RcosMMgQsjSPxYTz3JbrBXNw31
2+YaNBHbBexfemwen0ku25r86Zu1sZ/jwZ1z5Saa0F7bDt5fGquqhbCeiZm6qgw+
SvPtcYRj/nQN7keQR+4/kbLPTNYdUZhPPn+pxJazdHJrF5tO4lZNvLgHcsGNZjzW
Ra0GLbM+nLieHvcwnqT8QFMxNSPplrUSVbJL4Qwo+v5PlftGoKurW+/55CkbB2NN
gs3gTyL+ujh8Blx4jV1rztgSWKpDjlUH7JrThg5M1RNT/AhaULUdSs0Sc9YqxMdk
WziWcQ0gYBAy236sn64gucjn9BSxPLs1WHmosL6uHzGeEWa7mE7kqCHMVDTWi8El
Lz/T9nnXKwPq010rflWurHYq70kryC1KtUtDVPDTD9XVJdaDgnr72WeOXEbe2lyb
PbA95yv8/awWiz7M2KY93RvwriIFYRR9cTm/3eKZ84KBjMp6RKfAVxQ63gkcrD0u
uZ2flcc6iLvBvtiA8zW1Ihh3vM2m91fjk1dmrtF5BZTE9aDTR1JgVIkvjMokK4xw
Qqt9q38DqLwU5TYLO+VScSyRTf4rYJJg5IBYgjBdo2mf6c315nTv/GrORp5NzFVr
41MooyC8ryLHnDKGSUXQeOu3m9SSiZw89/M4ZhWaneDDXU71GOTzAe9c/I41ZVzo
hr61l7ZOexYnnR+Ft+6h1TzScQokOL5qV/Gv0I8bJq0pMkXHR1K+WR/TcvybIVd7
iPqdVRCaytrZztUDUc6T/xIZfFv+Qi/dVJkmmaa1zSlzV2oKG5LDxnioIYT6vqKG
CDTa8Spu22Rb0otdXSmrZACIdQahWUydSmBm3aiRN/1BL91yfKTyLRdfhWwAGhss
A9PxE13Z6UH4VeY1rjkZTLUiaVJiEiDW7Ygb2vnptzchbBMuLDH69SKM06O5y0aE
ymSY0qF8GRBftaW5ADxr/naF6oSk1SxNt/iHQIY8LFaX5bat1VqLPlq/mRogppMi
Kuf5H8hJcajU/2pyXs8YCnfI+mGZIInSbwbhdzLLzBiRMKg/EtvHbOFZfNqhyFNt
5maxr/nm+yYyzHYVVqT6gXn8GsaiCBvw63a7UbUVDRsaHivR1QxEhkcr7NsN4Y2S
/1gk/ibvlDLZnYbPDx5U8dT7G/0x+AGsLtysTv731ezns9iUZTqGn2cBVAFpdBhs
WvZJ2NlNxPYBeAqyOq0tR7ZHD2B3NwPs3oNclMYjP6UieO4wCRee9jhHz4oJwF2b
B1YSoMc6b1ZBjjffR8xja29sUOphmZIyoZSvFkeme4EZeNCcotxZiDPWCuI9Wlot
9ez0zTiMdsyS08zc0OS0hRQk2awkDnLKobYQ/qDZYsH1xGF/lBITXWET9nIqmCbF
kxD1BRXdWTk0GckWpgaCdTHTPT1ajiRXBK18DqNvUkIsFLVEND0ugrxO+FcGmpq5
GTv0caGaEevfabi4snFp42jDn2UlrrYI8nhnroZBO0wGjnLTMTo6npK/cqj5aPSN
XWeMDpiao/FyKF0cRfuXqCGT+MjOrFQjKarSgS05pZAYQdAjvOUkxH9a44gSgn65
hbQ9Wvf4w+3pVpo5S5UBxLjBhr5RKWw4bO7cJ2SYU9GZm+F6w5LYapmRrsxGDHjI
r0BPawbDngHWxgLynN4AFN0+EADALA1/2aqyZaxcDQHDmObA5QXB3Dgo0e9+SkLq
sbz/ZD8wo1xoN2rjL6Dxs3XjqQGMYaJJ6idwus9ZzhGhHYxU3DdpC8SjeMgJqNRY
mAAqN2GTH1RwrPRjsT/FLf1i0lV33WjAn0E+3LKviKSI46zH3jt4dpXwmF5SbfYD
2Ch1ZQ0wZlDnIbCnBcmKtG/IOEbTJiaUGA1O/bSDMmToX3lgmPHNmU4pSlK9L9UY
7fxf1rQNco20ilgrBk+t85jwcbJP7fDDugQoiKhRX6UcEih3URj3xvKfEwKsiclJ
j8ji3wcekbE78hgzJfgK4RAi2Ia1KD7CCk0z3mEZxSdNwraSfN20qRc8eDmVQrJN
1w5/7RiadZQYsXPq8BnC3ua5TyyLaYthjH4x32uc6FqCMkGEf+sWKtDVsMzraam1
UCtQWOWsizt/wiBcgRWw4SP5IKmwVIpB8+GbdPXg+/v0vPT8ESlgWHIo4NYNfP5v
Y91//teKiu5zYN6pu/Oj13Ksf+YkB8CgpcU53nciwnX9o87J8mBjrme8TFGJ9mR/
H5S2mQDXneF3UTR1OZbBv5SxMUR14rHuD69VNVR0nrsfd66gqSq4b5ge/IFKtBw3
VhESLM+pX0c4mlSL/EU6xyzpIaJdIHycK/5w4wmgjm6D22qIM1eLUwZTk71YVaj1
/SjjroHmEijEUxOs0rULz5w80o1s4xT70ObHJGHM3uWnAYbFjyNFakXRhdgHhtEc
VEjRNKKJNLD5FkEO1BS1iYywc+el0uA+7JINBU12lENkai6VIi1xr/PXJyKpiJ88
19jcxffRFehgb86NQG7qSRu30JqfvnkxIrhaeg8VnKRvy93wx+IYhbUOcKaMcugY
Fo3HL69AbEdstVJZPIyyprGdP1q2OzEThOqcXj3EwxX58wn8mxoI/U946aGHjX6J
s1ZQzhHGmfmoeKVZw1zvGrTeF7r6X7n4WUWoe8IZz+LWcmz7z1hDIkgcLjOl1PCW
vc/qdLTmmDTZfnPQrMS8mLnqvkGiYiR1BpwhNlraHj0HQOZ7ClbwLXa9ABsxiMWo
RRN7BatGYvhxGYwBRLu3qJM0HTClIQmyzIOh1fkdQXzQeFe6R26C6EH2UeySEDS+
49veuSHmT8jsKmBmlxaIaRVUyUspi2yVzbf4fqbhzsujP57Xq11HzNerMZ1Hazem
ZdX65mHpTOV595WY/lthuc/pd3V3SuMjSpnxFeBL0sptyqVE1zCkihMQoYFPZl8T
Q7Ry/LNQ8nkXUq09eYn+BUAVQW+H5fe+Y6rd39bFuj+coCgcxPXEUu+cbSKHsodI
Y8R3e9UMRc++2EpsaRL81K6opglVnKom0yZOBj0vcY3Z3cYX6VIe3QaL57YsvMiS
tkSHpoBDzr8bj829SfbZbiunD3HPzhG6p4uJqv0AvWohe3MBQ2GNa3A0jktR5AkX
n4YwMxnUp+Xs2ozGUEc2CRSYgubcofx1W0U3fPICVtNHCH8VE5uxCCeSZc4TOrFZ
U+jLZnw6DvxR1bK3uf+2N5bJtEHuGZ9Hot4DPIijC09G43weMf+Wjdpc26+EhPAL
rsT3fP+Zc6RlfeNXVhQZpFVwYw2LojAFmLxu30qCH3iVZm//5iVNjAfQ3VUs2H4y
kceObXb9UaWzpt9FCGfksAJntQEVU6sCoTNZDBZpkNMiobDSCl20fqe2RMNNx4a+
93zWybs1uqMtrFrLiHLQOSWwLYAv8cdG7sIXo/YgzS53NCVhbbd7rDIS4iUwKq6V
Aanmk1hptybqhltMBj8K3FFtHPvlAAZcuSK4CPQExQF1r9V1wdu2/dR/Tk2NxKii
t4OjNrN3pWaIbeXPI5+GkJTjBUsYNuexN/Q0RFQPIB+Wx7kVikF3+xrvMj5KRvaa
vJYV1oWDgrwNbykoLkey6pp3JGggnypOUCN/+53OD/UkvtKJQLOxOhBJW+CyKqR+
w73od10A+fOK7q3icaYL92zuMdQQN/o8dUZUYzvZN33GL974buICJ94MGqMjjaJ8
GAfhblwRDt2i8s/QMFcRhgiW2BYtos0ULKHa99XKT6bpj+tX7tWgIKZpAojVg0Er
OyzSnKrvaWBXrXExm4qEsm1OOig29dy2PVcxafN/PCOXbSx4BhzIznaQ0It47q9r
QIoIE4z850ZbM5C3C5iX43rJO59uIQ++tWVmZ5R9F9we4pf8tNmCA8tH9p64KFKp
0B+XZiyZldT++EQF+0dNQRKZc666HAglRy580tr6g9flOJvjeCW7q0gZRkJHDosK
+HsjZ0JlK31ipBsw7c2W5uxek0Af9o/r40LHlcgjavAdaUP7seNJsmvjdg4pQzD4
QMuqoqyJQ/Foln5aP10SAoT3MjHIPGOSKDvrzmo2M+CA+j2DKkvvc7/PI1/y85em
VtOilriimk8DTfGcgbKdfk6PjP29Mejz7o86MOMXgiTKH0UFoFPyberBVrE0u5ke
B/MPE0obdTeBdVuDsQFuBb29roWspKXAa53+JfqUkMmZrPHgtZoI3RTTCworhteF
iiKQdmql+UGsSffG37fx/p2cOMlSeHQ02q1UBTvrKNfTTpHpnBuiHJFm6FkWAm8W
U3joeeKereQkMB7EeYoYToq0Zof+VVCSZak5UIg5SzY7diUT2j4oZMtEvm/fIZgK
arE+oCpIgKoNF5OSCT2OnLc5auzD8maFyK20B8/7ij8rCiyNNZRZliMX6APPtufS
/PxhasxxjWp5bii5zdcZeoVQhZzi+eaJbPcweDBJR4iYHxI9gIWcD90WVsZa2SLW
oOZ9mVqNU1Y8tX0bFCZ/Bh74yhcHaZnxNvSiMC6jG9rZCp7O2B4fCp2fPIugtiiz
gUO+y4Ptc3ba9U31JBX8s527a6Eu/9PPU9h6smJc3KUahJnFBsNYXa3+4Tzdt+rL
Y+j0VdcX2AVzsT51kTJKm15aSJs9xbUAr/z07X5kd9DHeSeHAXaD/cp0cA6k42VM
oqJxPVLUkHDmMebMYzVa2NefbMHJgavJkMqWkHEFalpikbU5cIN+MnDn14mkllQ3
KubrUQJ3WmwSEftN0XSICE9zjVCBdeQOF6M98eQv+FiZRZ1q7Kahj7yGVdhzo134
75nul9pT4UDqV6Bsh2iEV57sOSNEgiVrwAs6cgf0sH4u6dhc5ALpyD2Wkyte0HvX
cj5HFa5+9GTZJ4aL9kvB4XWZurblT+ENcL6JP36krLXJvN5WPzip7gxHEwtdaR8p
RG2gBH2vdRM1UR9YTN1V4LiZBmF/CQKWcgKwdf4zBSRUWSSRUiGiZsml7FB/+aKJ
/LwRKf1Ao6+KyRVu674Tp6IZq2rGzk9lFWYqzu1BdZ0cJ7x9iDd2Q3Exj89CwqIa
R3ODNnb2dQSD6XZSOiHuqQJTMbqSL9QjD0GNcnhJ84KqyHo3uc2BrZJR34jjMHJ6
H++N2fkcxEm4YGle3hdmdBW5lLtEB9N/Nh+hRyRRxbfyOKk4Heexi/4YyL43vz/D
Fgi5hCd7KPI9R9APnxW0wDwvBnqElz3e6yuOKfRYPTg5b5K9sZdaUdUEV9dRYDSi
qFN8jLZA3V1kj3R5mm+Rkn8asiyy7Ji0qbCBDWhjxqxuroF7Up7pb79BchHyTOOH
hdWMFgNlVMYHd17t0vSL4viwtb4PgoM1xa2gG+yctWOLXwuXvKgCRDWtYJHFy30p
aiR6tAQHBzWKC43shDkVsYCworot/hiAPwttZa4JeS7GuzBr44oxzz+OOf9sXXza
9hBzkwHHHcPMaN08fld9TBJ00kTMS5BIGrdrhFLOocdp09s+wYKArfygr0/qq56K
MkQaaACriPAohVboGArx3HOQVKvubYWnhiv/+Dc+01BlduCvuLkEJvllnmsUCOi4
ZmNF5Tg75CaoF7eNfcMbXVp2VW59RO5huhvp3DY4IHc16RhuCkSFCbai2u+4D49+
T5XbDQ2UsOPTaSuYRpLERLjEqKiu35FWaA438l4Xr33Wq/URNE7fm3djkCAHrqLB
ek9t9cLfiBMrKkuTCzD61Wr60Vl+qlnkfzZ7t8Oy1hPAC0qqB6yNcDlzoAKmNbH1
KqrqvLjLkY5CB08WGYckGQ2q4b7oP0XJ4B5Gg+e5K0gsWPGWps0LHjCLrbV5+Lbi
3mSE2imw76ZlrXnCvHa+SwzSxA+YL94yUViyPn4Zvr6OK1qPKgoV5NtWVH9pxttF
5VL4UM7EISk7pjaF1scf40sWlcAdi363JHQrIHSwdUi535uAX6FYdSQCDcHGiKFl
ViRJ7nVQ816QzZN0xq9XbHMPjX4lYpjH/qaPstWXTTi9zLlSPFQuMSVjJf8hRv9Y
mjUeE0aKVgF/HrECQErzIkjB8XziKlTtbYPbGSY6U0bqFwYPB/s3GPjcmRmbT6NB
SD5m0SEiKgfL7+NZPrclYB245DvRq0Zm3grH8lFtxrdJe0uwZEYeDp1b+f+gl/rn
oeLR0bb37OXo4Jp0EZQrRE1gXS6R2yZC+opuc8lf3XUTZAb0v8Ym4Uw9qWMhFuOj
uyXQ3tE7Ti7pohRmpRjenpEB1GI49USu1y/6Mi1YjMOiAqy/lnnN0wCwpr5ZEzxG
fg7KewNv7yDOAXCdO5MKl/jK++0Y7dPob553/KEfddMkvu2UIGgT4dOEGfLe4Ew/
jJX9eXtIYrBiZleNDdWii+tiZVGBU9cbjK+LQRm05O6njgnA+B4yGNLTihn1RN1W
Jx2Yhvyt31iem2yruDNZ2NEWbgcW/MalazDh14Qsj61o0toT0t8Vqn07EUyMwCIj
WD3ZLn0hyy+AssL4cs7XaEoCx/mkqZA6K2uSj5+tRFXjjHW3iItWO6pd+kHQrWXb
cFADovcuNipEqzZxNFHVaDQ0Qwv4TxELuLpwoUTb7lpX4E9EpM8g/WiT0jcxqCu1
+e7S1D3L6P16KFBKT9v1CfQuc8tJ1IYjO/mt+3QOwy1iJ44n9bCTf5EqGmzjLgEo
HhmGzGE2hILqDnvqHDHpOlxMUMH0cmzotCNLSY3wq6M23YyMOfFM2mn99PQ14hsO
rAEcE+Tu64U4Js06XXiVK4F8GZ85ZskV9dsT7fbpPiCdiW4WtvtPzM1BvXtFlJLK
jV16hPgaTynv+2yPNAGtbVsyTyX1dK57TZBDGN0nvZFBdteGrqWpCQTCMFYKl10Y
DM+YVqgnu/idDEZANlDrYMh4k9CGMTnK5GOfx7eVVdH3OcfcWANut8ybN5WPG9V6
BCIajGOQtPHjHHf/yal7Bqo86VvlDaONJxIsddftODOAAZjKmcwlDshSiUOF2bZX
Y7DEc41cKNfU6JGbR9SlxvXhTyQQWCdpJJlYH5X8P6A6mtf70ZbZKRDDV03VrjUE
ybQ8FwRLzHPcXM4pLUs7dciv4fWJTRnIzAxF9+NOdI5KlKsihTWyFvRSzmMjEC5b
IKmJ8Jq0ogvGF8+6wAOC1+zjIhDKKNi3WI6frPDqzavZhr1AYV3cAIKLKiCcMd9r
yh3t0a3rCSoLxCp3t9iE7QrrGcr0qQ68eAbslQP2JwO2/AnajwC2PukZ5gJYArJ3
og9x+xoAPW00F9Jbqn+v0JoVjoTFJPDyH45kU9oE5Fia7jXJlGsIL+XGfBUvdzCx
J0bRMms9+M+MI1TkV5TyHkrme8LPw5jGqZ2uJCR+guGsGyShb2OdWEkZU0o/Mgx9
2LMYzSdFGT2lZTrn7Dk4GXP0mNpaDDjs4bH/kbYv7xKhl3jVSm9BsUO2EWkgOXmO
kn3j7mMG4ZhxrlvOihzfxb8sRZCAAPYE4r2AieiENVHnlru8TgHsvlVHwoFftGI4
KdwYPL4vRZsO7DL10nymEJjc2u9Qzz4GxuIxSqeHn1uDVtW634ohuYdOLkFp1qmY
46p448HKofM6tMRpA0YuNiUzdj9iYwlui82YvSBaT5ZjNzK+fPKpJcSoJuJxTsb6
tggamGG9IXoLuga/WfJr6uAERoPIF6nM/6Fi2SZN2N2I8o4AHaF1OAZR35rTxbg0
JOGCNSh6Jv0ONLcJXf3cypRctUq82clPYspk5rUoKjZw8+s+0BQIw6sYWUHiOq9a
zftl+SCFesqZgj2jwRkNblt0dbbYsVx2VhydRPgjAIUZ+B/0uI5zzvicU41FdchV
hNi2RV1XUUuqbYTfj39Uap4z0CGJw4IvZ+DB7lqyVJeHTudXgwwTPSYzzRI2UcZS
XEOVfZIx2aoGXchm63SlITk01WOyD6zPpNOQ1yfBvR2kgs78XFU4gQnM1T4cqv/t
pJl4igqVXIuD/3wbO4KkJ3zuDJZAiuFAXG0vBeQ/bnbnOMdO3y3JFptlHWwN7jFs
jaFlJQY46pRQuZ43nagQyG0uw0LmkTR2u0CZyUWarjtlG7APEtgGXcFNmHb0AGvR
2Jmjxa70w4GT9lB+JnFwhmwL09WIXdNBpLwS0loOGA4YmE9t1/PmJohPpnUSAHg+
Xa++i1nhKsNff//NzybV+r7rDyrE4NhsZZypKBUqUHMLRNgshieStRuNfMXI6LoX
rsNpsc5Sq3ceYWwdQ3elfO/BNq1U5v+B8mXTZIJL9MhmGT4YPWqQvK0gtXAdF0N4
lK0YzAOxiWfnCeA9caAhrHqjMzCyFgV7aA5ck+XpvH9Nbk4TphWr/yZUBCd+hzZ+
hsQ9asLPKlEicVQyAULxKpj+GDutz0eeMnLOvwPAjQRrsOAbYBmBfyLatqBMQxQo
faaZckOenUvIVDnBu9suZlM8MrWKaEx0ENiHTUmv8zFO2aMqlr6ZSI+2Yjf5vlLZ
M0R91iH2DibaI5YY9wNXOSzEzzfx3xuEFw8P6lMZJZH7lbAtVpK7+oIxOHaq4S6v
iBB1TY2BAsG6iAC2T/4XRJKtFkJcfJ7NC9VtL7cLmBhTh38j/eOx2z7izynqK3Ah
8TTynYC9pDsaEI9+u7C8HwZ/qzgdIdVKYxpPzXqcXnZXCirlJbkKWO6qrz65nw8k
bO3HOZTPz8k8JgH2ylJhSG+DGfbr/wcIVyM8Byg59jSQubIDoqIIbiZwvlcnsvlH
EGep3RXURGPxnks0c9CO1rwIRF4ssviRrTS5ti7l4Ir9SqDhTbQSfUC/yAgVygM+
dehtQen34SBj3cBmawTpbzqyQ5RRwkGEjEN3II46WKwuG5z3yMxVbxAB/yjuXmkT
1wkKMdYOAFvpqBqqBVmslbNN/JMReit6q9Ve8cRCYUQHYF70jbcbCqyR8ArhBpYA
J6gzu2P0LMKVHgqSdWqJOEQgxabZVFACZBerZNz9QajV69NAh6iNpO2S8JHVIY/7
mp3DTrOF4F2dcaDVoADY/A4JB+ki7I46Jb6POqfB4EX2jMsEVQknSiUKNcei/hmv
VwFNXw7cuFnXoeuLKtcy2m1z8hz3o7LGboYbV1GtECjOeUbFo8u/YPHtZVpt6sHT
9+mV80qMaIgQ4snBT/RcKrs9ePryWCy5v7LlssyNxRxxxhL4l2klYl4loGpomTtS
vfdrq0yFgu5mZ+kj9mHHvpnWVFur+rmiZIJFbS0ZvVJ1tfs4vGSJUNY/sH/hfWeF
O5n5NnbCxkSN0JtyaswimEfN2sjmjaRTzRC6PHmX7RNdlIMrQTzs38qlsLQWfiO5
4RMIA3QrOqb1stbhUMo9u+BbCUUJDImEiOFbChy+3Uke18plAxxrFq37skL0EvQ2
1sQoJT7QNegrEINEUmlTQDo8rZQqMSJAkz8tH42GjBOlFdjLv4QL0zZ8vlhUqOWC
b8LcS1l9AbHsv9P+5BUx1IikvqWW30/ukz5q1QBSipiq1w7KcQI4VVjE+2dt4wBs
3wnRbgFZvqHkc1pZEDphR5+CjoyD+Sp1DHNs/xYgBeFZtAgQAL0p+zdP982sjRh4
gu+6ik10x++5/BCjn/XJQd+OPo2i25ppJeMNyehMDGAui1e1w9ns69zl1XdCfDSo
U5a8r5U6Q4wqxF0VnwJArlxgb7CD64e9XjRG5As9uYdTDPr/4wS4p9CzByriRUfD
2LybyR9huorVX8VKfNt/i0n9yISnC11bzsod+X3xLCGdbOk325NggCtYnXT9CY02
pZQ7+258AUvAv+SdqpeuBp9n2U6eSN2VebMTXBe5K+pIrd7iZzCLV+kKLDlabQZY
Zrm7DF3w7aRS7g+4I5tSjstXcfTpPrAl2iysQIt5ZVGyf6X1Go3OZwwE/cYnbOxZ
DiF8+f58yjXUnnxh8jGdlnfRBEY5GWzY5pGXdWlBZbccu1Bm5ZFH6sR5cybAXeOn
xsyJh/4s7voCYdUN+uUa07u6Z/4J/zpJOlaDP0cqJ1+Ptu/06E1WB2EVoFbKEGxN
gFr1rhhbgpOBRqnqJBVkhDDU9T5kDnz0TA/iutqaQIbY7eciu2QBew+iDgUj1Lui
vtlXKmMaAKuaJWCzX2oSZ7a8gNBGkBVXfxAvu+NnB7Ts4X72h6D/zwdzG+br0XeX
fgD6t9xGSDIVYuUW90qT+oEltwCzKxdW7R+p0yWBXPkg0NVvZ98qa+HkdTgGrT8Y
VF7tWrY/68AtNgBCEcqTXaPL5Y+KzQ8b/glfPb8DCXO7ijM8kQjyp4usJF7eqbg5
aHIQ3J2botQpDHzKS9X3/CRopQgUm96YYziyYAn8GqfF4mkObwScWta3Uov3CX0T
at4KkMLaOf8BYUyzF1J+XVlRcQ7jEYRp2oMxXr/VzODPf/v9S/aNCCSCEFLcjnoL
cHt8/I1OWpWm05oWGkW4EEtS6ifCxB/ZJqwGrbnqcvLh9xzKUUhwNRNLjgMKP2uF
qXsfdlaKdDmYIvkYmPy8SJN8CuYGIYSAGHu/6yQqXWWEZiLEH3I8Pss8w6pC3Yar
BrrBga9+f/axAusLY7puCnHgiuREffvKphHQnq/XiGEHSWSx9Z/tLJoZcCqJy1UO
lPZwtkENRNY19ZZvMvVbEEyHQ5OX/OfBzEzOTXfom3Qh67cNWa6DYt7A4UJoTpXT
PBNqLa9DvLR9xIjlZdEagirfCzG6UCxmBp7bgHkxzi6uDVPVcCpN2xVPNn7OSPeu
/ZuY8HFnODwEyR3AQji8Wcm6wkWX8aTgTPZt8cNynkA6Sba5XycDODwYacrt57BY
8fv6bn7aMtM0fiW+OCklA8aG+WnstwTn+jzQhSb6l3KtVj0389PJw5UCNs+c+2p0
lGjifknwkRLS8HALU0y3HPlXJimm1jEkShTosybxB8PRACcf4vZ7uPXgn9ApKB0o
OU9T6BThRchHp33RkqklD/aj7AaEZKBztu2OmuElQbUigAt1npVcAev4+pE4Q1B/
yiVcYHSZRmHHZtj29ucRljLBjqnq6PvgTV8578XY5hzvVaxFQ+yz8QRD1/V+fGvu
GJ3SnK5z7ihpinuxppXjl0Fcly5lCv6tImoeDL09Q99nDksCTtytv6m6PhtO/Fcd
RwCE58xJCNfyMN/QQsxd8BB37k6qPeXP0dH6uD/mbD5ACoeS1lyOg2CwfMU7Kh8a
Y95LJTNeaKb65q5QQPVCetvhK93Mtc70+2p3LClrSc0pbbo3Q32UtvfvhBZHjNyK
swyvT2kjNb6gsCNBP49XK6yqPlIpLD/8NecttJzH7bF9Q0z7kwzPTF57STv6JJuP
vOWy7RCzBdhSGvIN5v52A8Fzi7BYzcpTMOBIbCl9RiT5fYwO76nhnXZjqTbHiUVF
EHz4cuwcRh+3NrKFTrZV08aiLSaBfFqfQjkJRHhSjP72UDYv12qwvjtByKD5EOQZ
b9xScC44WLdsSkNC67xqSB/zgxqj95/lSu8QRTPpeOn+2muDz9btOWAvI7bZ0giD
KkC0gU2IoyibhjLJHx+hnow9eEKvPGU2adYwu0mGiJNg87oFcOVyr0pHUaEPhh9T
zwyairIcDEnAHMqRgvBYCVy9rOCNiAtmtJpGg7/2ayCOmV9nn/9WMnqU0Z8OuoHG
5n5+pBryWwV5agWfp/jvtSmhmR+I0qG9rYx4iL49OkUSVUSea9Hqof9fYtGPw9gJ
NEqojT3eFyGfNP0FL1nmn6NboJ/bG0JyiTKFERb1hy43bP3gHZykG66TQROtLWSg
XqVsqJQxVU88mJCEIdnzgnBakfkjILK3j7QfOTnrCtw/NeRpg5vgZXYq6kBz2bey
LpOvAQO4yZ7G1DHYVNGEhbRJPiGw2FOxleZzLwxDH4vbo9sSkLlG4XUfu4dmL40h
cdjWsZ8de4lLCCbd1jNBNpSbaldI1ApPmJQpBQ3DPrv0mdlFPBRHTdHZQQr0ugv1
1wZhRZZUfNMYAfTffqyHKo0NHRFa4OF9Ibt1bRuDEplTEypMq8VEwKGW8Ypenqak
7nCinZeqbIs8au6osmyiPz8uGOF7sLXDBHmX7EXotG6d205Dm5Z0hJb7MooxuCW5
RtRz1nCCIIww5rKQm22PIZdHbc2qDIhKwsqYaB7D8wBHwNcr1QRmEla+xU2VAZg6
vddyKbYbBRtkG32B0DvisRxmxMrFLUJWu1h/Vzw86WDGBW7OYgKdR7Q+2W+c2CBk
WADGx1gZ8oQ7ZOIzukQ7HVAYHGVoWhsBGDgzg2m2ipWCUC5PA6KQi4zPBfdFo5wk
Sr9nJR+3Cj8xHls3tKwkJG174Kr4a2wgWI1twEgvk8itiPRY9TUKeC+sXNDbnxHS
lXOF081tJkSS9uRxRMi1NHImsbht63r9LlSwEygkbp7i93rSzX2YjAk7ewEjKEnf
+a0a/xZpH4kCQbKyQcQ+Bb8sXCHb/Q60mVAJaQ88NEchyNn9OFkc6pPJEix2WpyT
nKlK5m/bWTzRVGYH4fkCLm4uVXBRy2heJhc+u13VihdtNu7HaQQT718oC+jJpyej
0GQZGe5XsduFqV45RCgdO5oFFPZK2ZfbMf46fA+ame4pBl47eBIWk+syvZ5SAWXN
oEnsKv96TE1C075lakXkOcdur5sTs1GTtQDkxzk+zA7vko7mUgZa3LzXaSP+mBIo
+C+NQIt7Cj3E78izlaghRrP+/r8NdeZccM7VhkvO3GIXrAacuCsLDm8Bi81rxLA4
f3uGgjr6A+QavujnOEqMFcU4oqwlIxFOdeUdKLs8HeIbjFoRXfK+GShFd38pkPCI
qaLZWarjuwkJAjBlIWqrDu4Zh0nAkh5gkarkGHMn6lusUZrMHQhq2Nl7uvGFSjDO
MFMIgD6t2UI5QDW8GW0XsLBPKbkPTFBeYpj2EnOLqPkK2vh8076hVkfVIHubam1P
f6y3Xk1ENM0qQKxQ+BfHHHcPEmkePoMilncof0wR+io6B7OZscVeOo6f6O4gAUNJ
P8SM9eEpDOKG+hbocE0Nqs9vf43TrU0oIHSkbv8BRdiMUE1DLHu0RsJzScOBIKBb
NZS+UdqqEVRN/eh1m5YvQ6cKluk+oKVE3dQ1kG+Ic5SaD+vTpCyYiJrwbqTBpo3u
iISWnsTXmPgNin93ROzF0kiglzkd6LPSZ0pfJY8XkU0Gra7EbBCE3zBTWlabu3AU
4SC4YN1p4c9Y5WJC6cdvmHgwqa9u35SCVYZUVktphiwbx9f8NI4gtsrxn+egOTs/
Y3/X8Ndl2ToIMRewEqXgi9cLESOABvc/Nh5C3Y4IjvjfpOZ+vub9cgxSrLwDLFNC
DRBcm0DYybkOHWxynzxhrg9KCg7QdjzzExPpN0xYMZ7wyMU0ZiaSyYNtkRvc88tB
dvhePuAgl5nKUEm9RgVBXW24tG0SL1knN89f4zGoYNwZpdpRcHP5WOrN9uC1BDZx
v8asmf1mxnmFGakC37EGOqocYiKKvL4aY2XQtbDB9L8pN3SRRe7esDTee4EOHP/y
xZmdderZ8IjbUPDKOYKpHiSe7xYmwiGozJHE4ZUfZ/5j0dKKaW7gvcyHwrC8jtyR
L1et2DSEGOmCMDL1qrf4jX3NiVh3B9BRzwL3KUUsakJeY8FJTFcpZ9dkGJnnf0gJ
BVvX74rKRZwpwSN1E5g2GYfM+a45RwqUVHFjAHUTfVbSF1yC0mFz7JCtSEUsMV7J
Bz5e2YIDFgJeeqA9vwSfIIfpFck/Q1sOFnISvGp+wwQy4U3UzGLMhBovgAkcNh79
kphhO/er/6Z5GwPV6jaKBtri6QfV1sklnkoIX8iwNhwlfsiVAwWo2DpfTdzkSs4I
w4NFG8+VCQwFBwGtCQe4kHdYBK9s9FPRzGITk2i3HFpz+WE0HbeeJw5MiYz9u9PA
YsElncYwLt/3JJbGQGxjU7jpcyEZBtPtqZNWBBqjyjR7AXitZHVKw3Q8OsJ7eEUt
YFb7oc/OZfinBR1/dlcmdFK68xAKrWyyAEvcNZ8zlcxHeuuxfaLP78EX4tRYvYFo
TVtDYfkUoWi9kpj1/6wuXA90wUyiDlyiZBKcNdoE9lkRDuTrGO+kiG/VGl+BIOVZ
3SmmMrebKNRYM8YhN/v8ourwAp/l6kAtPeUqulUWiXINjsZs07pRIzdD33Gb8OC9
NSSQEpMycQATIoL5SxrhiyUid5zXBUfO36FiNnE2jr0SpK0emlwaauxR+F3L8hKS
ZyxoZ1fW5U1aGlHcKpkg04/X4eK8Q2NVt/c4Q99uX+GDMt3hnwmygB2HB1bT25h9
p0kJSCv3ZnsNgWLuC89ymP748WJ9JzhY8bRs6hi/1iLyjYnGQp7OvG9CMqc0FI9q
KR9zSd+waqLPVQsji5Qmxq2oy+s+BR3uBuiJGkuZ9k9LvFB4xUfUKdlvCnd8ybzO
HpsQcT3DgosR9x2VOHQJIYQ8nYqy5qLXc9noOQmoCJ+wusvniyzzA63lV4+iq9Av
mNUJJ8pw0D8hY8wdsTpRrlveUI0/b0675I9o13fZXwGGlkaotqEni4DujderUNYO
fYJV8YsunFufzzORAvo2W4iC3x39PklXhoEnV+AavW240argLIyGSgHOXGGDyTue
rZ8DuDlFhFEaCfZedfcygaSGzqwMFh3OrqMX5EOUUQTR7nEDreGMOyERdnHJQcCD
zw9J7UMW+YMLPDYSbewefo7CTO/hWjGiH8Z7J+27pfQAEh9gKc/8zIhSMXHgI9Qa
LcBisAfXQvBa0b5PsLmxF6q6C8IBkAhwU9UYkvc2oXq9txmI9YuzNypatHNlQJ2W
JsOYAQZCueGH7v8H17FlghU3YJgasWqDQu5x1n3zfy1Q1+ZGW6xZOla1LXI8313f
Z6fUK27QXHsvguR7w2eYCoK+BVGMLosCrHhwR8E3SnpyvYHhscO9nnf/NPTzLwZx
aFromGmTHH3CbN6YPbCkhcbQveSx4ZBbH0XQ2S9TSoJkMTE1sysYvPVa7fFbylkj
YK/LUH43fCjao7QpF76tZcyV7y7mJx+9bplY3R1a3SsVzubRqU8E8msWcF8SoSfs
uBEnRbV0BK5ggcRC/j4wtM4ntf3qFsBDVCw4NbzlDuB9x7MVURTrAt5F/37+32RP
iUId/avwGm3jYr0vuCSuVgbjKM3GLMRSErIzBHBdat2cxwTtwco0aI7wEuMy1gDx
4/PaiPhBqIVDdBhBPTMAucE1eHApBchUh+UlXxe30wcAj3IHVxiYJ8PqK4Ea82V8
yQ+wxsuE/Sl7HifjyHEECYqpmfIXAv9mQUXpeh3wJka7GjJcuqc0Efn8T73lh/rd
FTZVVJLZMjyOrJrkW7WLpmvQZ06BAQ152iKxYzsfNe0VB6x5M4qSSY4Rvk54ncpi
5CJ6MuR7RU5DBGODu6GX7XJLuvxijP5baGWigdavHvpg3btOEhcllP5Wdgsvr1mE
d19JOFfZVLqYQ4G/B4AOSRXCApRFs0nZlgoxFkkUgIRocPEcUv1/gl6/Cm4wmh+X
2bb793HdBClWbJAQGqTPyJODxluzc17wNxuTXVrPopEMMe5gkfJFscCxY1jUI+zH
qeu9MbS9A7YS7A1l7TiOW9kM+SlfjxBAVPgv7U4P3Btse/dLe5eC7f6NVgn3LO+m
ZYkouWeEl3JAcRCJDHWNtyocGwojLlb/weYfaasg0Dn8smy4I2BIvrsj+oZFOPis
kAVY3QHB2FZTxAov8DQLEfMLTBJq9CmDLTEQIKkrda7agfccM2wJUFDmPM7Uzb6J
5KSCv+fAVB9Cu90qe6g4GwtbhnpjQJ+kK6U5xuUGZpBM0qD5KfFHKpfhMjj6BCjy
0aDTaHXHubMQ3a8TZVlG6qtgjlyC9OGw0WfYyt8uIVICv05E0VlYHiV1b/sUveEp
lK5MLvbnJeAf5Xjj/2caRecbst0EyFyq8vTniM1eFd8zfx+mGF3uM7jbgI0h/CLM
GQ55eDCxQUKgQt4FDlI3UMOM/jDXYmLuhKYilG4YrC8WNH/2os2wfeI69kZjpRjM
tTX2f87xOjKP+3t+LOQdynU0egRLtcWbRxn+TrMiUbKu+YxYJKScMDYAmffZun7H
apYdaKYH2Fm/FanlRQI4CHDWsPS1J7vwJEREnqTW/CM8QBn2Z033glUKWmf3NMip
4hmXWi0t4fFxkKZJ5phw6Zs77qGwtuw4rDt2k0rIwx55achm3gjJ3309hkK4HnR1
zMzMl4Ge+t1G3lLbvvgmiNDLV9UoLlHwDy3ytZvHpf4nRccLwPYxslC59qjA+BK7
WrXac3soQsK7xoVBpahU/TMb/bJbagfQ0LhUggiEdh7vlspg+izMZi3P/FgnMtCf
g02KJ0WHYv6fwNMThSqKa2HyV+qJ7dr3DCMG1FDBLfeGDmK4qm4KVTy2poH5flPq
VuMo//VdTu1XkyKTYdU24vd1tRgTNznqpRfsUpvygiYidE4zCO53e2EVmH90MfY5
ylp9DWrvjQNfTn5XDbQhwhr/a6ZhiEkaj5GeLW3FLEmJUXUR3FmWaQMQshf21Q4K
HEnBGhH/PHpphakc72agDgPrBi2vFA0EPQX/RsEJJpYcGfOuh3dt9jZDbjbYRTUs
WlQtA635Gk49POKNnmoipbma4/eA9dNJV8CmmSRwtNM/ODi82OZSou4r4+h1l/Bc
y7S7Rnd5drr5OXOpUaux5ShuUIbbcUpQQZ7xynpsBdu67Z82vRoM7BdZgJvU9Sg9
o4bXmzeuCdKLn1PpWm62kX4vv8v8B8N62D6zbyFOuejfKqlBpSHQXbE//DQY0DRC
An16/TyUS1FhxuAJ3pUB/2o8pWv/iOhIpVhHhyvhRC79SONMhanMuDkvdNFXC7wy
0Gi2HABsioOl1qdIymSQiI+CpJntBNwhol9iTl03ZdSr8BXpTFpZJPm/S97qPLUq
S7RXk94cNTlFSk60dqj+iXmRaxOHJ52LS6IP+K4uPcJDRybsZVd1lpVanuHDZx4n
Iae7KrA0fZo85CMDRd3gWtw4o4OqWYuHKpZCe3N9aQsDcJxpKf0B76v2sO9tB1ur
3rwv/HjK+dCgcoWsAp5DIGI4sSO2OA1hNl4WbogbEQkVIUuiueQ1ipn5u5kaC8tg
Q3FVqnLEORYRoycvUzyN2z966YMzXFt/cK5rGnGeozMKO1TQ6sQjscZX7oGozkZI
9LuuK1Fs5IUQZiSHxoFeT0bIhsBqm5I+cb4GI3dWRfECKzq1hEbsCU/Ymjz17u6J
LUsBZ4yZ5KDPFmJ1BzK360e5zJX0rItBnS29YkJU9MBrIyGreazZmkWkJTmXRDjs
4RLu5SXizJyou3IvmCaOpP97Ba5AXExUMC5sRCRmXIxQd2QTFGyBN/+xV+d2ydn4
HXBi0XhqTuUAdJ3NQJtMpjQ9CibKaipb0cuuOoHeV9rZlaSS+9CIiSP4cj0CriMO
nPgCZnltcvOjBkpOV4eTlpAZc7sdt9Oyl4/PKDwM1cUoeg9Eh1Rs2u3yg2PVeYnu
zjasoyNBq7/OIfSXMfAacdP1wcgrsZIvDc+cm2O3QhNHtv//bk7i+xcYwS/lb8NE
790TjY5k/KDXLrYv3b7JLhaPapqP3mAbP9zVZ5Jbf/YnVdVuOhG0j/KnLHbRPR0q
U3Ru+7GrKF3Z2zFMzDNtjnuVaHPEutzuewtUUiHhZ3At+bZz9acaeSv3R6YRWkiI
cvHa7D/ZjpCgyCbMCWOvp+UQkt2WhRp3KTMFPJqBWBdx8tgDqAfooUavnYLH47+Q
yylOMtKZCARoRbR8Rp12WB3nLrpRAqIG1jdHqUHZMDHAN4CQyZQXhAoEz7kKCrFg
07+lFuUVnkDkykNxeOVeTQ2UWVUedIKsprqBxcuztEvrTd36+b6Qq/GI3NGlgQxk
+HOpR+0NOqdgdd23gDLtVL/3pqLDMNMo4jRbC7D+dUAh402jwnLe7LPK5V1M3hRc
bPagrGnKfIJhwwin6Pd4u47EL0VCqIXiCqzzy2vf6u8fr5awLk6/ef+bRTjErGK/
8iDvJEC5jUdx5lfIEC4kI0Q5wKLE8U0NYFsngPqIpYdG0YK32HohC/MXtZTA2aTt
Qaz45fjOl9qIyEf662jXVOn0OJjwEVzwcErSfVDo+7Bhc3+7i1aF6U1maMrxq5Mg
4Bl3ZHNHu552a6V749S4rz/eu9y+vnjqQdYtpvC9nX4xO6Ht39or4CH3xgDL0iB9
FJ+72zzT9CG2XhbKMIqJ8JKE9JulHxGwo16/jEY6Be17jCkNqH1mMhMmLDpbEfbj
rL46kBUGWqo7w5EovqXNYveBIrXcDsPZuDz+ypTBSmOf9vseQmrfAn9gEviB7cXw
WV4rLFa3w05QRlYOEkahDPr4sStj/N4YS3oxKUejjwv4lPRxKqNgfsQ4XHkQH3et
m8zWx+/lD9/FBzqEHhVe1dZd+3yj4v3zcb/QgIARlQZggbO264GAJVpAaML30aEO
V9xr2kJZhYIekSYzqq5LGYa/WHcUHKRbAJnSoVfnDu1edOlskQoYrkhlenZEagj/
5N8mAAatCnSIHXPHjd4yo7wbpjBTPtop6vUEznslusVVO8is1D3psYUYlyNLfhGG
1gZAUfgyq+lCsdyOuw32hItOhTrX+peCsItomIp0knq3cBapNflKVjRvFnQmNj6u
bLbHrNvpzi30CqvaZQaaIhGMkvMstUl8MIQIxHwE7m1nFi2FC0H5uAo3/xW8973j
sZUDBzawQY5XQDqFIrIO2qLleSPUbhCF8N3Wp5bLoThSdXeWFCCG4pKjJb3oIB5s
5Z2yaR4gq1TgxTWgFknpkSRJqVhfI41S/5ppD8SEsUISHrG78KI1AWj4oCNM1o/V
2SD5BaBETNlMugFqISFB8fRBIyicdVuwDTTugzG9E2Fwr4A/y+xX0HrJBhbdZCZW
kHHsmN+vgL/uWUhvCLefxV+ZsxUt/OGas9Z3YJgmMNyiJlYrW2kuK6oK2xdin/DM
yR9n3bGEx9zzsW1OiGR6S8NNOFzpdXOcqKBQt13GA4p21ysWf/JYTcnodEo63l5o
i77KMYwXa9m3WuGIDiyl0GazyY3oDwPicFKebmkBYWTZRmrz3/521knEJ88sqn3y
QTCxBlvF79mllpCiJiy6shyWyH3NjmyXWe//2tXjFTG/p0LlpJqEREGYvHnUUOn1
jvQnKNa0phF5tjZY/fAFlDr9tm4Fi6eHnQLSuUPtJwLtV+VwoU9nK5CYqUyhvDiE
ZC4+OaRnrEjmgd1iNw5BvEoMUGX+V/3974N/xl+6a5cTKq8mE613ARD0LWOGp46d
x9wwSUKgVLDwFQESr9pL1rR05wvNCrtzSIf7yzekiZ3XJuBwFiEitRALBHlOPqKY
1L/VOErnuV10BWT4hwJCfjLQMD8jWn0Ew5EBZvmSM1K7xbLsD7LhG87r8jqy1VsF
vtf6Wp1NvHURsGCr3h+No7tXA85MKMCgAB2QEG1lGAMZ5DiXqE0ls+iC4lwIIE0y
tqEd3XE3EIsq011me2o8v++RiiR4fXzpgTaKJvACLFkTeLUlIRv/5CFsb9QmhyDV
BUyPM++/53gPt+LBCXroX1IVyjvdGgnX6tBqTcOgXhAYsSPO8ctR0rkvwLymUMLR
01NhxcETsbg/rVz1BSxgXipxTrvuQXB0KiXDxwadn2DtBsB/c4kHssjNlh583gKy
uSYhIVdF/9EsFAsSlj/MRjVcYTHVzGzOIkMh0T3d1gt+onodSm8qS5e9Z9IHJm+K
V4y4b9v17aH2su+tNAxXqWdyahrEhkhkQvIioD4F9Dj70fnxTKVQKtmBmqUi2xz7
cj7n5bCTfj6UirXwi9XT36Dnu5jt1P3+ZLGSLeMb2YJTVdQue++fwkaDFpsKhbAi
NZRLWPJ3X4yaL8uKVmnvWBnDcJELL0rMyQaGn/0N6dxxH74c2lErSvDmsnCzf74h
Vi7EWaSzExfceC4Y0HgX3/d98KapfDjF02Fd66UbzFYcKxLGXFRCranoXJ6ecteb
Cnx7xyXZPCqb3WFe3cSk3UREPL39bOISP08XlB2scJcQsbEhwuJnJ2CT36s2Ef+h
EIfJ8H/Ljcf1YfMi+swnP+wR6KZxvjpNKQ33zxXFIVzCfF5a9NyvP4Gp7BTxYhHQ
YuZN3futtwxK0r3IbyOaELkmdqkNOovBN0lgVAaEzM7exSjCAqAAh8zlgLJ2eF1l
CWO9O1UwfGVAZ6QlqNE7tT/Kk5lF7Y3p46JdcGkeFhEWwF6LG7CJtnGODIbtZjAY
n+I+xRRn4V5fJZt0Ih/C3hfeZDrPyUSDvTdVJKMYYe73Q4xfeH0wkWmd//gnKTxe
/prBg7W31Ej0Rdyixppn5xHObGvVoWSKkwcBkT6YmNskgxQZT/Lw7ovAzv25JB0t
+g/Xqbk7quKM+RLRtxjRfDZM6c8ywV+DbeJvytyDmYvgVEAnXm8K7Xwj3QjmGukt
A48l/gHbSQ6tR15xYa2ImMrFVx93tjiez0zQiFsG/FwZwyi5NWFlY8cbU1Gl1idc
vzMm2uN8DJMHjBtbA2Q2gYtmlGNb2L5K9sLoaWjORg/zdCudnsKt/fu3F2UdfkkK
fZs9F5n72qr6WMpmIJma1V7JoEBjvxTfKHWzy+XVZQ+aog9zd4cAFXvAiqlTGJK3
ux5LJLtPLL7uVsbucBrKfmvfb6OLAITdmlaLJX3mZJmFN2Tt/SvEqoDYqbL2ANTV
y7rJ0UyMC+ckEXn70r+KJtDsBx2eNo04swZ4YxYkxm7fCuVi4z84jsV4UXcJZUxi
GAdazYuolYZAHxeV83xAlwwp0Thbh1DFLQlGixFULADyblXC2wWWzLKtzjvpmBW2
eMVL9QmUKlf2BDS5DEYlYHMCEvjjkD5skiMApNPpvv/dngkWsvvwUus39oqfShUN
JVb1WNzLTvHpt+MxjjwDt8AJR6cZPv7Ie0L9+mLOAh9CufdW/8McPxWB5y5bzt/T
ifKoQslEGB49+0SQyXvp9rW+LLLrGz3DEGFXGFc/x9RoygmD1zsvccNlM22XOWoe
jQSgFeCx66QeCjvQi6uXMo/MFL871fjIFfUfVS6V6Gq4038lkrAaGfVpvvQwrqbV
lF1V4NEUomEtHGkZ6guadGcpTldGIYyqIF0IuvNg+zvTGdY229geZd2S9F+xhFtz
D5xjpbSf2kIVgKYsPHNgyMq41gIHMjiQ57HJ76WhdcGbS2i+aOnbQsAwP4tcy0xJ
54ulF6ijYZ39WjzHGXC7zJF3/D67BUEj1GLKDaPva6eqznqe5/QeAzaKb7ob5dG5
dR2xDCi98EnglfKoq63T9PyrRPV9orMqcxczC2I7gjyKW+fpKuFUZlNP3GcgRvYb
dttfP5z9n1iTQTFLB4O+WKpDEYZtYVb/3d59gSMDhecJykRxdQOCu3uMhjb5MIGE
WhBiJFAaa/w4EczodfXZvXcgZGJ2ODo7WkErpSXvaebBvUpjW/l42sTGbtn6H6XY
yLiFkLGO9/ypV+pHVxHfBsQwDU3vB8xqKmj2kfqSFQpRwADb68toZKbuQfmZ+fPI
B68MQrMeItBEOwUF2DAJy2H27eLSUXG5weOXI4WrzL++utyZ82vjhqI/j5C3bb1u
dHOj3SuwmmWCx9eA7swyIB7FZZ0IBadfPcB+49ZYKZtB9VqKfmtw83lFtOyGS40R
gi22f0ngdvhfuv8rp0DaazWj+LsNkXUAaJnjla9JFa3+QDMUMrr3bmT6N13OMvzO
nlCkgufFYrqlrXnFl9aEawkHZuHjsz9oL84mD0aOc0Uf5EcC+mfNImYZIQ9Yp70W
vv84Ymav2nzVYr9ujnSfOI0SG6qTq0cc9DZeZAvByZQ1rAWzMqXTl0gFXK7DFu4r
JEq3ZTa/RE8SZV1YZXDilo0dBmc0T5LoJrs7rS/x6RTMtLuz+zW6VGcdb/AAIaH3
kqvluHfi/EYcCpVBXhVsmfryr/alnvS7/luX/SwI2Xh8pn3OCHcmRU2l9DEx5Wl9
X6qA9y6HMS5aSfEEZzqcKqzJQInRLV8+ySpy2KgFFwItzOhjPiEQdNWtexVzV2vL
vM52bU2oikoCIBYzhu5L2pqAFNAk2U6mDekohF2QI4zrf3qaeI/HsCobVT1mq1I0
y7if4pE2f7ybhg9ctpOUVC61PeCitEfMvHI8Vf7FsprYu2mosB7yc2EBXDvjbQc/
VICDhqXCxyBezSBiW6mOx0YFu40YDI9GQtGRqv+WQy/eG3yHj+AbT3dUIf6xgCl1
v5KKvPa3SbUO1emmlJ9e34eiY8h8RVndJf1C1nJcEc/y/Zc0kRZ3r6KUP8AhNRMm
FMRteXPoHXCt87O73O9/g9bod6tcthPE2zLKxBsguYrHpPBYouCJ9DFUyQotgHHJ
mBKL1jMhWzxO5lLZxgj3LBP6wBrIoCUG8OskwXP3w78ginyah/7jHwyU2OoSb+MQ
S+TSo2ZshZ31LX63hwQph81zyBILZqkyMvqiOvyDis7bncyQ2Mm0lt+HakchneUB
A6lPvwt1zAyiYZjkKsbeFAn6VONXHQjeNwdk4EmiiHGaajAPa7xaOFrKWq86JAh/
M4RaMOkUFjqfrRBL7pxKY9KHevsYuZABE5WF26x7UHHXJhnT/t79Q7Sdw4E9wL1j
BYenhUaGutXPNwCnbuUFLOqrua2+xc3ZTmJCXUUVoAaynJ+cL/F8WoU88pJ8I5EJ
ReNSqQ7kfPPO8RgCEMw8F8dpad0r49qTOTo1qK8ecoRUJZRqq4fm5MD64tWqHEm9
KLoWI/XZ3Gr8BaexnNWUd5UShk82T9PEvS32eU+C0a3jv/KLQWY2Yw/XcHgrtDcp
YU1CV+MMlisz0ntJ6iQi4R+gEmjLwnJMXCUQGFRDhrMKB60H7Tx2SsmZ69dxhtuI
CvKgv6axTTSuixpTSC1aZGUCnVrFTZFc3hoFayjAtKMYIAw80JuKqryNAu7SXtSx
7uA5grfzb+FPhC+Xh8SLd7Cm+K5gh/kTeGd14YxQgZp/h6wz/L8CPAEhVi9wzx8O
V9bGpF44vQuxYVj5yQtgsnowBkOouzVzrZs8hBK1u6j/6Pkb5Ucq53qePIbE6zUp
aaprjTq8BZucTNslAf2Fgeb4ggjF9m2rjL5eOC6CVnJ0Ll5TIKhhb6BDQIv1GSAy
jEBqjhBBMj8eB7LUxwtiqNn2ZbElAQjhN8GYXOAL8TimkDGA1TD5GKEytPQFRDIQ
x4JJWlfJY4MZN6G8FaV4gSAvHGJQyoxWl4QT29kmlpiL84uF4mOknPJdwwJ+ANDU
6oLY0BhhQXw0VIjpvMMJQ52vfXp0RvsyJoW03r2A809icsg6UjqmJMuLdv6VDarj
XtZFWHAEe2icx2tlq+v4GAHaXerffure+nu7NvkkcwUxA6PpWUOInSAjxAYTo02A
Cjr8sqSNytxkNrOr4Uz1gC1L2btqgJxjNxdeVV1LCJea0cHD2iQKv/1E6oul4f9e
KcPzWNJ9gfacJsQZZUacFPu4Hz/RJ8FAyiLPH6mRhKCmWWo2hR5WWn5x3UzoZs35
aaykz1OAeBIWte6HDyF0jv5hz5JENDUdwYadZ9pZAgzoFGfQRh4f5Kkjn45tb/i5
f0hgBC+NUDCxRXi9weqM9gNzcOuQG1tpQKAB4jPBIYVhALfAvP4MY5OwiFKtOFv4
mq4s3baKxrea1WezvW0iZsEsIZjMG45snvXA3TLi1EilIv7dvY1y/0/P6Cfnnhbw
jpDxpOsxzvsEUOFMfdgJHt421Qk/bg6aS9VVzoBZpfLpaliqrxYF9UCX8MsMc0nO
LoS/owsWfsfGE/MVV/i3S2rPV6QZOkEFBnvB7Dh7ty3iZ/vh5TIh8EUoKR510R6m
0R0zN2ofCgbTGvzMZMInxLdTUc89CnreHwFRr7vIbTGwLAbGzGWxj5/q91xpDqKE
RNQ6YjG8lnvhX6DnmsrHzRPU0VBLfI4BFOh7y62xOwZING2Y10SsesXjm189PUX7
nd3It6b6HuKeANr/2fmtNHGRlzX60KrZrmNr163GzwkWhEQBFEJ3zJSQ5KQzCADI
bB83SKSpmm48BzeqP+WF/SW6UpKwH32AIyG82pqrtT5sqGdQGIsZ7NOXe4NZNodD
rIST0R/MZgfpnGW5AkZhVK42g7Wr7bDyZHq+Kz3kGpS+wpHNlbb/dLb3Q2oyIdEF
ieeRl0TQrW83OcylNEqf2DIvBzpayNgoSTg+C67s93b+2qVOWCAVQ6mc/a0qWLY/
MLuGXUrdrwsCpPhHTzb4tvVAdTmEPsXcvx7qFSqOcWk6oTBrAlbNNSpuX3KEDSTk
RDibY7oGEwIsuJJSfsvIRU7h+8PnbQlvLEwHwfBwm9VJX8LNEc/ySAcCrPFbbftR
2WFMTDgo8SkU45TWY9MUmboBj2RYPq7IvNlGGUMBrsOe0PEdNF+E75VIXGFosaFv
bwu49IB2TQxNeYhHIUfnKLD0R4hvmjLWVmzdGc+DashP9hD6bfzqRQOkzJBUyC1I
d5Lr51C2YUt0PicSIcUAURG2fRqMRGhY14PGK9SasMUe/YfcgO9AUO1mnrPiq/BM
utMTriwVRbSyE2Y2boA6wxzBwex1fbADJDNK5GBACTMfWKtIlKQJF4jFftNqneXt
vNdevKGih4dR3tfWBtACldpX5glDGdA+/AcVtgJX6+2K4mPuMQRlG586ZrxARhtW
cZ94moVss7HRSiIoNnVqJNsl7H7ZYowd4tHe9SVcv2v4zQ0VANBjaoiwWafB9e1g
hGzytLgoM8wkF6aNyaqLHRwtCMJetIwk5Frg2Hx57LIjWVelUGC5jYNiRWF6vU8s
TKFILdK1K7Cc+v59VGyLTQ8n5bFwgISgYCs8VLUp/qSbtTuroX0WpphZZKK4GdVN
JIkkT2UIbqDg1f8ZGKByzjIKQrHTuDl/MO36USrBuMKEFzMQk43ReQ64eJcGYjms
t1j3wkAr6wckTbKn0xfAf22nNTcd15penTtyFhhnl7FhrOlpwKMNE9p12/5FKVny
lTPnJbsOu3cfLPHN1MqvvS3Af3K4TTwF2itFOVx2SqNiHxgb4eQQLoSeTh02ustV
9lWDHr84U4uEiMJ1hkTMzlMYYxPkaZJ8hkX8aXOZ3kbpZYeM6SSDVaIvGqNlmhln
jdM/yd9vXO4VdMoNAGMNnNwOxoNneakAxNGr4+sBnNIm8A9gQNphwsw1okLF6QoE
aZndHBjG60Qj9nAnmeKLMMGoSzrAJfhD9eWdp6NNVtB6E+4fntmOAmn4X4ebFXmC
5bj8i2xhMBwI1RwaOnbIp8Q+ZxduCcFNspxanZGTFuevJH6zLR03J6V1nBZVYAl7
JvX0ZTzwUAm00hfcbtYXXRRZ8+usxwQNPUQVhe0lWhne4WUR0HxIydg2YJ+3nBiO
8U38AT5TjtNQLo9QIGiJzo/QUfcSIvullrBLTw9zZS+D6GAXHD5kPYITwwpoENZT
23MU9heufMHze5VhE5eQn8Xxjc3FvNsl66f5Y+j+g8dAmmlQibG6KPNxhDOel89l
DztwqyC2VtrQ9rTCUlv1doNeu6Rr1MObZuJ6VLGMz66exzFihnU5isxeG5Pa/A/H
ebbsqwgaPAFpPXOFUt364k9f+AOJ8pItcFgR//IYFAOu0M77d6bWuc2cTNkEEcoV
lSdwWSG1p2+a/17Nf+JzLtcwOV/943CSn2dS5nT4QWDHKI7txt4yllo+ZgSPh/6m
uUl7QGlE7EW2gRer5LrolSUNhJWU5A+5PKw3M1HR2QsEgJqD6KtET21yhEiCd6ew
+e9ywfoG9QohqKq22Ynv3B1Q4fJGjc2Uos4xkG5HDuh64tenaou+COmQ0Hoh1G/H
qIrn+8/NQuAcMxlxS86ZiGZ4FRxNwLQKgKnhwXyBC/b5i4amvpLDKdIbnD3MkECl
J5ZW/ItV8pdn37lTRqxcUW+qmEzhYemfmpH2wxDFs9URYMsH9Shfh20jDF6tLyo5
7kSVd+aBLmm1GKDA0LpR26G7ShVN5CEvnuQ+a98VsgVAqK1dj+Ded9A5m4dUZlCX
tL+a0RHWQSxUP4v2j6eLqn66zqiNROztAiOUCn/LCdxIvXYEMiKRoFHQGV5XTziL
oU7jCcRYWHzPv8CvbB3H0rayyekI4PpZczuIOdFCbkDwptu+PErVpMmAr/QuDlfg
/tnX0EWGuUH3q1CR13AXDkOaM9b7lu8DaNhPkY9RAeN1nHtNnBsBLKmaGFKzIQ/6
VSHTY+VjhpXhsVE+1MvvXEOi9cqTMRo99Ayg6jROmWlnFMWnqc13e1m6qya5wI5z
0zXARPIEhBZmmXXJlYbUp0UScGQaHmcrp7zENB8lAe+6eOn2dlbhgjEOghu27wvr
ew7W+2xQGzZVIvler4YoF5luyIJK4gwvkGZqEBXskwaOD7mqblsfB6nYmtkg5SqL
C/PjC/CR8ZTnkkzoqmE5hGsL1rs0Cl2onLm3vEIOg7D6UtDOqtgfjZim6Gt8UPs4
Ofvp4+QU4/sR3tvWXLeo11PuJZlKC9ZC6R6eYoknMigb8sB9c8BRcFjNvn9+Osrk
OVRpkJzZ6+dmW9kfW1vZHnPTxeKoX80TL/gSks7rrU22/Ce9IIC/+kndgdgr5LNA
Tox/0jcWKT6CpR12ke1X3tGLUAqrAyBrsgbzBhsolIfCmAzK33uxnWp9QhBerqpS
xpjrbqbLA9SuINZbmP2Raavjh8Fs7xeLSg9O0tCOa1y9tuSNwd6Rr/DsmXG5MpXw
QFjpuidaXa2jidgbwBvVhppUp9FrEfHmTJfcOGBrY8NH8ijb4RUjT6FUGqaDMYgu
KE4ehcTdx0Hn13BKgCmwBZj/bNbRvF6EHHlTP2lngfffwQNNDAK+cHaYkRcc5Wch
1sEqWU72SaljqQKYbw5ypiYD5xujspWF2aFzRqhalRmVBs9fQa3IeqKwJlpc2Ovq
uzpHdoXv2PXNz6+5aSdVc45/cljPkc5Kw8BD0EBkrDmvqB5RPF7LtvZhoGEiOnR8
wHPDbuSOUn0x6S9l2Hn9rJCORPKUfxaW30iQFqj/K+tkDVvOuLyvtfNtS9xneZii
SY1KcD/KbLDtpVpaBdeM6lgo+seYB3YmjAMrpj0wPvIfsRxNHPnUtGN0win9rveT
Mb1uPXj4WIxHM143PtDzYz7tlYePvERjvKuwGtlDXskukH/4mGrB5HgOAvB0bg83
lssa9cUGrrTU5xsm/qZiB0ZK0Ho82ZeJpGs3S7TFz2lNEN7jtvSzRH77oNbn31/8
bn/iV7tb9Ihskn+8bGf8SoXpXeGpef0+MKOTi7EsARJ3v42VFmKriEtSURcOMAIq
q4T9gstNGyDGAk9E+wrAMX5SEI31pI0znhpZ94pZb54S3uixxYqHG/D5RZAMqofi
USgFCpAbGXRk8LyNq261THwTfBh37klmla7aHITm4PmH0kSrzHsWZzvnjxyswHwd
F72v8Ymvwk8kp8f0QZ0d5ga4fjssKRygRig5R0cmlyvA1BXbX/pvGrE4GNRv0KPV
ujgTRfXJabMsWVQXNoZgw4sqkAMyrcodS6fwKw0yMHm5yy9/orJZVIVtT46R4Qtz
YxTYlBzoHdstTLZZVC7Qeg0s05pO3n/nJD3WB6Pwaz/OQBKlfLGJT5dzAhH5aEJH
p0j0a3vzKaPR8Bw53UqAtUR9hzkbph35ucM/s2OoCXBbJWKuo6/dfvMJasiwq8oV
UpaKxFrwq0c5VKhZZsxrS/nJPzwnr459CMbUtkyp1vONvt6i+xEK3aGz0ZbEXwo9
QmlCJNNBguYn1fa95U0wUktMI+xjit+5LVVHnJE3h5m38Iwofw6bWlezQL3vsBcs
GcoGOPrEp+eWxrgrQL8hCL1LiAswKVV4TV+eU4zmTy/AtBbgvLVlP8g22GHs8fTZ
Q+0el1OI3HmlbnyWlrDTgHxYZ4qja7N0gOCsf38Q+QgTNhmGLG/s7uij4Ag9mKlW
/mLU4Q+08ewWWp0TvvVKuCvOOeG0xROKp0OfVV55WsL8HJJ7RUQt6woxXmHWuWNx
948+/ASOdMRDHbEFc3rTO0nMoCjCwYzgtfnKgu5t1SS9i0PuIs65QlTcvNw3gbM9
+y390shYTIWxW4F13fczVjyd0c4538X4LHRqNkzHRIaf9jIy44ULpymNh0Bbfb9Z
m7H71EvixMo503kljH9OgHXvLeNd/5PzyXNRGXermy+IoNL9+Cdr+HwPHgHnuzqf
RXokxbmt7m22J6Mfcb2p5yuS9UC1sRVbEOk9vmiPhZHqC2cxWGlPBZpK95Vvl+Nv
LEGjADOvsQGLclsI1EY+OGc5ySBGLrx8W403EhJwunTfpPlChcWTgxB1lXb1cvv7
p+NqI2vYhkNCMJs/4xjRXqF8sdaSlDb06cFwo0oGH7WN7z1KNeZW7jG+sOtG8HL5
nkN0qrbgI9ZuIV56jSaDqVzRIO+8HnxTLOWgre5hOpOEAQvE0qcC5EL9jSW4ZnW4
PmSa9biBWQDJMTXH1Fal1Y5PECaM1kPRuZZPJ3XFl3e3+eL9MsumPBMe++Uz0mnc
uh255rYtI4J5paz6/OKZ1rIrG2dsl98kC8PgHaJFhaDj6RDvju0rAmDF1z4aS+3w
tlG94P4NLgf7fxK5TBYNdSKS9NIY2pkNgFLpyYGys4BI5AgCobl/bN7Uln1LwARr
MsN3NwBgPlSfcKzYW46Hots3LoYDsiY558OL/PGDqlJ6cIaJWbmHbLAHkEQFR05c
qkBKR977OXIsB8bVVZbPJYDFsIJBnF3WYhKXNv+7nDf0ISBjPD2EQyDzn7gBwhxq
Qh08mOmFNU4oL36SMMj2O0RnAaZiJPJkKFF8x7uZypDwQGGhwEh1zxxNJyaOTVwO
DLmIkElFGln7p9q976yddlkWusU1IKgPG0jeROhbPxlzYsjZ05Z2I2YiIWlBDlMq
DFtzccP2Ppqxfg5Vtlo24bV6H1igQtchx0g5o67o493wnsoGeJ2zGUsHXC4mSeKU
KOSaNZTzllFkTPuDWZdXWKxy+tw9j95C1MYHIu65HuXw7/anDUp106ZkqEPfr7gr
IjFZid8O4u+XyZoLVoeiqE8JtkK/hclBecQcEGKTY3VN9rJh9lHjIH1gFVtDlYiS
M0Zhzlbhzeb2jDufiVaQLUUkfbbqr51lXIhXsZfH7H7iKUNl1JZ8ebbTbboa484o
UkcUjfNJS7eTtK8lMiAyAQM8ydM42TmKSlGMju6uCabiE54pDMrJq+qkXcGLvdI6
jFSldIZAeBTuSk+eKs55GYmwtTEk0BMZT8ZOkcLGLh5WUnYtdr/Kl4uVUpD3rMpz
N2gfuPRWpvK2krUAvzJZazon4t6+KMSKFbOuNCqpWL2k4kdy4r+GfNkzeWOfSsnT
c0iO5LSXEJDMnNuZZrbxAgHloiXndZ4iRyobdnwXKw5OOQ0q8ho+Llp5XJazC3oD
z31uOsG39byrnMCojane78uhdyN9RdGh1HFLc74IHpF+7UeRK12Mg/k1IZwGfTtY
/xD2BXJQCIPWg3vfY87CNGN5tRMH7j9JaLSxK27ekQZlASrcIo84KAJ00h8o27Cj
bxGQaOuEx813u+duxILUZpMnAmFdFG1KkDxyvj2cZXADax3nLEshzBATdcXLpDUV
jZiBaR9eqiGIPHE0sDIzZQFU1rT3E0CZOsdIHx4knx3SQDrZUX+fmkAItVubGS2k
W3VID1LoOcqfIGbwKGQoU/rbKYvVeXhnDA8Fad6zQ6AYgm3nxZdBSUcJHLPdWOFt
FqD8P78KU3oUBXFIzKfMnbWhMalqDtTd2mqcxx0Fv/Pnv4Dvu417TJBXuqNRvGOj
Iy1+1ryIt7DemFAPDLjtdYdUkRwHj5LF0lgNm1bH0JmyWReOC33VcO/z504IS8fk
CazvMcczXucRXPi66USkR3p9soJwzaI3S91ToFD/4pfKnosSt8shysH3UgnZ0/7x
Jg66qBc8DfLybCJx1OwPMVZs8mYtR9hu/eXEr+gApYX9ILfID9mLGYP9rGQigK08
WnbO+WbB8lXJEsvqMmC9rSmSO/Jcf5g1PxVaZ8NxnoYe7pN1C/5DJ/2ZIU5Tue1x
2rD4Tsyyi+BtLKB+IMkKdqmHx87ufAXL0WF8hRBpU0Oqkwk+QyCZhwyJzENgC8lj
xLZ7IzIMdSnfq4NMl966QQUPJ4wmeitJDTntjZS5/83E/gNpcaIhuEX/dJJ1kdDv
6KQCos8rxOjy1wN1DfH/34krzD+WuH/cdD+m0NhN7eAYXLInKqpugOk0vK8Pv630
pMwIJHWKl6//RcgSwoXbCgtG8Z6isFwNwhcALyWqhRx4wrt5Tq5DSE+rd7lap87B
GVcg3Q0wwIuce+BcJoV16q1FxRxHXJvcaAtBBr6zoRYYW7s9RLAji6sFvO4P0MdJ
/186U7EwTzApX+7FsLVwC3vydPZR8iqjt6td3hlJVCfjw+HHR3zFA1WVZndShRgh
vN4JcZYDArnyXdRNAona7YkYyNBKLUqMXAbFqzvXmVx3hntx8ulL49bI5lsmNc6P
sMV2NY6PeaZxhB0Z5e/RKsBIv+QsnlJd1rC7E15HOU0T6nP/Umt+K27QN7sj3MMC
3pKZq7kI3i2BRVPiUzTPnGDc/xLyiCmyQz6KRietjv+nNWIgNg0jT38T5M47yz0L
sBOjDoc0qbgjRTAx9PAqM3enQ5f1woVbZF0MXYdSXS5bq6g8JiZt+vAXGEqrKomA
9VT28OFJM6Txb9b04qlD0KVeAI7u8JEX9toZZ2BEyQ0uu2ExK1n/137nUuXvQbj9
nD3YzYBMY5ybgpjuDDS0YxE+OA69UB3v8ei0JQARshv+eopxwJqg9nipFjibzHc1
VluxznT9DTBBXqR6vgH+K04TzAV+88nlVW4UMvsAOUUO297EFft3GVuCvnPU/Rnh
5+5WV8XAMA4mW7qEp+gcvQZ4HtXbcPm+UaHQpE/H2zuWAm1uedDqT0CgFiAIucnt
S79mVpIWA+caXemn2IXFzxEXlh3Cup9UzE7Yn3qhDOrhtXM3dXvpQSghUIEsZwKt
ceMGcTz2c1hDb/72wWdfVPOr0WAlVwx0tWRoPl8QINwC66YQirMw0RR/wVXrqSb5
UnBpRfLSdJbvzKEHNXmgjXY0zgPCfI7iwXhBwvhbUMP5mgpPurh0b2QZCgoRmDwI
ZlAFnukHRkhKBYgAp5xl+pbWf45KvMEmPBlZzWVkfF0MQysGbbgBVWlmuHTG2Qpo
6yfDrcHz5RSNZMzBUM1pls8ZsEzJM5nSO6y9CzKI6/AYLOikApaeLvYhvFcTKEZ2
hDgJ6E4acwnv22IpJ5hidwxkwb1vKm7R7rvYO6CRLFsXLQZBAXugOz/RwFOIPCbC
RPwGxenHGMkxqTxjwh+qwGnExO/ZIaE4X5Zc58Y+o2/y/xqWXIV7U7cAYtnTCkDR
LXCp+a+DsPn8OaccJi1LHhX9Ne58s6hKEBXK0VWI6F0KO/h66xjGFY+1RCEFWT1Q
LhordwySIb0c5ISf0LWdtni8vJYXYWrVXNDVLJgfsMEB/DEXPWW43jUi+5FjVlKL
nri2BkKHFU9JHH8Uo5pfhtWdpR163XpX/loGEgHyOS0C9Kt64NDuHtNk8pvgRdTn
ewH6QkuoLdRvmO/AUO9YdcUhohk4pI1z24z6hSvsF5V6N5SAs/llG0nhSCtswoRQ
Qya+K8ZDoCdhcGcpUKplHhI8J0RVRCFFXlC2xjtb23cQDc1MzuOhWoHz6ZxmV6QU
nAlrmcp8B7F2hnZoqz1CxhyZhNZmwtDJzoLHcQyo3YGed3yGmLTlS0EEaV1GFRuU
JcKGSyGVwofIQQeuO5IPw4Fvgte+IBvIi9HXHWeu
=DcOc
-----END PGP MESSAGE-----
