-----BEGIN PGP MESSAGE-----

hQEMA0xBmd614XhhAQf/VJtY59Fy79eF21QCfJjmC9OXoz5yJQcFNw0JmWmXG1QY
R3VUKpLgtp9jUCAI5iAzWQORky/LVpZj1drk59e7yRsfak1lZ3Y1b9feu8Ykp6Kh
gT9S8sOc3+oNx37vQA2drcdHZeoffZRiK93UUumoryP8+A7zUKdDQ0i/R2XEORcL
QRaV0AoWAc2JvnL5x7K2K2g4CCosUtQ76/zLfMoX5tb4weA4LHQ0ZJNqG2SCaweh
BlzQqGLEOZyma/v6D5kYgg6+e3jbtfwkI7oBIoS9yezRVyJkFPgtXAJyu1HqFHn2
AiE/BC2woyRwqFmd1FHvUqEKzg2OY24yjFT0lErYEtLpAUpkbojAhitiNP8scM3p
88sA21d5Bung/yBtHVLUg/uainJNc3QKZ8hRFO8HjXKs9jhjocCT+tlDXEyeEwla
gTMg0zVCEYkR0FVkNka5Mr9EyfHSzVrj5LtjZxnFa+VzyVDP5nLb35+djqi+H8rU
Cxk7aQFJAmV3+4jqeI5eC5YTyppO3JEaJZ8XSNSytKK94ahzRkNq1gai3bi8Kpk5
Gw0wYnBjRieoUUQ5TLBOc6ImxlqNf5bHcIaApZLxhIFw4JiQ6JxFf+fkH2dNTltm
bEdtOOCpBjsjgYkJuJQM/GPpPMdedrfa8BjKQf6jnfQ8VaHVWWS3/qHpbTDc4XMH
LFntLo7WJ61/OGA48Q1FR3p7H/HW1FhMbS789cLQCZ2VNXdq1rm6n2XagTJxvF41
ARUytkQiDXS+cAiCnvF/f3C4PRKOlkArisjP1BvMP3o0Sdnd5wDmpBsyQoktVsRP
7hP3qsK4lu7TOdNov52V4kaiIcRF9Ydp9TUjjKAWV9T4i7n4Mq1ebfDjEX47RBD0
CL6gkBlsArHE6Rnenho65jbLDnC4gTFSGzurWSrTG2BCIUHoxTAuJbu2mZ61aRuJ
U5qfMrBBBKW42wC/ptumk3GKgcYBzFp+qDFo6oUD16dibCz2xrXuQhVUUP91TY2O
q6ssBv4rdtfxDSXTjc9lTyTBGZMrrpo3fX92kfktxt1nGsnOWQEZp11uk0wTO5hL
q5F2ls9JGv1HlVtahyxpmgUVS/MxLVwvCAu+OcpvrZdIVrBixJV2uvU3Ehj7Mza2
Yf5iWkFE95zt43pVTDSZB5TgCl4e1fRHk0SOFmwvrL4VbBATlGdk8+00Yk+QRe57
A3+5OPXIuVwPW31Od3BZHDjckZljqQLsZQZ5O4lrSq6SkgxegJdSQKwX+x8rf4Ca
p0twIgeQfwV6MGXPbjyeddFS9Dnlo0DjcQz5v6ET3q4bZA6ukmp1wzlYDKR+CWqs
aOcDBJXwLkeAV3fXFyMT6bJVblp+1RPRfYzA3FSSiqLdJj3tWKVzZp1tYNCaybdM
3LynVf3xHofUWVJv/F1AJqtfJXe7wJjaTl8gumOpo9tTeWfc8OmbM3pQA1sa+6Z6
DGZkSmLtiPcOaZdK+jP+/wD7IWcXOumRDhpNcAcQfxlImH7K8SdbL4J2w6tQs8BL
P4phR7tzJBx/cYAnhHP4RXE7hxPJKfSl7LXvjzcqQvh+hsmnYLyQcckX2uGLcEeq
IsriAxM1N+XjpJC7oe/swt+sOqDh006YWCkuOmvaY5jQwogdXc6fXClM+g7sIO0p
+s0yIhHHvYxrsqdI
=FANC
-----END PGP MESSAGE-----
