-----BEGIN PGP MESSAGE-----

hQEMA0xBmd614XhhAQgAicQbPW2aeIk3edGH96Y2sD99KFZcuojzR8C09ioGBkyU
AcVR1POud37Bg9eTlhpMVHo6RHSvDNjmqp5iMtu4P8Kvh+crAASu9X8ejxLLPPy+
5h27lKEvFNn/lu5aQSDiwID9rC/f7Q97eDMskO6uDLDfLkQJMygxohiqVmtT8uaA
2oVgXnFhx/krF7KP5Zid6rOHMDbbyPH7ZA5L/86asvRElf1rNVdhZk43bA4mfq8c
4NnD6oFvn1Cwv0vbwecHoEiN3i/FZ9jI1uqAwfc0ognLUWUxiGvW8BOftWrieIMn
ZjSIQ6xeFmw/0pHjw0ODL7Rrpmpf0Cyhy2w2rGQ2HNLrAboh0mqmdkfm9FTB9be9
Xyd07BoylFhSSyL2m3Oe+7u5uOUTEf8zbkenLq/A9CcaI75tvrHVbItRg44WvbLY
m+JBFbFcyVXwMN2Gknecyz2h3cXK155LCQ7Li2MEOgjPUaphF7BS1qmR9abFFlJs
M4hu1kmEr9OeyCwPwskpgoRWiMFp6iOqRZQAsxruOZCWCg2UOI6XPWEgmMVTRMTY
uWumHHuwLe2kooWVVIZYubE4gF7AadtnbV64FYs3Fto3HZdJyg+3Nt+WNmutsfGB
qBJHpgrKjx+maQ4LBYlbmU8mRWbxIe7Nc7nQwUzCGY6Bse2Yqq+5ooqpXOsDkSzC
so3FW0F1t+mUn7BWP++3ETireV/jEsdF/0dg4NtF9BkCxzuYAalQuTbZ9EnVgJJG
faVqFxhIUFfMqUOBvJv3VrhtGEI3vNTbMRB4hcnJOJ8Z8cPrFnSeIufmHY3CYRLZ
LhBkPuMb9JnVW5JF4JrijULacmh8kTJ6gNlr6AY9Gfa5d1/ELchatGuXznNGbygh
dVE5/V3cY2g0b1IewHt+Wmnzqpusi8lOZxE/lekQC+9p4nN9FefI1ARjKDhZYPWG
HvuajIIJDauRb9zVu+741PAYxaDk0TBvrAwB9WtUz2OwyhUp+wzKn7GBkm/cSttu
AKRIxi/c6eKi+Mijt9WjxdUm2fJK59mTAU3mpV9yxQJ1etYpzobk7m7IH6eVzMpn
PJT2wG0HFWixcFXDTkAaCQq6mIveWJHYEBpU8BxyvHwpHJuSpcK9GeiaNSUqz6Y2
egnNJMZWYnuDQ9W9bXzpz96GzjkGTLzHl5VKuimM9echlFQn7nSg7UChXmszx1u8
UYJ8bw/bQTbzqy3WC+jz+2EJZphGDjD/kOGFEy8OvC4/Sr2j4fPVydCORtWr5hrV
SXuXG96nIaUUCH0DGcdTNsp/W/AQ/zNy2mLQMcH5+HBQHKukbg3Ckex6vU1m29rK
bIdJSV3kLLNeC/oO5hgh750wjr9gbvDBbR6suPs82TMWQKGcVZ+h/PYbDKIuWoTR
dumylBO5oI47ZpmYIu4o5B47FDtwSjBRKsnUbkTPeuZV+FFqiBpUVTdzp8kqJ1YR
mbYUoHKMqyyn4A65VhDqtKNhG1xVHev44i+wbyfNiYdr+nCxcZ9rKhJKCJKH4J+h
v5HbFSkPnYPZQctjzSoLVDeBjLgUOAF/PO/JDnDUV2b6vfivmL9LpEnnyeO4k4lO
6XXPd35cPO29E2un+0q8x5oimeROYIdTaYYfIhJGtuTrCyYLScvEcqD5Y/IkzonI
gDASVt2O7uNqZXyL+BCGJ2Uh7ZTNLHv4KU1HcfeUpbukLyMbjIeicPFeX4XN4voe
DMSbd0UMZmaM7dlNEQeJnCy/xXGOMRBQNkWZUICvQXGn7NqNkbmSWvzAdJQIHcH1
anTPsg1mdY8bD2LIpaKl7qzlKh1npGQig26bnJvAxPMNLbPQNU3tkKd/CxZ1uvz2
E6wTQMxdo3o69DA/4Dg9+GjsW/NWcRCgIH2nQqtzScB+SDaFfOJvu2jd/NawW2S7
B0ctWftk6hY3mO5ZAqghnLQDruRj9zWImQyYdhBROCaFnkG23lIGw3TkFJixb2LJ
z2w+/yDGtgc2sfwkYSe5KVW/PkVZSU22UF724w+JYA/f2IVIKgcbfl8qDDQb+feg
OFrIKt2F2+MUkuRBzdl9abVilURXpSVzoaovnqOXMnEalBOtRLMcDdXStNX708l0
Mlu9rE+7xWAnGOV2/pa1xLaSJHkMiM8+2h3cNMAU0Vh0+dbXaEYGyiojcekqUBSu
aV6z1LIeEKQCLezh7CBZk5zXOrASnrvp9zdFheTObwIUKl1dX7WdUv3vkkYUPR/c
m14J1HvUonnO/3es1YvQWjCdktzsHwE1/rS5CtM1kiGiFeZcDyXgpM78f5rXZ0QL
Bbv/ekkg+z7lp3mPFHrQlGZaKUehWqBHdr5PA6YqhDSHx//tdjPl5tYtRuyrweQo
7Oc5o8svHyY1jHrIeBgVGCvZt2VN+uMCyGlAhqP+lUWEiOX4uRiuJD5VAOFEilWJ
I7Ez3QYLom2Ob+XZWvc5E3pfF3rqiEVZjZhYQzlUGS7QK8gvCOOoktvcHgQx6R6v
Etn/Ra8/LLA5x2pyzqeOHkkzo/1+I1XSvPNRRR2FIc/N7Ybp9nPw3kARs6UubVG6
0yCRBXGTB86mTko9Iz05B7K76Jo0vRKpIkXCeASMPXTt9vkTLRhy0gRsjJLTdVqt
5WLmrceSxqkTI6SbOSpUvscyTHpOSQE8r8hQwbW5r//KBQG6oOHEw6hy4RMTWN2Y
tBpGHTHP2vQzLmfknR/cpqjddDSkxLHTwfOhUfYy06h1OKVk8/D/MGq6KkYZw9Es
k0X95RtYVpZnHEud2OsJQgdNh+NFnigczX3YoFm/pBfn/OvetTDoX3etkSKeLLyT
F0BbfFgW/pXgql8pWBakN0j8tv6E5aRyUofW5MphTbdp/vZXA2GqkZTWd6EVzozu
v3jhrKoSboJoZRbwIeL0MaYKhrHREtPlsAFuzDut6DIjDYyY/yF0yt8W+npQ4QfG
r8KzK8xUBTzTNcs6Hzjt3p2EwSONch58cvseTw5DsHo5KEy/ESVpEUctYjZiYTWv
LTYAqTL/2qnkP2CpB7cH+FS192N1oO6KEgsAt3c6MYYevZPbT5vyflPt8D2lvZ6U
KU5B8SdlYfsKABUFTlj5G/siqJAAr/1IM4qrHYrAgmTEvbf5fDommOIff3TzBQ+0
8eLXgQ==
=qV45
-----END PGP MESSAGE-----
