-----BEGIN PGP MESSAGE-----

hQEMA0xBmd614XhhAQgA4xsn9sUc4CBqmKM4KFvpcbckEoOf0A+Ce7swf6NGpgCn
HrHTIIy4wi/48ekH1uqB9pGf2hhfjEo78LtHJbQgo7+gsieqIVP3CwoYMXqu5+ds
RRCexjZr7HMGiCzcHt4cSLcBSK73QDORORWmiNXcmyNgMe4Rwvv6DYmCrGRdBggk
0xEX2OvLtqt9t19sg+BLJvt5rfiTW3V1HYkJJI2SNP5L0ZZzn6YPdu7Lb34H8LI9
auaLhnfMOA/LRholSXVriOdNFxIfpubrXQM17bqnIwfh0Ds8qmrWLABgvKxPFvC5
dmnaFSO846YPr5TZiK8pc9MbaYkvUqxNdsPs0yORI9LrAaG2hcM3uN9LqWkRrSKf
yeODlIlGKe946dLC24Fl69W1R2ccPIeST3h7WNbTGjAG6YUGnPr1Z4TPSixQN/uJ
6P6Nuozh/aXdYnxB8oplN9yKhgyqxIzGj0wc387ODPZrv0FL2NUvtsRcEDRiZTab
qT2T54zn8COndawqjdQ6Ml/CVDQahFQDj4ycH/rMfGpceQD3+pWpEnl7wuaMInEw
hIJA513czCcOS2vka+JtwaYPzNsXt7NoxiQIw9j7/XDsJUhBRRR+cccgrCBV/OLr
80acZ88smtq9ZqKOChq9O12tIuHIyj8Uipa1ScbF3OP1V5hBdUvRwd0uWy34WEnP
P21v1TlbxEI5Az6qzwXsDZzX0BSeia43EcEaIwDRjGSkSE/YLRKkYM4TcarugcGV
nlQlHfOilV6Sjo8HmOcmEPp8n7cE6riTG4McjPeLyR9XrlzgR+4Z4K5J42w8g+Vd
+Yuezlyitsb1Hid4KQOagtHOuk6DJE6fBAPRnJexnuzLDWpqsuyxOLaBeGRDcKlE
v+fYvIduY65k+tzz+wejQYIEnfhjcXp+/hs4irABcK0oq872y6dF0DlDZ1b22y57
tysOa1lydD57f0R4hcBXg0ximJC5HNr0v/v3UD3Jo9BzbeAz/GWhEwCnC4Vic9pX
vevWGUZ+h6pHRWI3Q+LjdBQZOFfHXLU73Jcmjy5xKTZSup77zSsRy54tEZBbrCUB
JKSEWVOF2e+fBgqE2Q6v/2P9zzZlFnWqx9MhIxntMtjigH3EUuGRnHASOLTFN0G2
+Pe8cQOUgkFWY04nchZ8m2GsAQ0AIM9zriIY9k94HMUCGij6q3WeQazb+wJyLLKY
OfTEOJZpKuGw+W9K71uJvskE1nlRHjmO599gADMywncV3aeQLFePRGKqNMQGqiC8
blmLx5aCQ+NT8zcYry9uHzy7V6R784AWaY+8mh/h3eeLZ/rFt+zjzZVv3b7fHU4b
Hpq1Zn/mQdmvfftEQknVyGkTHHDgdmbgUcEQW07rkBQQ61l/fP/tzOLHoUVsA+Ky
QibjCWh2RXlFAVcWhefRGl5D4kj+PQkuNY5guRjejTXM4MVD+LacOd7dKuhSRqUR
25QaJtW45AhfmiMsMPHeR4AsZFtUpfQbDQ/gAbK/FsCCR5uUJ86+i7tul33ZlDWw
dZ84mdL9uNjsT/So05m/CBa5yJUmT6vZqDm+OyaD+68PPg5sI0LV+7haanQmKcJU
YQ+i3ak8uBRyelKgNZg98HOlIDssp135MV5fQ5fQoJA9chsj4RzqQBQrnKY7HsVu
mbot1tI4pqBp07v+abBon1D7732HbaEnM5Kk/QjtxnhsGp01otWjlRMWvvjg5kWl
Gt3qOgpjbpd1EQQgyAEh9zqsfv7yBrj5kURKh5vQFjx4AvmhKL7EhjEkNlZNMkdc
LXZIMw4a45zunS6zawvswRP0yK4jdvRJ7ZZ8RQp94vg8mYBnc2v+I+8WSZKV0z50
Swx3VqkFTjK18HGjCC8FAwsE5t4dCmPUxqnlSYT0bQNHgdadIFIjjMVoh5JoHzKh
P1B/jNgx3VwheL28efgmuG7uQXLYxXnF4TEpt8s2jsjUq2qam4B+oWWCo2aNpDlA
eEgbqwvTkVr3iizk0SeHXH9Tq6OeyR/qKzRixVQd4wxCRZdurxaIQn76pFmW7PTT
md2SRCpEZMnMTyxLlWM5tC5wHoAq+dycsrM/zFEN+BW1LI6s91hoB0byTW6aKYJn
2XVqe/ZyDHxGC03vCitSOgTqu6f5KphhHkEkgaYbvrapSKii17in9Zi41QycEg3H
1dqvx6frcdhoKELRE+SLT8PhuLNIvaDZOOYIOEHIPEA6/Jh09uXL06yi3W/Q+PIm
o9OJKujSeoXTShuuCaf/bdPf3/lO9Ex7QdbHlye5obbn9GH3xJb8Zb0xh/y1KiPS
Fp1if7vpd+u+7Dux7MJt/Drd7VqytX8iavC3VPhgXGAiA8qvx+uMfdVhHw3SqkkB
rYHim6/O0lHOub6/bKw366AaLwry4EvCDo0ysIqLyskaVPiRTLtwpaR5p1k49Smi
shy61slpKsAE3syyOZfVRruiNNKJ2oPhTZMYDzjYqjbal+gFWwk9uqo8RH25sGCN
SJ0+fJRlePPnVPkS5bPsxMzEliW6bY3t4Aj6/AYSThHQ/DMxtdp6PG3Y8MR5u3Gd
Oz4XOyQXxwTt2FqBCN0G84dw5Plm5OrcOCZTK3xyMg87K02IFo/VO6oMB1ReQEzx
U+ki/qhAvozWIaLAyM025JkZGz1lvQ6Z/jhIpRvfQDx/05SxpLNY6/JpOmqxUaCi
yx6XYmO//qSb732oXmUO8YnvbP39IPas0F7N3gNLgG+dxlD3QlHwymNysTFm4ncR
gE0xD/VFlIxk57OXSHUGwhlTdH1EDMlxlhbas45/LEBtIg49sidi1I64TWxRfvUm
nvRcZ1F1y7noLBuO3Dw12/YYPVLkaqwI3VLPGqAYCQHOFA9j0VIKQtnXIj3t6WeT
N8beSaPMnrgKNNwliDRgeYnXMxNyh/grEiQN9P4OQGZtOVMbpGE4GOLYOLOC3jUM
WQD97u5rbJD1weEAetS27kXhHc9/Ztu/t/DjdeaCJq+aC/y/zDcG8frTvnQVh7Q8
dyWmT85XDeMd+3ssL+cJJetSX+HlHpSURYE5YxRF/eIcUkzijdkquSG3qt+DcDMW
/RzJWCzf8l8DltrM3iqqNHrqsg+W+oDkhT32izcvafPlrqW4uJZUyWh8BYh4wvR2
BwtgdrqHtmUq8DTjCTHTHCzC9LxbIIRVa1i99bsUf8S0SOUQKJwnkBPKs6wfQFF9
+aMoywy4pQ+IqjavGgIsG5FiiDynvdON250f58dps3/mlM/Fwb7CQHWy59jusY+p
1t4f9C38y8iTvTTnrZVmSlaGz1/pPWdv259P6JNrxVPDuIPRtCb22DvgQIhwtcqn
aRRZJZnHoEAl+K48EdfHArOVT1unmCT12OQcNfkcHyamDL/C7XoiNLPx4Fd63rWZ
WFTxTnTIbji1Tw+ckTbxdSmNgo/oPavCD6h4Pn8OQJENw0Ab0YnDYO5BVc9rPF3a
u3M43MInCCaZwqjdi815yr2ELHu4ggk9Sz/X7J5AwrttBI/TW6u/h028wIbqCtVL
M+xOZRnGLj3bTNoxk35wI/TAWr6BAdfgRhz7PWoRZ2mgqk3oYKOiN2Ftu4hYpl4g
YQ3IpDc5RotXpmEZmUyUBb/hrEdyu1W5gLF/dx3LpYBwIbC2TqFlS30KQj41VfRs
SGx38NdlPXVsEmgGhpowiTPzL2IHJtSxveVVuhFoEI4zrH4wlRZ70JCbVTXXSigM
F+d9grrO8IcCYg42R5RFdfOo9fOhY/SvajS3aE+NsMAh1OO5M3NR5MAUkBgIy9+9
NKmFWVsFGQAr0KOOd0P96BqK80cizQB5BCofuvtmWfbJfy90BBieoSuXsJLbvfTg
B8acrUCr3IssDVzkDjPYp+1luFsvcaUHxZ2Z5qtSyqg1ONX5ltD16unNIzNFHVsU
WEF7eL0f+y+lp+iQRlUz1JpJPUvMu3o9+jIshHaCdrxfA7rJzDDjCChQO14GuFbI
pL1OWM/FypWnf2UqKRTYJe7A9pdTBu+lZkda1X3cSVl1jbFTrZnItJBKastZ4F6H
mX69CxlQrpT6sbKBZd8NOaWjgKwKUqDuRHN3BeLpFpVlSzjWAzpyYY2/aLTPwBlr
OvPYcSeTItfj0NyKIAIpnQhHEaQoCLp4S6/Ts4pfQldrPEHlmxWRkvsNvTme4hJ5
li48SO5m5yVeoS9KE3LI3y9bfnMRMQ7KseLEhdi4O+U1NZNMgncamb83yEAfkMij
oHKJw66CSBa1T+oFtmAH4oJrccQPkb4ACWQc/oha4SiBNDn1e8o0dEXanbxDmk19
NznbnzxjugSscKSRhFCo+4DECSB5Oj8WTrpeRFJ30MTuxIIyYS+pAWLszWhCposb
noFYHdqu87gGnOJNCrlaxbliwaatOITgO3lC+vQ8PAjN2E7i1D2skmkTZEp+lFh1
0+rAqMofe8AO/YD/mMQFsN9sEPEgGoU69GNb9kdDE+4yUel/hOIQZUst5VfYlcpF
JP6FEJLYyqYW2qSZ51FCNt2XIbutknacRGKronizpEE9aw7wEWekKZsM6MiF57UU
zx15e7OXJHvqZCnLxTSbH8tOfQsLe0DNla4DJPWYdEXyBZ+h82O6+3l8y9KRQmyK
5A0ye7iIReIQhAyCzXfph/wX6OtnMfLGzgxGiX82B3b5a0YNtnZ0ACU7X8fNTJXC
Gev3rhOI0WnVan8OLU2xUG8B0XLkE2VIniCDUSmVXzkaxPzKK1YbKTFIhHzGTF5P
fxVNl0JofXssba2LjkzWI1B0WhhdFw7RtgHzKL1KBD+FE/IPbIHmkVCtpD9FL5fl
8vnEQPb+gyWwG2MgTjn221tBEXwV8n6sjkg5EdbVdRwgqg3/2Mo29f9oH8arhZNb
svaINqbrESDFxjWZrRo6F3H9kUuJsY95zFHda9YQjOgKZFARmHAkLQjtLw7uK/A0
zgDtoqzH4fydmPebgsJ2xv2TFakbr4DAPEDJJ8yPdNM1w6yTWB/YyXAoS03Q3Kgc
15EBTVUwcqJJ1E2ftyyb+r5g3l7RyJ4tE+qJJTEYjPznqfjH2nUQPlHZPcE/PQGV
iiqurhQzRJQ0RaEx7Yh3WjASlaH6tX2PRKfplcpIzVhaFkPPCWuXNqmSADCxzBDI
Fd1jKrZz+jkT8pg/5njA+SoTqqe9uJP8b8nogXnMqMCIEowaDkDU83BGnVNMaF0t
ZW+ri+dL3E/j95nOQoRwoIieaqAHhQjXXT6pSA5B1CCl+rOYEcq/7bCNgOnQCZjn
OWh4j+uac97jFkXeUeP1I73HLYH4A+5Rmmi8jBjCbn0bwlF1k7MjIyj+Zlx7Xp1/
w6xhbfH1LPsxuNa98/x9WTKDtmB9qW0muyFZhj0YFHM4lKhCr/Q3iEeZyQ==
=iDY6
-----END PGP MESSAGE-----
