-----BEGIN PGP MESSAGE-----

hQEMA0xBmd614XhhAQgA2n/sFz7KZsme7jOUSAfEdx5VJ5Fu6ex5jdps25ezYyxe
yLLqsVZSrlU6TFPgwTHM7jkjzd1cplUjs6WnqHaantfWtC4xxgZNXiT0elnHjrzK
bdtpSbK8waG1NoncZ2IrhWQtBunpodl02v6brMZY6LQziq0Gv0bOol5ng2UQcGyM
2/GYU9jqimzgf7Umca3u4/5btQNJQO6MxvmIpuXH1xd0N3JJfbw5oXpMaFcnQgoH
NEPivZpa92pTUzQsdiHPrMkSCpIEnx0h8iS9h/SQNzAz39AJEgBl1RP6KYBEIu+3
PiUHz3Q+qlzK6vOIHHCjhGReisgunTN/X8jf98RrJNLA0QFfHnpfY/wIytCj02ue
oySR10L1VcH5aqH2UjJiZVxN4DEGm8JO0FOoGC0brz12t16WGxk+krjUPrfZIaVb
4wcWwTfIdTocAYt3T6j+0WwNtpA9tElNC3dGYgkc/lYmdb5Bl7gmb46lei1OFL+/
5NAOT1sbs5VdxHUsDsK1gOx5sRFpOWnlQJd42SrmREGgv4I3ZmskZxMfhaWwSzeF
35bOS1o/9mn1XfIys3tZZ64jOKYob7+KVZQ3bF4+dG+YsWtP0rKhabJR4r69uL+v
YMI6j119jEppF+xl3uz0rmXeDnzIAs5etUoLNPqki52Vg2U7m+mNwG5j5svfAxkT
Kp34v4CwiZScHKNiMOBk8AJtE1TqXaLnQpJWf+J1PDvRr/43vWdWaSKahgX8wkef
yoUE7mYiFn09uHJuMwMFE2IV1y3zFza1L/VY7b0KOQWkgOZbacDwcc2cAOongUeg
igdQ8kSUwAp30jTVtgWSxY4FjrGlTwFzulQvsG1mlc56yjOrUstG4vF+zD+FBuE2
fnbt
=upwr
-----END PGP MESSAGE-----
