-----BEGIN PGP MESSAGE-----

hQEMA0xBmd614XhhAQgAptRgS8TUoUJj486RX61f0kam3ZgVIjrzlx6mVw9X0ZGa
B+NysBdxYtp3lsyrKCLS0DZAcVDyFgG6+MxupQEBLtaCPS2yGcxruvAXehqMxAcF
p/XYgMhobiDS8dxXEy0snlegpkvpN3QTPKK1QnONHmiLaqXpmjfb0SGbX/331l0i
aV/1kp9cHY2aksbeyxENrD4iac86t3qcnlijsmDDPHvi01a/3MIfU3nF/xUIQ8ur
hdTYvHnloTVmazaC/sNr58Ae1kK7eN+A1ZscwqVW3Lt4y7sUZTj+nh8QFYDreXRL
gCjwjSzY4R2FFd6a66C0Rm9yIbPIPKnPubQ5ECmpntLAygFCUCKwb7ZEwH4eFm6j
u7Svb+A7upauWL3ZyBi7wa6vqJKfatuHnDsvDXjb4S7UZB77rhNzstc9vpbPYYvr
9+fPj8iQNaeIlPYf67y/+28bwjxRwKzWSbN+0x53kFHgy7X8Sx4MCUaFHzbpxuZD
6T+SGQa8MbCVRQCFVSqAADFpIwBLSFRE+zFezM5OoIArfqOa3db3FQAL4Kbhc6St
FBL+rpBZarEVFPBQKiaFN0ZZVkJA9DRm4Usm1zjczl0ur0LnpKRGsv8Wij1c8v6j
ttPP2w1Ab/OTER7IRDdp7EmpGwC+8ZpKG09Y3ot2Q3W4J5ejf1iNTrUZWQ+C6x67
WbW0q3+0pleWiUBScKCo8h8Zw4TNUWdVxUKvagbnEN6pt22ScDfmaHi+lyTCvX3N
izTdOlEv5OSEBdbNmlh0ffElvBiQ3nRR4b+cpvcXulDx5Wyuf/KyT7yP2X5LWhyv
47tEQjuRn2vgpPaexKDg8pUJWp9qeX70OlNA9DrfhyGLC7pq7ZlhvXDl1gg=
=SSfR
-----END PGP MESSAGE-----
