-----BEGIN PGP MESSAGE-----

hQEMA0xBmd614XhhAQf/SFL3eX3/eq2Oib8fyRAbwpbVO4tikLwz8RHnWgrQiEi8
vn/Pbrw17+w+d3uGjQUgdvQAq29zy/2lNhjLhPjx3leNJFU96z644AFfN8P84fus
UegBQ6bQwsxwKAZ5IptoejmS0pe3mK8wqqNHwIZOadBaasLDDnEAkZk2azdupYwS
DMXC0qnQDmWuAkcHvTpPxDD1GenpGKUn8OLc6nUZH47joqE34Tyjcdo+59Rq70LN
OmgwcqY0TdTk17XMjfRCgHg9G1kyuwv6T8eX8AwMA1TOF8RpfYfjhVEzx+Ilt3oB
isPLn6PqXRYDhIMLV2MDyV/Am7oaFEq11Esr9AgSCdLqAcEXWuRR/iWtGuoWXnzs
VLQC7ANOduc5gI0mU8eAJq8FmYUo1klH7ijYLwZ5qHXGl+/Ek6O60mKWWcyaxsqa
OVzcRqohzn8KnDbdq46rxAdD/rZ5i5wRlMphBZu7hasEg9FV9vCEvIpDn7nhHiac
GsOaq0mhaQMGJvDVsObD7vbzc1cLmTN2SEUXJio7X2NC8kYzp7IHUi2y18lXwp5k
/+jmDLK2Oqi0KfvTXzqnsb+9Zm04QjU1NB92B9OmaoQCvdovEtpquGkdONbYYt/E
T9vWEJ6QNBEj0FyeTOMjSwFoZ0Iy20d6Lf0jBTpAG4tW2hEydrFgNRpK/bGDURDC
XqlSuSUZAGG50dzD3VIGbt9cScVSXy7pFc/BCaybvounWuw1MqD/H5LMHO+OieFU
XhoxFi38qpiTcl4dKXev7H2SoU02N41UzzADGH7wRqudTqXZfvUQSwWhrRCRIEmC
c/bRiK9xBGsjP/NBLXQZXVEv2JALjzv9Bkxff7exX/wZFnHfHFo2oG3SouRZ96Ob
Zg62vt8EI5qcU2axUfxYns7YUZrPWIL6hBBXwy80GDwlqzJQdnzPhtzO3V1JcLjX
/h14GzZpdwhGBJkFIUsYPYBFmOfWWD9Q9hlf3nQCUIo5Zh8fp066xyjRU0ABYiie
8OCKNtwN9vuf4q2RI+13/9TsY95li8RObcg9RutjCGq5oHR/G0wOCX2npGN4Db33
3RHs3TzSgOympLMQSBowzDTzFOcY3oo2t3tu4h9lttoLrF3Vvr1/FFajlF3Ud+q/
1NR0uGCjc4GMjTOdLMDUpH6z+wzoqw673uK70DiEOqXbOVZ6qHQvp8Oc5lk0SEOD
4IklSazvAGFImsMSKk3D85MbFKqS9AocdIqHPqPH9cLv9MjSq5hvVE0AeuEvL3O/
uMiZQzf+BMgHlcpU6AvSVFGv3qPJcgobX7KmGRt3D3LgFTUueUPmbJdXSJjQuQU/
w6fY2AWsTxGPR44Dj9Lh9o1Ur0bxrvbaO3jo658+wmsPsRMyowY/v8LDeNDqLF3I
TsNvf5FqGf0K5YWW5vToByrR6WM7N0O/lVY7+D+yKJ7H0DGfxMAsHfo5OCI0gJkn
J+MPnngH/TVLZVHmS8HzUZVNWc0mLNEem0lay6t2pUcUL4GU3ZBKY4ON72u4Npts
Q+g88TQP/i0w5hB2fJ1NnoxB43TY2nk8YGuoyEIgBCeYzHnFL+QlkioOX8/zSQfg
zbKGRTs/tC1RnSQw3E7i07zPRNOrgz0eIQ9BrxDrNA0ocbtN5qJKX/e36WVvAiq7
RKuDpBMsrs3guaImVy+PJagUMFs0ooD9hT14OXlw/GHuZQluD9Ghh9nbMuvWBXGW
Jel8ktCaHURFUVmdOfEnpiQXiyli9vysjzEck3j6xHDv0Qi1sedOBYXKWzDFXpmH
7L+Z6rh5bQZpAeVSeCVwAvUaefRMWD8kmY9rrnMEQpvLpqJFWTulWw4ZSwp9E7Ev
1d0qDSMBO3B5BwEA1o3FRnloO3nMvF0fNoCtpIfJG6xdX/WkMBq5Mrw+61nO9VYy
/OLTjd2dyOAsxYgQY7g6iaQjO2lw9J5vaU49vnOx11HZJHCpy+mRkC4uFHEOls4q
V842lPp0N56StLH4jugcZRQoJCr5hsPNBJAD4/8LndQ2ecAI+nG/ofG/3rcpuTmD
8Aprh5D/QwOUuZ+x5Auv54+/i1iXrpOduyX8EbjfrLAL9KhL9emdjVidC0QlMqBB
Z3qXtqCa3LuanTmqB/Imb3kfQjBqGmcXnhiThFQHlPnXhsiQX52SOji0DtjcXz9H
h9eNknpSxTqqsrWty6riUKuBgVrY2WN/riVzdiLR/fKp0xugyi98xYuNGNLxBgC9
Z4lVo280Qig/zSs/6O7tjl/WLHTfjwFgQWaFfD8N83i0EVX27CJSJufr3PR8ruEy
mALL5cg/xCv4u+h280KlgpxY10NK1Sj3pr35stZUoCESfivdt3/oilwxNNQyZ/6+
Uf0a7eDhQ9hMI4CFxJzCdo1czCykDjUncJ4cQoLqdHsCCcCWjDLDjDvnPsHjyqTM
p0cf5I2889xkwOKivFyf/Sx0UtPHJXcJOVbl/GES+HZHVrFdhExNM77hX0qx70IQ
2emoWJDxmHTSKJ3zTvq14Pc5Un1wxmCnVPRr1U7+EUydJkGrtY95nSv+PtFikHZy
80k+l/+Wvo2SgT2H7nmn/5UboV1qHQ/+yjAtNnjjOTj0haOYuBuOYrktNKW9qmab
s9nN2xGggkLiX7GVgDYsRWOKPuiJcAwMomxcTSrcDRsQYViWUDuNdDqCytaQi6+l
NNLaJsyWdV+PHzGnOx5f4KD/mONMHTATfIl66NkKJNuW/EU/rFf7p1rjw0i+y667
sipEVmCM/g9q1b6y88EmO3UZyS8JEWlTb14zWROKGnnHAaymu69ZW5QvsrW5tOn6
sQL9DWw6MMQlKcgPYPk9cRoCyRastGJpjCslxSm5RFro/A8fY4ihLB9T
=cKDO
-----END PGP MESSAGE-----
