-----BEGIN PGP MESSAGE-----

hQEMA0xBmd614XhhAQgArOj2lzd5xRAwFgwkJCHy4GPPzGfETuV79hx73wD12Ew5
aJNOgLnNlOHwwfEkuITkHD8qp7+A1v3ru5+LVgVBARHbfaa/RN+mA9354wwzI/7K
TELbahPB6HZ1PqUJ6MqqLYx6fygTwIDWUXIIhFQXPtJOMq/8SKhA4bWSbjitmsU+
ysdEBFaCuTFQCHYF4b9/2i1o9ba4Z//ANpc/WwUeSzq1+ZyvuamEJiyXy1uqtCnb
+tudBQdaxtmMVPhV+RZZUbjMOddU0dzZm1gEs4mu1BbNxonUzbwu95sdDePZTWm1
nNNpbqmSVunwdK9IWU4/9Fx5Oy4kcWn/227DcL1cX9LpAUTOa9c+HIeKR0FiI0RO
z9WRMpgx76kLlr7fmHzJRMARQ0j5jUHtTexD1MfUm4pX9R04jnpp319lnMPrwSPi
gnH6ErE+CoJziidmmPqqdeLZ+kl/BSwGJq1IGAPmsDcDiEc4pyqGwWq6eyEDzMHf
MYpedHJmIbTr99up8nvUf7bPmcDGMGkigLhjuhMgiHRzRR+BgTE3aH0DZ5Tn112G
RHXx/8DolqPmSUJn4LCB0Ti0zXh2yPbYu4Tt2bTNBx8+KKSMSlZPFSkVmgUe39BP
zPFPdHrIgy0fr1oyFCZmykNu2BhSWM2V8Ppy3Hq6LVpytK7KBgWhrbIJjmLs5kcB
zyH6DK9AMwGRrzGEApoV3UEcfScSoC5ACTrbf4WCLK8ruA7jn7u2nb9/LXAgRF4J
bxO1vc9r/mrWQu8mUmCvLtmPBopBzef1W2RAu3LqGahRN3XpkDxfap1Bl6RBp416
bNey5CYzjaoImQUdZpbaZPo3hvniw4FYTyIXu86/ExPMnUY/dQID/vOD8I/u93Qc
EyoUvOe5YAqChC/hspMk/+mp7G4iipjH98e7h1m5ls+c5LF0LRk4fOYU2kXT7slk
zsGJkscfQaOefY292FvmbijDn7rtbUqy4zLPjDBolAshq0y8d7EmR8RFEpxs5FuJ
1TuZmc1sKSjsmv6jQ6sabSLAfrxfJUVBTDRibhVsv7JX+fIjxtkDYgxqkOtVaD3q
ConYmgLRUb6AWA32c2HhbWTZIs/C8i08bFQypY4MOI/YdoHtyWQcSTvLgQsV0Unf
HyDKYOuBe4kSYBZKjJLth/DFuKDrKouXE3WtfRQyw3Usnhme4hVI9jIqeqT+cK77
lP0SjTiDW/RjoXJQAIpqD9ojiKYVhb3Xwfz5nN2kxHrFVeLRO+G/tvdyrggfOGtW
ThLelSHJ/qZWFBGYMazAJ8CPZm42AaY4Szwen1GY5lFH3uojhNFIMg4MTkFNtv39
hIdrlu6rz8zrXkK5QqPEU3LYfsZXOxIGx1pILxzS/I+mM93N9xm7H5G684nZPbtU
NrLESIyWe7BywTm7lvST8IU8sbJFGrqH1eNTsaQ4eJIemRO2R234YEU0JNVCoiYK
Jg==
=hWmW
-----END PGP MESSAGE-----
