-----BEGIN PGP MESSAGE-----

hQEMA0xBmd614XhhAQf+IlIYfZBHzYVFzNcX5ud03t5tVRq/DvjgGQD/7GEUU7t3
u7XqRfi4Z+esysaPz/KL9RC2q+xbjCfWH5IlDYmvcmTL0LQXsj2PH+hwY/w7p6vl
qKhCxKCMh7VNXE9iulZXKuVCCr+a69bNSktSynU3xg8q/FRhfN1dCOaQ+kF0eMUe
SstyAbudCFkpdKlECm0S9JmDehy+k8HHUyHykc+0pL4SmGzGBrdlhvKsmQU2zZgH
Jo2mbuiPu/ZZKI/nQ8doJZOGUZod69n7myKZRqT7KcopXE0zwXp+dxN3IdH2+ioL
I49G4s2n7/R7rUhBhFjOg6ng0gXiCdvZLY5tWeBmO9LAyAFN7mfPAl4LVOCr4b/D
s6YkcKQePkXU0ohVksEHf6O4v3uARImO+o3rXLtwOWjdoXA+gq5NfWO2nWjPewCl
rlOq28NR9WADC7TwDMdWxQl4W1bVpbgkDkLEBSuk1IENpHATQX3fnL//umWrsB6H
4bNytnR8oxXkmxH3MSzIWu1hu6N17K4ynwBjKQXNPIquz73RKv3mxCTxhkd0LmyI
jBrif26cqsE5ooRiTjr8llqQfdSueng7U5T6wvf70FaHSzv1NwfDkOPb3zqBdVOj
5Z0IP93phMrtubPFSp6sNvQKqF9PYNzERwBu59bWYtEC9QbWatzL2f0VVDs+U691
WjU1EL9pfsBpwPFmI0zHk+NdzUbk7z5CwGPTkAEz6j9Z36FJ3uupDmcwhDzIuxPm
gxcpSf8Iw66GR4KR6XtJTk9te8MntL5Hb/lH2026ModvtEvcXnea4UkdYVXhdduB
yO8FnA9J26+CaOwGMWkT2lGcwuqjWTQlpovS5nJgV1Kr3UglGvBnzvR9
=vbri
-----END PGP MESSAGE-----
