-----BEGIN PGP MESSAGE-----

hQEMA0xBmd614XhhAQf+LRGRh2GlH3JzGlr3YEpIKh6WuNTY/8V8PN121GdNkPzt
sMmZAo4FRnUj2ptxTpwfta+wAC75HbD8I9FMJMOjBH0mUvWrMFCZkyGoo+66c73B
2RD+kBNcPhSAx+sWCzNTnIhLUrmyCNJJR4obq9q24J9SPMokHiTegJQ4SwkefG47
3ruUyVKUK+ndk+9YP7W7ouD0BjGGDIYMb+ZM2jlkNdswp8huKCV/RkaRuDqP8NRP
sDXsoHz7op8abJEU2l9KUpKAx4hQgoH6kwYKf++o2m8YLO3c5g/VPTuQIFG2Xrnc
zKqTpY88DD2VJs+Xpx+LiIT3lzK1XZcNz7K8f8WRt9LrAbqFzZbHNpM01Lmkja+E
9jDGt8fJo/NXf2gQ3w3IsAiYLb28/AbwvQlMe+8IzgjLd5gGLfICq4RTNH61dNij
C5dZwaB3mswnQcKlI+Wd94uJ6g3ttKxd6rMwVm6j6SvDqbF9ubKuNqpkj5mZwBCN
oj7pICGBjYcfOQTQ3teuZsan8wJ4NX4pa2NggIujHc93nFMeeDqSmOlXQV/+u2MJ
BwQCniNAdLkPOJF3qjKRGM4FbA3DFA9QqaavXfGk3gNqytjc4YuM7kp1ihfysHkV
n97C1gM4HzgqMXFmdzOPru4bR68ee8tA4MDFQNT8MsmAeVVpCRq70MRv3ParyKFO
J/xQ11XTjG5q9gt7NwObA7ymh3VCCPk0Bt6NFDs7xg2R02iiNt7lcLHzBmLnJC/O
BJGwoHhjaSGeYt7kn+U//p+/Q12TJG6hR2KI4GdueOz9R7DwkSwYuxIkXHkZNgmK
dF2XyHW0ItxFG0ihFIZ3arVPLFsJ4QPGUOpdVAV57vnEIhpjonDYzqY/otecgflq
xqTD4DRUtgvBPoKa+i/vWBY/97mReY77zPaC8c4EwHsXRipJYVFT6o87sCQaE8Ef
RKT8TZrguadPVDAaSfpplmalS+l4DelAA8tVrEWfDCrkrShNUJROd7vMCn/YXpAv
qFeMhn+3WLQBrjSi/zfeROmgkVaBg49CIln+/hrf60vEtzFgPbJLtmU4PpIX9PNZ
M6geWbUmBzSD8OWJ5UP2G5cgRc0NU/TRIwucAnm3hzv2eIZ9uGwYf7/+aozUzbh0
ERG5KAmgNy1A6Pf+l4fP4ViZTpbCSBEvLkSa9VoN49rcPlopuXW/4bzpZjkEM8r8
RUPfZmZ0TX6LCc6+yNyKqfpABnCkA3O+pS48/yUhCZrD2TMxGE3mN1gI/udcQgX6
kkTlLkuKBylVS0l8e6HtNPrOOyKGbH2Ni2O+YbTKylPOiP7PCT1rp76+unJhoVpC
d2dHuHOrLS+avi+O8Le5qRf07PKoZsb2YfbJ6fGa+ctxXFG1titniTrpB4n1/EfS
0VQowyUkA8Fj438CYh7MHxnaZLg3D9+pLl0ItPMXpkxAe04Fh6OWlldBQi3a8zQ0
60xymUVQgW2h4PBDhiqqVzTiGLsswXm3aSmvQBOnOkyBfrBkD+q3ra2Mht7Z2mDf
I6Lt/IZf6qWNvYkyF9TNtdKRI57tRy/lvzxX1BXFAz/w0ICbUJcTG004EQTSLe7Z
ceyRpFqBoaURJlsTZSkG+TzVrmel8sYCgTLOyHUUTftdSE4lVWfzgF0Ojba+Qcmx
2CaS+eIwzH7W9Vp67Mmcfa4OUlvuSAtonCUsc0CSZKmg+bcEp5d2vHWCZ7r22i0V
vNJEuga19spPt1UWZgwMUjVwnYLsv0ys820UtDz1RbafFkYDLhNBStID4F4b8vNW
WubJ4NK1JDJ2qo3vCMY4/yaQC324OpJki1ARFYTHf+XyW/Aj6P250LhrG4oaI9HV
C2yIG4DfNkDyjPgQsJ+iLVwahgjQmombw5Yz7rPgQkcTldr93dJxMx10gOoSVRZf
kEdCyiNZtX/tU1oNXDNA/5rz1D66fbRL5Oq+7zVqEYEZGp7Fq/p2WJ+PbgbR6II7
yJmHCz/ev8I5XENlpSeFb+50y/rPjb4mF/GrLIoRe5lOhoemKshDDvHMnee0VZdQ
2eNqireBLGp0rbAJaaaU6HbX3jDhOGSZ/tCiYmroK++GbHGeqXN+BSeerB9AWquz
RZNqAwOba7V9oG6QrN4q3xCXQP6CJpQAY6M2DjudH1nKeR0huun4eZ/gKCtfPI4g
76IMmUhT/sthUT4svfw9qg6yK33QrZ5rqlQOQGL0/90sUfM+FBst5v8sFKoCB1fC
vZG18usm4qJiDCW29wl0Kis1fI820pjLuu5aDxCYWe9hiVAH9/5DsawCLGeTRZiJ
HFWYeCJJShuFg/tVV9L9eKGJ5a3pSeaFhmcGlNDGQR7k7uu3foLk9lIilyiQI30P
gYBMdVSLYgFoBugBJAs4nkWMYx+2vKDV3vIeF9FhiSpMFFEuhir/UhAWVtp7CRPU
mfc3Qx7crS/RN2rMmw4i8Rx//Qnq14cwuletYIV+sdG+xab1Q5G8rVrb3RJn5y2B
HvBj7jmM0NFORKhAPiVaRgQ7sTVUtYxycHiTo+dm70L8YmcZbR86oW+K6kPUhXIW
J1CiYM0gBOeMy6hg6rKxpHrKQzhjjkRK46oVr5b2ayfp0pjLX+NlreDNtuv+cxJO
lRFh1qIpmYcPT9Xir82lwoYCD+2rVV5xPQeuTSZD0jLVjZJQ1MIwLGZ21g+m8GO8
/QrOl5YPHdF+k5oxlgQdJ6kewgSD9/S4+R5xFwQ4DiYJDsOmew1MeJn6YNd0Sc/q
iUWVUFXyIM7W+VtgmX+eSZ9GPxi5VZ543gX8ZUqFsDzjKdg13198GPJLW3bBIb11
oHOrgyQ69R545pzpk0BpmQwusz+Rd4IsRqeueC3GUdSaJaKu+tncIsRh9oW7bL+a
iWggLWdwDe+9txTFZvln5r1UBI0aNS7FIYHOHjVkkG/jedudRP+jx5ajwWfqK52W
1aFUrfuK+WyEJ6OM29dFNWfidfoNo5ZvzOBt9zkPKKxJHmHjvHaUJ18gPHHPtenD
m0hyO3bAeRGLaSqT/4LZ6cmsnOPxESds92yd7l3CN8vb6cdnEI1o9lawVTm6hWan
i1s24/QKyWNCWvwx+hucO8rpQHWhkpYWkWFQaNi348J5t4nhjyAnmQ/gsQAlFjwR
qrqdd9rigYY0MkSpbfTpEAzkK3GwZ6lipErzlq+0PjYB00xvlSP7fPa/UPR6crbm
ZXFUVhp89+XMBBKQbQ/UDlRZAzYv91Q3Cdriu0me8MubipBTKxr+0GGNYJZAqiJa
aQufOybyBrVVbeS5fEsIN2ezed8L7EDF5fcBlCduk54hmQyXt4VbncIdDU74mhoT
+R4Gt3mGfTAbqURj8dgnAWo8KCNVCg0IXhw6mC9f+x5X04ZvcXbRVFNhkZnIh9h/
Eg90dIGBnneI57XDoI4b7dS5MmSz1n8bDvbSHE7n2o8ewQX2H95gCRx4IqCp7P2v
SlvCvM7vug9yF9U90+qGQHgLY55cCafY1FoE3XTpPArn45tf55oDNV8lC76z1H93
uAxjnmi5EBLskc4Z/o/qIZ1HmPs18qS9v3Yz/vUQI5KCzQqKdWp4T32InCtmTGzM
8Cqqqm10PPtq3syCDvvMfImyyG6sHbCaY8ewN02x9lXL9hTfApFx/EOvSnX2TYIM
HKP8vniUzvB2gEhz2nL5Gwh3SUGr0Xy2SzsqyyitsTUCqnoXnKeF6rFwqX18L3KS
CYTEyUMkIwRKX5sLw5tzH2HQMzZkoJM5VM+UxtliXpmlMduSOfcjk79ATYeyK5cX
BdrA9vQkoW6Y1edd/9fXqXEcSLB6ZxA2w1eHGUgpvbp6LtVXA1onh+MrVl2X/bZS
+2hRN2Vjn5gQq+mhb+AADz6eX8mn9ayUkiknrzs6czNCndsz76F+g+RHC4wJqFMx
Q9U/YMHMEn/AzzR5HmLV2b0uFKYgSnzIUfwFuI0Ea1BeWsLVcUxWhyJ+S8oOsFUe
HtTaNpNb+3J+4crsq5MZsIHppNFv/op9mqAQjQciHJIb2tLyaszoIXz1FjoiL6k9
GRTfPXx8P3a8n39EOtxtz15XFMfhSkO72jrpEQoZLoWf1njf+e8+D/qgJpEt6SdY
F4+ITOp50cO4zw9FTBjJn7KCGRQluUbKTzb5ozVNX9xl7vANB3ys/k9TANt21nGU
3rgK7GR9S8JPZZIgLQ+SS+ZAFhEbTEujPlYh8rKgleJgaf2u+fEhf9/ZnEianIcO
/fguOepPfUp0PfNUCZYyLGnVJ0hsrXmgu1+u0Db+aDJ63qJqV8xAmoeinDmu7Pyc
ZgCjT0uGliTNo/d9Ck9JWyzPXAJjwmlUds0CPgnCTH9cIMSeFLGMlzRDiEVtE2vH
/WriaXZ5xSrKLw==
=nSrZ
-----END PGP MESSAGE-----
