-----BEGIN PGP MESSAGE-----

hQEMA0xBmd614XhhAQgAyXGmR+n3jKJ6VGzbhh29hJkFTcvLboxcftRzyzWKZfKU
oPpyiahQCanMmuSdMC+trlQHgIoToWZ5JUbpSDWOApJkhGu+qbLT+arb6DCKvQDq
CdDAgSvFBotcexC1uOOKOJPtEKNnoXrtGvB528L7I6PZ91VXdGGI5O6mkUo0J8nl
Hxq6YxQrnpvbfZC5hPMHXXMtnJYdjNHsEQS6iatZK07eJ1PnhvdSMmSEqZFCtfWN
At8MOP4U7LUVmDOPdFKsBqNNIMfW4M7DdTQ8fQWqkJzR5PN0xA9eTy/UXPV2bJdw
Y2yug6Kqu6ZQhDUeGOTIGAyHyEyLBhVkpwkCVgbFmtLqAaY524cpAQaxhMy+wECE
ls6xzsYBDNVQ1VxSOcsy6CFeLjAj63bT5efVIeycwSW50jvX3TA/tOWkPQECBSLc
fxZJ2UYgNMNP1liNwaSu/NY5JY//qxUneAeE+FO4j6gtDm6EUk03pPQftw9sj/Se
YeBIAptlg94m541T9naZxB+do2I27Ohc86plww1jLzdx9iiUUDFnXiuYt4+TmxIu
IThCtjMEsPTVWKZLXHM69HVJl6zUqWOnKF5ronnDsVkMvt2VEC3hUOI8OY/gKxm2
wG3jDCZES5amVEwm2A8gVrBd/vxY53dWP1F1hLGnKLSivUf954pf1Re1snJ/flK9
p6EoLEkTw2xfdebL2ollhtjlb6CiC53NNRwcxRVsWiyRfmNQ0bsl49GmMbHmhmix
hYH8OiTeQcUuXSKMHDSD5xBEMy+l6uRtyhiheYM6VSiWl6MvNU3GW89kmG9DayGq
H9Hvgq9qryWmNd30yuYeG+20XRgdK8VhKKNZYF+OwDOYiDx4v7FS/I3bvF1+S5Lx
7a5u/YpdeJOzlbHrxORQ9JaYAY6QXDj7e+/yrhFG0ZGATTn1DNjPyo1NrpQtJ6vb
COTNOZm8XJ/UFLJq5+1PiI6d0D2qW4vvWFEWjJe9lxPeBPRAjDP02cnSxbXbDHjC
HpTBvxuSsZ8d0A8+a6+gRd+JpWyJJs30FpmJjJv/bFr0iQlTQK33t6qIHCtXdGA/
MrUdEsv9jMyoCl8u74JD9cXL2AAEAIU9Tc95I4v4mcuI2mss/I6rIt/og6BYz+XN
3OiIS1S4rJbAjjH6oaCVVaSPYJPIqTGqOQYGpa9N0OfiUknibVl7lww32EPa6PqW
XwJ6BXgaqFuuu4ipvZM/I5Es2CKoO8rkDldkBYyKpyDxzQ+xs2/n64vH9qxcNjbF
9AGa+9faPw5JOpGYRkgfwCSpedrSFqk3SpAYdGePKZLAglTQJlOLOINGbvJHQZ+D
RQksnPpJHVOwq1riO8PflCiewbp2abB5mXxJCIY+ZRj2mLDhIMxXvUC2Uh1tLu7E
jfIW3q5xH9+bqYoilusbUaWRNWLk8k+ynMea1hXOGIq4T5oKEcLWW8cHHiYuuAVh
BvWPZqfI31ZUAKZpflL0HFAoYS26RYqYvAksiMdZXelqbMKayr4NUjbwHLnaD5bz
OiikkWNWZhCVS+S/Ur3nQrgGCNakxQ7kJK6nVXU5Wehl7P2qQse4zjxyOQY6gvPC
gkSZPwLYzJ4NP54Ev1uz2sHHzmxMhf6RIi7jzcDaDS//FiZMfp5lD1PEl6+lj/zJ
gfRpDed+0MRuDn067pFA1sjskV3zgOVhRqyAZqdH35pqwsQNZNRhpe9DCKmBnyzZ
/cCS39ZNw9rvYPb4K6OjHsXQS/CZFTc1W0SpnTdvAEUsQ98QqjX5+tztNChgsOFW
o30HVpHRtXmVRpWnAPqu96xFZEEbOSp4znWL+azPsAufbLW/njCIh7MNpk1FgsR5
062+G2TvtbBqVQRydE1TeXlc3z8c4iWBW2PE1NfXpmKgUu8ojxsEhhuysxphBHcX
lmg/yT1AUvaJqt+meYHkT/eyyYvNZTR4eOjerbbQrtfe2H6ko/jqikfsMbXWClh/
r7G6gtVlZIHTeXViHgVqYmzc3mTCnrEsf/+9j2kgm0MAYyzNqSeWgVhbQqVjw/ec
SZ6V8RT1OFVgB4306V1Osu4ne0WPlh7EcquM0wYlmx3klLm8LveZKvwfwyYhsXIl
lXAiSb34Tsvqpdemq8PCrd0ENBwcOVZeqzmS6Jgc67dW+g98MLE7AXTKkQSfhdan
73+XLiw=
=OS6F
-----END PGP MESSAGE-----
