-----BEGIN PGP MESSAGE-----

hQEMA0xBmd614XhhAQf+IUy2l50eozS0cfeMU/9SZGFcIrfaxufv5xJEG+wkkmQB
RDYzL7yXhNDm1fUBVquacU584jX94NNnf3Wrc1m/F0XOta5q+XzSUtXLPMNIz5dV
iFrION2LPCZbichUfvROzzSb5oxBrbFKZZ3LywEgnbIrE1+lwJ1ExSDIybdxpmiz
Th+S80gXeSM96KsCKlBRKCAjcWr/GCagVbvZ7VMRK5qvjnZtU7URkKUm2TyG7j/6
XMlUsx4BXV6bHWxUZv5Z0vn4fmWBLPpXSIup9D+TLyrLjRMkx4xa03swLjXqwO2o
GiQw70cuS8L91XJyoCaUPXoDu+Fxz32n+/ExUjnhRNLpAc/CD5Awoh0GWLOOy9iK
5+JY1aeVFh0fo7nN7oCv9X+T7yW4YdAOdZrP3NPehgQScb4tnyuGG62a+Paeoh6e
oP/Xcqyqk27zHVnPpF10jfaWfrzdwxAfhhW1Yz4AjwSAIbp8QJJ3N/FTmoOnmXDx
11pjXuGktQkTt3+gFGDuYdgkBizmPkpvQfGuO8fanjgtyGwaDs9k+C9uLsxURZTe
0FnOT92VP2jAo3DBEMa7YcnXnSndBPQLTlp1fO19442dLy65mfY6eyciMk78sX2q
SfHtg6dI1HpSCW2G3lKQo9rga+/pFj+MCQm7HxRKSJjDkYKtBK6PtYtqS7eNN52D
j+BcPl5iYt0+jljZzRB3LKk+IXrndLmBQlphlSPit6MGeItfzzknPdaa3kWEhMNP
YX2J1xAhknJSnz7/+dAWClICyi4qDIkR0NFq5bkNbcaABNTO14SZ1yrawh37hurQ
+ifP2UBiNhHbwhMjzWe0a1eQfVYaZZhd5mSusAOAC9FY6/YNeAo47Ik6/Bh0k1Aj
rVDaWCsIBBRAjvSXalf28UqiWTLjrbkhdvzigljUFT30k8FdfQi3eBVBVvLGU+ns
Z2M0HLGQkO7E4AYZ/03SyRajaFYPSlzxrUwchKjRcG5i76SDDVQn6ZkkOZy67upy
HY3NsoqEEYb3VRrVVuR8u3hMGzFbiwaTYOmc1e7mBjeIKOk/yJjxOTz+zitoEgy5
7EuG0zmGoqQe54GQn2TQvbT/GQzEyN68HPbilcBcie9PJVqxPxit0lS6som8bw==
=Utb6
-----END PGP MESSAGE-----
