-----BEGIN PGP MESSAGE-----

hQEMA0xBmd614XhhAQf/ZB1vgGQEfy7iBgCkklUGJjlvSNjeXY1ZLXT9jj2COZEg
vDPdIYC9gSmPbrd+NJ73fUBE3A9wyP15QpXVxPYc88vQ/aFcgujC5YGDzCrbi6G+
nen8NP2VyaAAmu7ZRg9OOmR9J82eBxRFgny8UWpci9kv/J8ouAjlZ3TQ/fGGY2+G
odTuEu9aGuk6CzBNdCpHtg7uEtnRCRrGVE++HO4o1r1BlXFejtkE01LTGao2UmFy
i5Atlgn1zc4eWpescA7n3nG8isWRSG9WeZ4wYLEL+7e5HA87DiUwH79o/qRA60lI
cL6sPL69mcojmYgRX3XWXPMgT2PjdFEFZnBjkhBJY9LAvAH7aAjF0BvgC1jwUIdi
YvxzNrek+NOI7nHZXvdTJ5mzLs36ChCBaDeyJNlYkyEORen66IMTKGk+mfZrUD6T
lJFsJ/T59jah4npnw2g1t0Vqmx85VQ/kcYPCTPJweWtO/J0QqYJbFJPL2IIKURmA
Kp3rQ4hrGb3lXbJT3PBd6laep0YYMP/z3B+8oGE8MNeP5mlHv5p0Aqo3zX5mvmpm
BdpaVisRB0L0iUNsQD1FFsvLEJiqT7SIV82Kio6ywA/l3b7ZUeTBNO+lNeLsEQsz
FC7LYnniTk760UY+8dHhLQl08HeT5Y9Sa9/z62Ciuv02EBps+ZzlEliCiE+TG+gJ
EkcmMsmwsb9EyeFKNkISSLRDrK03tHu1XA6rVUcNKUHHsBaNlHJVSKsv5traUfst
lgGvgjVXg8fGkxpxXUk3t2oGVVZ/GBSVDVfAMwAlcbkZxhoQeW2RPlQKErViQ51t
TOCN8Lp/uHrcjcxGesVHEi7wzMh9JUezC3nGIHH7
=HRjZ
-----END PGP MESSAGE-----
