-----BEGIN PGP MESSAGE-----

hQEMA0xBmd614XhhAQf+Jsb+LYVV1XwQK5xY7QEc2VMyFV+6E1+6EJenc3tGdVf3
NZMMMt5LaADbXMg6hopSMPWerDMqWG24T3CT3VEi3dQs/VjcT2bs1lIUKOMvVGcJ
QRXxEIqKGCiFICpA2NP9Q5rewdMgORzK+sy0Fmor6zDHaM5CigMv0xaKI99OQUoD
wzhe3O7AulrQGc4JL5GAI8IAx95YkQ9rpbSzN04CMakT1jDlrNrYoEvyf3GzF3pX
OzSQ7le0UsE8nMzY03NhhcOUY5Mck3ABaGDlBoNoesD3wcTlhusuqrSQecr70qz+
ZQOhhtPOmosQe5W2lQiX9evegYK/myT2FyXtwPMcCtLAwgEDHzCpRloeNSVvnocp
89XzB8bsnCWqtQj+fiZGRYZz4xlwONTS/uHBMUtAzzLuMpkxsWE3rqnj0Vi6Be9x
ZJ/1WRSf7ayUNB1I4HQ+v+dPJyYRprLQCF0BeR1XtBbe9D9/nqGmxGBXVcTNZHQv
bqIaCXZwdp7gX/zLJQMwa9bzGY+zGSQ0O45reiwUXA1wdl6jr1ydNJHtgC4lyaar
Mq33PeCG9XDnvpbDKDsFd7dGmn4XmnAWyMeOG+dYyPEyjFlPRrt65z6TfzvBa6Kz
X5IalwM4aJ61vmuTwcFrSL1XoUMBwUNVpu57sG9fZA2wKpASCESHsXxHLmeMOpp/
5TVFKcznDmVshTw7pfCF9e2eijPWWoLlE6fKbsIjOcfiYxFOurSrznf1qTIfLcF1
XOV14wYu8NdljCQ/lNC66latVnwC98h3bMxMhGOZti2eStOMUz9zULEsDDzWZGNX
nxPMsTl4VIxkDYkRETvhSA2FfzAulVzkpasbU+AtOwYxMHNj
=D4wT
-----END PGP MESSAGE-----
