-----BEGIN PGP MESSAGE-----

hQEMA0xBmd614XhhAQgAnPM7xJDpE0YAGmKr2/TF1qnlQJJjtqhrhIUrkE/MBYFx
NaFVntxd9RGuxn4Vv5z+3dIjOvvlOXBQoIBMAoY9WCNPzlJHH1K9vWRloACsiE7y
2FwPwBARudb44uYVWeVUTgACoXb07F1yjp8Leej0alMXyE9ptfRH+50B1RFjScfP
fBVXeAp+Jgz4F4Y13kgZ0wzIrwTWyFWhUxS+EI7FbhE2rP5pjfzRg+JUXjJITbyE
D+3+lymPk9lxpQW3CZm51BzxXa9Hrsc75XUkwrLYgbUM88AnM+89g8dt6XT2qxFs
hAz41dvxacwd/BKsmb6ttjAkwy4JHQlc2UoxQKcRRdLtAccagrI3VN1OmAmgo9BB
YaGtTGVBz3zWp/PD26Y9PRnbM6V31PnZwTwf5ahs1bI/liYlQ+B4jtkC3s8k/aII
xShXj5J53pC+h2/fjdhbwBT01BtUW0xr9g1uTniYxp9PUv5GfWh5YUERr13/MkHS
PP37iyaHM/VIZQmKisJ+lj+UlnmB8cNP/baF2DXZ+JrqlQA5fhOlyr8mifFXwg0Q
Wyb6XMvLz2hMjOHzyUd3FrhFXFCC3KQvx1g7t0nBNOJrHa0VOiarpJ47smPf1zAD
IkPVTcRhndybqEVXp/4z4YdSN4jGpou5wW8K5Hgd1SlS3OOseGWQ1CM+58HdW61M
n8mXti+e9tSKO/72cHig9eQ/8CEhC052EhYBqji3ros+13fa1ebp7MdnXoIBVaXX
LWhCKYZegN0xTwgkhnLOIikeIVPabY6NHOaEqrgrICop6vQ5aT229cmZcjq6a2Tw
Vzd6iBjASPFGsbUsSWvRBGXhoteyvqEdQiQSCfAhF7Gr8qs2rpjiRHxuoAVbT4gA
aeeaY+tM0C6jbXILp+oeCV6IuKKkhylAq6Icdwvf7w5oAPbBPK4pOvZUMKMttO8W
N/72uCx3NJJs3XcAEmyIaolfBFeijnoKpo1Qej6Vhz96lYM9wHHHfwRSbd9ciIQ0
s6tGiAuwuelYqGLGrECtgAYyYmzH01jWQvMYsxENgYeq+xisSiG1i/Z7gwwuUVNF
4WCCRIka4Y3/A4vZ77hFLAT6BGYgWIpN6pJBx2rivTxvQKWzrA836441MDxKYBzi
+02EUomjWy2/rsQt6uKCxX8oT8vHMptC6B7SdghQGVQO9tt2y9Pzb+sFTgwqHd4h
tqPUxZcau/GHm3dvDoBx3zSFcdSCIhELNdxSqOvDmrto58py8TJzey0IYGQEAJmH
G/KOpgXH0Vu4cX0950SuskQ2IR780uDmMJNdqIn0Q9vih+g5IBaPyKzl/r93WQeJ
k42lUZxEbcm6uqSVW+5l1AB8QCRZAo9vL7aq7mbhqD2ON7qmBm4l+WFHm1PO6UyJ
plx2CLjIjWosS0BhrIh8j998OIS6VJ/hxIChHdumH0BGga5CN1Vxs0hChVLrGk34
lNN22+ANim2Eht9buE65wEmqROMYqva9EntM4Wnpm8pcxvAl2l6roFErxZGUDE53
pjGoFONrAPq2ToX7aCNWNNvwRGJ8EeGAWfDEMOCzloyr4nnOH92ifpItf0/YFVBU
CnXl6HP9DmR4ljmmGhskwoElB8HFgNnET/4GDXWwsESUntGFtecQ1fueegh1HjFW
Rp7B71SKIcHAaueMtsCuj2dSb/2Kef2rqjP8c0hAbra3qzbKuHBlPQvbOeJG+CEp
S2iFsEBww4JXVtlvNz9OMMZLhmmjplrqlJ9WETDXqmu5+zwsyMni85GuIjzvFxWE
tbhCMAKJI/9+hD/P1N59HWZ0D8w2clZxyj2EjdVux1CiOtekhiDoOFLZfvJyxD6w
GAODPK6yGd+5p/rpnVDi4JtjyO9vUl3o2F4IokMEkFWseO5aJw4isne6BVdz3SDD
XmnFeZkLfpWN3gh7+qY2LjqcpCoQIO7btRcCBjuD8jV6bNBac/iXYavvfIVkkDSd
qMhVHh7eWmQVEh7KwPaTUR0fHN9gB07uoUbG54kSMDaIar1AHov6cGHNumxgpzBf
gQfWvfEMAA7k0HiE9e0/2UIYkG8LDt4dKxBSHd+YZPnlKIn270JNijH5Eud/gtTr
zHO2ybMtcNR4F7bBntrDKJPVrviivPF99wcY1VlPvR6sR9BFRkR/EYlhDNhBkiDB
tyy+ArI0xEhl1p7yhForPDWDTbHVMR6OwiAzWiMhYb1cXDIyuGnYhv1pgz/88Ou7
h7H31Sm49mvJm6YivOq4Js78G5/8T9Lp9sL5/FbLzUTIyrY5qTgLJj2OiWurJOdn
VNc/+yp9u/P1yK40QN8lFHMrT/7H3T6Y946V6LBd4D1fYYcHtfKAQfeQR4tZe2d5
BANYf/GlxmDx39DKzaMZL/pTpVR/XhDC82F3TJbybUdvYmXypBW04XOXnK47zv29
1AVY6sYbYfPH2PUq18e9U5fMgIDsotMSpC9HtX7hkGqA0XzW7eTMjmHrxASVsIjF
C9TsEGNGfqmbnmeL97lIDdfu6vVtQTspvisqxQVyLiIqehU5E1GJLRiEK9KXqpdM
j8a43ZDl+FpkZGZHzPoxucc9fenF44c+IVoC9UInSjzE4vUx19A9fyxxN5zyTuCQ
fAyg9Ji21MItIzsnAQ65E9YmOXgv05ia/L7ZvvuEsPsm9hqL2D+JHLqTanohRKy8
tCDj/Fw2cuh230aKMENALXMF8+Tnyn6usWwj+dxewMnwMBg3QjTcl6zOPLTcY8zI
T26cwwtutoEzw2Weg8d8raT+fz8vuq9p7hcP5WGZfWeRcrdZuZddMI59LWYnNtDE
6WUyGZuLgG9T6Qm14Oel/jJoSFhlLE1nEDXXeNa3XzXYTvdNz4RKDzBY9+xV0+Zh
GXiynhvCI41r7KMIJo/rlWqjBM9dNV9/j5ihf+HIl7R+tBRjUYDj8zS2qT9p+Wt4
gTA0pZ0J+DB0c2z7B4/KLXSTSFVIM3fDtgaOe796sbqwZ3puO0Vo+A1C8KNKFngn
LqVBhMoMiGAZFJ+1UBxK+AGuvzoC/lOIYRCaanwybN7qy0ZHYmE8TD+8mlhP367b
q+OGbFEWDuFWiiiy/I8EvSmFE4v3gyBWHpjJBhaqt80OMTF6n5srJG9jNPDL98/N
BZfPbTpEaLUBkpRxcaYfj8JhDRVAQNSpjhh+yIa5tEgFy5ZVPvRV6QTUrHBnansy
QxK1h/nGmDH2AwxMKwW8ReyKXNJN32xZ24SpvBXPmUh/nmq1tvG20jQeGgt4FODg
RNKHE+/rEpnaJYH0/F8ptgfjl6WSZWOlQAyx7LVYLrZKD8+iijs8EUdwEYsa2FPA
0odHBKeVLoGoGRZKDg41sVPtT76peEhkhtGP7MKlLAN8r++ssq2Q7c8sjp167g/j
MokOwN6oG7/ZSuiLcqh5+COTyeae9mPYtQUC7rajr0MaHdzKdVxD2gO53o8zF4kf
QdrOgDar94djmTtSTCyPvvo0yXhH3wjtlRKDCiISZ+DFfCczZs7fcHkPiddnUAiC
LrQIxnj0e86q/IyRb2VfGd/vPtMB4YhQ0sHqsTz/79kwIccVy85zoY3ES8OXLHOh
mrakWk5Jr0UV0KUXP46Cp/M9rc8gFpkTdMdUP4dHa4cRV8wTq3NNnVlFtT+6xiSZ
v/Ts9/G4jzkGaQ8LmSgIdvQE3RSO6SbV7Q9CcyUytWk+Wywsk4EhnJ7bPGUG4OUC
mJA406e6CQNuLmYVW1UPzDcZjzoxJxVIpm+hGgz5SRh4hBb9kbbnKh00nAAWXwmM
O763pwQc3Rudzzs+8Qer8RTq62cYv/USjZaJ9z59WUOD3o/BWmuiCejUo2H1Msw0
MN9Td5hRyQik9ro/YPKnN/5J8FBKb6KUcmpe5GsTszyvTDnscUBaV0i1MsVGUx3Y
ZKeJCylyorIuVIDi06rOVEA1wbe1UvDiI/QI9hgZDrsQ4lcPAnl1WZLwN86u+grp
9Wksf9C9mbL7isgiZRLsZYydu6ZkWyjaTB/F6LQf/+2alTZb/pxc6NsMMDCXrn2H
9IimRfc5Ivi4wXPsFv8UGQrB1ro5DTbc5XD0T7t3x033aX3gcABpDPI+vImijCb5
KNI2v4dymWrmk/rukdsrwoCl+a3GfNjSRznTO8MKgyXUIESaaTn0qoSYyIvT2iFK
ScEyAT+V6iP0MOqaiumwbPPxlTVhocSNZSKLC+RAEYqWbEavV51A+1jXeP+Ly8WN
xLZR4XuDJYZHVj89OlcJyLxe/BdTieT+Sh6BA745LySmyW4Ws+LKJz/rPaDZhhy5
/t6S+9yG8mX8+1kzOSoTsnAu6xwBKAinb2Z7M4uxSIHTTidA36lM1ivw6HL8LTeZ
LR0fhBf2VLTNEHKdhscfIFjsBTbhvxdcbwRCeuTYlHrux3DEW0iDVpWdQh/SUfbm
RymRIuyfkmQvYo+2vn+mV3FXvjTAinF7Z1xNKR7yoYo6KAKzCSkbfYKaW41DBa6J
bkGPAF9pR/giDFdyy/HZCJKG6TjSnWOEaWCSaAv7cHJOyN6zbtq8mCvOTcfKXrXT
+n8itYtlHXigCV5ulHHV0c373cm89QKsJLhifx/B8eQaPUenwz33gW75vQsrfzhG
hjwHISVBzzTL6KFyUfaUoEr//5N4Hyxjkd6S7i0EKRZFT2zli/ieRC7oJoNIgXz4
R2SFo2+rAQjJrIQLF03fJy2edJPBCvlNLHOcxua3WjVTugsUPDIe9NHpXkV9Ar+T
EIzCVza6AmlIPr2qOg6dNbmyej5lEvCuczhYF4TvnSSlgLKUiRoVR/+I0cX0uUH8
n0zKXiSCfbewjY3p4uDez95FMXGLGzKPa13K186HcIrIIDdtkCBUJ2VrqyCgY9qt
BHELVP3tfZpDNU9qLR9+WmWQRsrDJbEqSr7zoDn2TV1L67J+WXigkqs2AY70FgQX
zTYfNz8tDnYBPD89JR1xX3B+JPqMB3XTnixo2oYfn3JXxDoOHbTQQAQ8g4vu+suT
9Ss5wms7KAxPqzZd/j5+AJEntuRjoXKh6V6qG3pbj38CfX3kpnrur3jEAFmRCvtv
dXsaeLjfKfEI+1nQ/JwLV7cS2u3hzy+/fZome6I5YKqzLPe7pX2nOOMhaaQ8d3LG
X2TMUcXwW4y0z/bp2Awy8JHcXNB8yZdNB+R+GMlwqXoBX/QzTGsXE57hyO2PRzz4
cVQbPnv0bQcRVtslXtgSciiKlNXw8UwDNES908StO4vNDdtA/Po3/p4Slb1ucNEB
I/Ww4trgtg2u9Wvyk8cQd/qqoUj0WL3l6GJ+nuKx5HI6tS+tg2iVdLng/DuVZhc4
dwHxZ/+LgRiL3/TQ13Eankz6kO8zMz+wtBms+dfNcGXDl7GPiYr3PUHzsSIXRdUC
lI3X7B1WIyPnbqAvDm+vyqVX55Uf5HjiO8KWjBTib0JWoDyMTedETGCgR2FPSnJM
VVYjQgqcFilXlNFfsrMACM4EOl+H+2PwFFVeJVG/ewzniETmzjPKo6lkJeAOSeDb
n0eOVLfLITAgZCd4Hdk4AhoGvKtVHFQxhZlq10fXwex/OIw5G5UNiVXHMaFN9q6o
GKFyKdV4r1ZPmZFVqeNhrRiJjK6ApjBBDfnYTv5XEFSELlIkQUQ/2B0K0rTkEnDK
sTnDQVW+nH+E+0wWQ9bNrLDknmCcoid1m1b8wwT2yT7qCxrS52L/wUeLJkcGOF7y
lyy7OHUqBryH3Jvi6RIowr8AMD3G1IVM9ZERii5QSKXFfj8aDnAaTKZczn7aN5P1
ZoSqrvn6ozNS5t5Ow3LSN8Y1Mj4zQdQgWMcu3r0sQ1cuvYdOjciberyl1GYAUtjj
5trsHMP2ocU0eFThJq1GdX/ehfXIorGYQp93Qzrs7hHeVYE7RrL3avJjQ1OBEaza
wOnD/GjZvTfWv6/RAkjv9hlS5ewWiTLHvJkvYM8r0CH4VkZfMn9jxcFRy3uLbhp0
ojtl9287TIvMH78pCtGMi+4pJI8CpIOv1V1V4iFknt8sYUVFQdpaYxjz7/sCqVTd
JMlIf3MggpYpk2dAz0xic7C4dLykCRwEbES0zNMsxM+C2bx4ZJMgUznS2kom4NRe
xPr7ZGvoa4dHtTBCO27T5XNtR8fzLz+/ExTrreXMW9fKkuEYQre64h5X535IaQds
EA55vYmOXNf+uluiAcr2KkQlEAxch9USr65KiP156A9+SsmzempnrtsY70KMLV4l
m/JDrGCu+0S4rpDTs1eh07wUVO2Io74B2EwAmX3RuYZT8YdZYljSgb/iwtjJJEXW
7vX/kwioIdFmSapHzOksO7d8N5ziRv3EudNvN6xwgUK0ZWRaJyNlgQ7HhJBkicN/
KzfPK8cmP/eKadx8RAB52KM/49rEegSN/t4GSi8cMYP6DPYYwXTnbAU/LDWaLUXB
ijCCtaRmO1hHosdogU53t+DgWV0WNK39E4ikq9y46H/lHn/R6l8NyMGweKbUvr3P
8eZyxkdFy2l0rtckEuTaBNk599IotTbuAL9o3WWy38t7tdfTtyaL7HmTFJfZfRLq
5itUhtD8ZF+N5TodG4DM4Tfq+qYz5C4ifONYMVhAV+PlJhf8VKGb/WyKEFqFpJzv
PkF+YKjjx1cPwLut0dZ+Wk/SRreJe48KSKzsDMAHGDUQ/goB77NhzQUzu1JGJGsE
k1cMGbEXFvgrmIIbICkBTPnVo5Dhw6uG2JHjpWIwMJXQCU3RdkE+JjGRSX7kNbIj
9Ny0Q+2pJUdZMkBYv/+pIF4nXGZjDmvzgLaUeFyUAHEZ7uxUUYn7K4QtOXFFD48m
Qxjiyws3lZARLAnr9p1zVbHx9bQEs+cwdsb3m1Sdko8g8ztstrOEX6ZdEsO+Bllr
cK7D8WPg3G/hyWZfYubSEn+ohdhQX/wxlz3RlxDUrMLc3k/ysnlHKE/ivbSeZ7BM
GxER+g5aUMrSH9L4NYO76iuZyxEbAXG8JCpBBEgmImYQQcFigmRZbTLpN3IYBJTi
pPGiAJY/59+XsVA17njag9vDwnKokQEHaxxueVcy66sH/JrbBJCgMKLOBHQfEiMB
cHa3bSqWB28YDCn5dryJBMf6zmqTEnQNwUA7FULRA84rTKv7zGX3gYK/eUXwWyfU
McpjUbR6YaU/SWEyOMfVivHEiJtfWFWH/CT/uhZxmLoO0G7S795woctJXEPgvPST
1Qlm++/bNB223D7FYIgOCRh6j6S+00bJvWMmGDm2F0psngLn+5QmX501v7w+YAZa
NPdtsWDBlTHX+CXSqoglirteuc1NJWvMu5GxsZc7QnR0pQf3ADOrBlwJYOqZYSGW
Ooxd2+rbiXACT4KL2Rjch5e/UXNzRmEy4KE8F090m80GNznkHJxJwbHlJRvyIcGl
q4HGZORT1XWdpScqtrNmXThq7Y8YSFhYSazHuGEy0j8dH50sxAmUR3vyqw72CIjD
XGXPjb8u+l6ufSxr3bBkcYJFsv8DlSO7eyAPoH8tR7QOCqeDbpxjFRBq1Y37L0XJ
RmvVaL7ssmU3mkIVjGPIkmKfA97L+A19LDIYhM1dlM2z9NixJ/cNfOTNro9qzK5s
hSsCnk2DyTj8zXrwO4vPev1bQCryw4yM7edtVjqC1Xwy8d//NV5pqg4JSbJ+P1ne
ffebLyyAToFRzSRFAWfS3Q/3FSyCfW2x5UuT08soETuH7FoIzW2LSoKaWvAad0XJ
nGfPsC+KYNz3i6by/VuthENWq9FcgBhq5r9MkV1W6Vh2q1Z/K/9IYZiexRZbp7cT
wCNcfBVtxvp5hEyK7vmx6RZ9R9Ttg7Qk+p89jp5m1k0L/XYqCUPgDrLxsbYUeUvl
9VzQdhxmwJa+VG4rXoBL5md8L7VPFYYXkRkNfqJ9vArrinyiacErlqk9FKEatvJG
3FsiohcdZ7MFYwXwyQRy6SxBwRJUyoRmY1abciKTxOpiNxK2mMcNER4AKxcElRwT
rQPqRoGuSXVIgdHgRc3r8b0EWIaCcKXVrqWaAoasVJl94St7TMY1LpDfhtM3Qqz9
NQndOxbpQqnLAuj7CGnK15w23znsVlY4Q98iAh+KvKnltOsgdu2m6V9z+kH/FKfX
d9ZbaBjsi8gMLRvgZu0TK5gb7qGWaemfh4Z2Eo0qQMBNYr9FjnjlNmwNGxw0778G
EftQCZYMSy+l6+0OkeF1Nf0keAi2UjikvH9gzN/mF0PGgrwyL5QFiE7YIA1aIUSu
4EJwBHvuR7yU/ExGkBnbD+ATxpXK9R6E4uGB2Aw5v4760a1cHXlVg0c2ilaBjga4
xRMLYFCSvLlNfZXEYhlu82dfFp6vDUL5SLcgMriuUNOdQs3lfFau/M9JHR0zUs5M
xoabfE/zNh9zPF3bXiayDHQL+Qn065nUBEsTKw590yYC0ikIx7V5NTVtTsizIgVL
FF/aO+tq/pKmOUg5CdjQPQeTGnvYQ7wJkLWXPkh8cPrab8biaWrpcfsilEBzBgzj
bEVbnmjgbZhkkvQvwWD7GkwU+6Z1dDfPhFRRB/pnpDVa4Bxd4UtJBQHzlGttlhAq
OSqD3nhYA2fzqo8riJGCtLLgjkF7kI9EP7aZvPaq4O0KymFylXEM1cJa2kMFplXK
Q5rYpT12Zd+8YLM6uk/DnUfVoljGlfIlyVuR/OCZbCS58vWeaLOCLF1g8tyngnM3
tvaH0GMEUolKxvRtxckcUaA6cdzBlDvacNsCWA8wOB+yLo4+X/gyQ6AMAKVqIQyW
GDzpaLVqcrSz48is1JkXmBbDumpep8hzqWV+Ofd0F1svG7544k4UQ+JH6+JSF+hJ
julPzpZxjB5UC4kyj6NIILRdOBx7QmltkK2qsi1ROKVh3WEf9e6gmdl0a22xUTrT
dph1/V4c0FfkISVofBPviSC8hlDXCgYeRP34xfYKfecnv6cHK66tlo4TMl8/2Jtv
xZ5R6BMnjHNh18GLoYnHUEY5gMoxKqTeUR5OPTcENJHOSolVfs99MleNZUBmeqn1
906nz5LhGgl/zxwzcagmQjgmKjlG4vHrQ13qEANlUdiaDJFFC774JddduIbsXJ5W
ArFtojud+jA99VLS3TE16AtVNsSt5MEQ/0jI/Ie7nY/a9yr2qAN+WN/U/nTZonQC
7cUE5hSFVSGYXgAlGKJ+6UHqW1vG5L0TFEaT2uLIA0jHWaNT2jTTQOxtGnIHjIfV
FQh9g+dGjFXG/F/eGoHdvQK0u0xDqFC+XXE5QL8AmP0DtzxhSiPqLAXu7pE+jhvn
Y0LDbNuX6tTv4//arR/1yPpT4mZKecp2/l8b9mlHajSE5U8CsMa61j0FNp28PmDL
D2TU445Ed98IkK9OHe8+m5XbUhLj/BQLtMootYujR8G1aX8tn2mD+WI9gpp/YdQR
DtGkyr3FNc20eSCRtYlqVFoM6Pk6tqFTkYA6a6CH2AYaKnqBm8X8fTY7N1nZujao
JzCRG+WAsgnYJblXExjD5XDyqM/4jkHe2K8yHYJCxqUvkFmaCwREX93hlGA/lzJB
eEyKGTYdRFCkgI532rea7XSTpJ+CBuN2SGKnHifE7vvWs5SIiUj4Y9/i3xRmqHop
iiphQ5DQDTt8iGEAv4/XaEenTbNRXKTO4csuBVGrIVWw94pypuc8+EoQbYL0/kke
8+341woAdAh7C0q4bMAHGY4tRccmX+9NKEVUcNwqy/d9CuRwN16lT+jb86s02JF+
4mb3SjrFWLzQgY0zzTObpDhZK/9hte5UUNY2rMJ9IV58Usr0EvajMGXT7OpSEUer
8mGLX4Lj/BMmDEijojH6AdCiiCMu4BxwaB5yTuo0Ncwq2yvPYUrl6h6+79rA/BMl
Q8HBCHyxeAGyZeWfcQ7P9OwSyrbEicuUlW4jVgWpUtovw1kzzv4CMiDEDfjddqE9
iJ9cuWHY9QMmWMHbdrzG2MqmJXarBAjwyF5ycw+kbfXLx93yUu/Nrgnah5QusRdV
LNrzTd1yt+sut1Fc/N5ZPiMAx9qntulA/n97hJDo7BlqJyuujN02u6lN2hdU26Mb
jJCVdLIWWJJzll/IQZIQsoIpONIXu8E8G4ZS/FSi9lP7RB/QFfUbU8RmX5QVR1ty
QOV3BclIymgAnSnHLPkeD8YZVp6/yU0M7S4RynRCaqI6RoE4Yg+PH18jO4zDfuZr
RCys1LyMC2xj5R80WeYN/1bZgDQub4K6Gw+pQ0rnA/tKVq10CA2GsYG2GG0zG0DA
Wbr+avnPI8bFBI+QV0NcRi8ZcTmdJtRY5uyHiNiCT0tS9ZykjkyziHurB8n+9aeu
rTdrAdxuk7Z4IhNmFroxC4PLqq/KH8hIT+x1hfT5UtfsUu3vLazzXLJPAKF+Fmov
loHw2jePBeU9Tdx1IlV8r9dxoWoQOEPd5oKmTewi14i8oOVryGwJOPUkiC64WLIE
yPEvrO3ujVolXRPCdR4nTiAEQApoOG6b52yYLL5bp/6Lrjgu5FarIIGBvAexGWSt
CCR9s2+HvZMNwMjJrEaFOE9BAWTaggwMpX5TSbpzlIhXdZsC4I4sI8RkdWT7uNZS
KSGzvAHkuhuWJmr4ewVQfuCTDWTSxjPhWSCJ0YqzAOG65XT7W+4i0UDbBljU6SHu
0JHz9DAeWKn3+R8KH+sFJJnRhI3NfMKoLcV37Oor6wui47FoTqlDAw6sujd6QhiG
EI1Fp5iSp8TiSiJDGFBXZ4ABTxcJHJddc8NFxuN3X6UUttuOs4H0geUhVOxUPmke
Fywn2BDGehHJYDk0eAiCPRP3BFe4GmeJiVYp/viWhH/n9M+BG0OzNGk40OKP/c/4
uLDN8/VkE0lCQc0tMdp2PMgQgC4hEmZigUMOkQufcZTEe5dPMx4H0uH7eXbK1ivv
CfseyNpfqDsl6dcz4ByCm2wS7tm7pRgkYaDakpy+qutQSElGWk7wjqHlRs07Li4m
eh/5nT1m0tCvtzblAhoX3OV1E/N4KY1WLYm+Ycy8nvkaPDaTbtHOREdQwKyvv3xk
f+UGx0ZeBa9OkA70n+hko9pJin7pllmVavcyFkYxMIPDqXelP9FuHwJ8mRqAn/RO
h9VrXzBEBXiOloPpuH6h1eEk5E+iujOE4gs0F7yEJVZoHxcN2s69xcjsN5eXwPKF
wUJRdd6NlQbxd3zl1/tadhsj7q5dCVpAlhPSozJlG4kTaD0uDgf2qK5TCp5iVgdQ
xPTmwMN9mxdqCDa3OiqL/9DLGo9DSoF0ncyLq0rFwoE63hWAwdmv1kiDvj5BxlUr
fMHcMffKQQRDtirYTcsa0+15lTRInqcn36P29ckvP4koVVQ4/vdXaeFozBawrMJR
FJPZ7nAkMJ3n/2g3NyJ+wfvtp0RaPK8jn41oX4XSrD67HCjFNN7Pg55+9hhVHbrg
wM7o+XizITblB24sDepBMMyIBl3Vo4mKOF4y42KprBFOJUh4EJyZ02wBJhBIkRkb
hEoCsxPu7+YEbWBKQR1dV961Sxql2JR3DfoTxWKV5R9W0kOJPdNcaQHimL83S2Et
+sQH7F/nw2/HDa5HYxu3ymSQhTcnIpEWUeN/J1B0K4t852huWQs77Ud8VN7FNDhe
9QXUO+TUYIyO/8wHZca5Gd93qnjEYWXKaaTXs5klTuYjFFh/3A3vKrYY6IPjia1+
JALM8/xOdRU6OcteAWuCDY0HHuv7+LdVOSM83pIZkXf9EIBRKgwWd/MUkfi02JKk
sv3093oyjwrfk0CHZErWj3aYG7Mokwk475KGfQg/6qrKNugSzHJTLC2QDHOMH3Ud
rFzGGJJG8YgZWCZc8ZOlMwUXXmI9tPcZkASFlPj+Ip/1rZxwqP1AJ3/44gSLzaQw
dg4K2va2UtWcaWxxDYnp/ry9zniF0w+TJE8Vsm0bBIPgCUlvlc5iEkiApUhouqVC
APOTpifJ2/2hu4jEoGjgNeo2RZtSzI0464OxpgE06fRrntw6qNCVP9wzagoxd3ld
5wvBiekqTJZg8G4t/wj1pRgbEqjs7jV2zbWtbs0r1xsG6UzR3bJy/KyeULvGhj3w
PDWSnaWURW1/CyMAKd72yv4vxf+okRXg5uuH5JrX8aOD+luRKNA12s4IiVsm3au9
JsL3jnPCT9IzW+6WwOz4yGUXf3iyiuKfDVAVr0d+c7jBV9+jxk6yUDhwbLu+fBCj
S5ikd1gnVKZWnC3HuqalWzdc1pgg5DnMiCSRKQFaeRKy1duYCVnWqa3qLrcsk0og
x1Ac6uVSwO7WoYeFjN8pQ5fWFps7Y4rH8mWDgK9V/52DgQlSdQqLbX8LYKUZpBim
scl/UWULKRSahYwHQij7QbzFylZXQ3fyNsDnBhCkUME0lPAv7hkbg2+axaCuYHXg
gj/jqdtEx/NE3zcDc5tPinGcodVeO7W8csSYVXzCWDsGU479e1k0U+t95XI983V2
tsJCiiK5r8EZ9cKSMq5WTPr7/0tITXKwv0dna+AAyV4d+Z89bJ7Veg+RRGRGzJgq
MK2YkAKYMju7351NIXmVa8tktoT+KJfHSfazlD1+yUHiAiAKuvstpq1uoE2G98vM
DEFddeuhQjEJTQAMa7hTqiUzY/vmvNlRknaVA1KA9gHF2ffkcAR2HW3Tcy2YfhlU
pKh7wEsWOnXPnpzHuKEELxSaEb068K0+/5jMC1OrygWBe0HjqeHMJqXBleY4tauM
mkydHr0kAjoiy6ByzfEKnuLtC9XfC+YJRFnkrhCkY3ONjYL7AM0SLLz4VBhfI4K4
k9IEvLLShqFD7mFUWCDXSgsprJsettWgI++xaozIEtIH2EqeommQlzgApvHvuS83
w6+YgWzXw9n+U52aEthCwLWgUd35gl7ez+dycIE1AJRKAzmjQ2M1l+tFoohFU64G
wTgH5F04k8VKYw3byZfFyX6SHyMOn7YtB083ISqW+/esWzPOzNJ21PZ3J7XGVVrH
scLtfhrPr3QukschTKcn49LMiE9IUfNUR74aqpX1wGpSsl+WRY8MLTyXxlw8KR0B
6ZUJahEPBkDBtO8fX/po2b495V3zsJ9irlf98eBeT8t3mqsw4ap08UnTajrdfowP
4GxlLKvSOrCMzeU5N7PKiElZk1e93WjfOH1mSUxHgse+pKr0bn47E1Eshn6YqJ6o
YDpNJnzCcEsgqCc4XEiGhBWzqcMd2lgYiqOTgl2PYH4YmLRqSKHI5QbZREaCqgRD
usLG0ByKbsdOVNKlrRRBlPdxAnuKlPRkqxdDqmhJkqzy2F6MRvxSE0taInu/GsQm
xexCfR6gSDDCr1F1zJtnQRGYFSRAadThMlEzFoXjpHootJZ6XvZXVHALeW7sCXJC
YrfklCJYAqsettJN2n9baZTVub1ptYpmSRfB0Ouuv1njEdvAoG82yjz6Wh8gB8rZ
J3m04Y6bWnS/dfIhlaUbUxcOKSS1IqpMe+rHXq01CKtrF3hL7zZ0Ys9b51ue5NV5
VdY7nAFgLpSY1Gnp8170bNwaTuDFCObpqAcM0Np/dOeYr9471Ut9ydJ8QNudpntj
KbFGsSt9St8Zy4gBpRxdK6wxopcqcyoaY43hM+SbD/KCO/xPtVdSGyj5O2Ej9Zu9
uh8domRUhQtbvqDVic7h3oHYebAthmAp8PunwaCaXxOTQFCs6eOglWzMdFBuBXFz
Gt0s6N4FpcVuzS9R/xDxtSrRnvSRbfqZTaeSVpIzIgeugsVYichXVFivaCpCORCi
/fWzBrWiN27rxvfEH1FRx4JieCurved8cGj1mFcaO4S/JHdkNtcttZFoCFd3di3D
vHH2qVfa3M0tyc1jDfBjv5oWIZVyXnB1mXwJh5KcnCPKUKDYB38/EFxNHHZHQTxM
F1uak6kDlpSYuMPqrgHIR/MWLghdU/LThbNLcIAdGeaXypFJxjF6uOClkdDJvnsv
YTQsBVruJwaWmVaEWK90v8oukQEb6kuTZuowapiTByBOZ26n0gFtskuMPwK+ZFc3
9/3esS9Po2Q0dgUhDERyHLbubD/N3bKbk51xhr8ZC0H1J/YqTv/ehR3NVhO4d4pR
fjKv1R9LaPTvPDDytoEarWYqVaFz1XF8yYkqJWO3zHNuQkY7BDyyBljNd422UWAy
b1OshGwhRxhJn6t4EMJbbXuKDGa5blb0RCYzj5Jg7hnwFZiYZAiSOq58mNdbPS4S
Ye2tsWusye9q+aS1bfZeismiS6Zb+pdpT0pGyR6RAKZBHBs2VR61c6AWUA3ca8lB
9TBlVJX1wltoibVqdXRQ1wlgdb/IewsX3nSWMKBc2lviPVeUBWWKBq0E7/Ur4RWw
bwhTHVTrNXxgjjHVCEUhgAS/3ZwNk3QU6U6VMsVPbHJTXUvQ/n0/CLgATe6aOrwB
bh0/exxrh+oNBSIg2DLhhBMVGVBU7IV03MffARzye/nA7WPE1swp9eFO/idO12Z/
26MfIm0Dz6i4qd5w8j8d+mQl8GS+nka8XZ52nJrEUQgDPT21Hq42W7yIbcSCTFu1
hUSFjKWLkrkv0TidkDC1iFq5z6BI8JK9cFkm7yaVfr/Xdz0NBsqK3WRdmpa3XRp/
EAvTtxs7Ki3vygugz4NGnphcnS1RhmYDFpzEHpXXBp1TIHQXzg8QddV5As5lC/CU
moinIxmqrBAsMXoTXHZcXzuXetN4X+dcTwq9C492tIFCgODeJ08QcXfLglRwUn31
XR9yFNsj/rPjS9lLTZ2oPKMAuqIjFUXjj6xs4yGghaK5R+77WZhHaJ4AnLB/11nJ
GQ6RQVAp3Er8sEkeet0VOe+u9wGFMNVcjL+u+mP18TzyW7pjDhqm/d8224ronQo4
YCbGfr2NXWkPLi9GkyG1Z6FmoknaB4W5f2ebsd+jHbfE11GT2AQbWoUvD9XOzuUG
E6sBmQKwztM6TvsWSSeoWTuckK7zvp41oEaqJNLvRSIXi+mpPDWUQuVzvfdGaQNW
aZGOl3PHcEIStfO3vFUyHFQJ1wfB2OVXfYBy68YknPB7VFqEfGh1TYMJIlqUXK3T
EG3+OOTPp0xob1IQXLpZPLzJ8hb5V/veOspEl7UFLZWxdrJGHM2NLuTJNCeFBdNB
hrNDmJ4Rgxro9a8E2qRSLa5nEqYpPlamHdaRCaxDnwEF0wcQc7JAPSENl+DMW/o+
38IeGsKCY84cQRzIV5O/pMtYrqcQvNEfiMq+vS79M6L2lkmGfIbjnDAElmiCs9mS
YG1oQxACR8JJGR60pGOt8pWjPkeWZSfAorlvf1tHpPoa7+OK9NXL2f3VpNQf+Zcd
uOYym/STtQXgSGsN7Y979rFLJJnuXFwJwVTs0qV178cepmZcE2MzdfER8TPIOg3I
gKJogTO6Sd5+/cf22SMFKBTgegVKLpERhq9PAB1YFcXa23ywflGUQL5n8z743etz
ESvG33iXbjQ/nScfcyKW32Yto6/ZfnBi5WBO+eOXVsHOIq5KottUWG7kTvDA6ewx
BQMNaDeWP8tG+q7YM6xAdnzte9JZD/Ls4Xmc2ChL8imkDJppBUDc6rTCMLuRXZ42
DMHf3gNHUas3Fu+fljHHJIxLhsWvNISeSvSZxPNAXfu8cOGvIo3589YMQX/mbD0i
I21My6NTAnbhQMdkavhdEIHnlYiYC5WBW9ipeeLKgVUat3MGsmyRZ/gUlbXjgLjX
kSp7+lrVxGMT3zASdLYs05YazpB8Ld1QdnQswUsXef2fYIJQQLUDxPetTiq5oCf4
rKWeZSkNJPL0L/jpVw2Qm2mSD88djEumCmPcqiOjXEtpBEvR4JXNoIl471/PLndG
HFjp0rCb9R0qaj18KRKoYNQwNT05Ej5R+em9YGpbKdjrqv3NYfHUkS59N9/5a0mh
VR4T5gWEzR9mayE1JLqW+RAITF50DznDcLbUnYAFlIkv/ivg1zsXGNUqAwvD6/QE
WChtnXufHKo19i7MHJFXMv3B8JMKYmUSXXYVdfjGUSonH/BKwMk+Qhc4RysdHnJo
R9II7OWuk6NGwnU0LV7OkgNIchP4ewwSO4V46j+0Gxe1W28YDXyH1l9KHSl2Bo7J
E1UDEZ0cVMR8hoRhF6vQc/tjavmmSKo2MaSCq6vMQhkIni6DZgPHf+X0IG2ti/EC
bp7vPou2Nkf1H0Rf7uX/2CxWBahytF5Sow65GlOdcs8dCdQqFBrqKZ/FG4wiKhz9
9DCn3ew9oAGjCckncwrysCFJNPlxfBasaWfuHw5APFQWMHxRTf/BDdQMm+bj7yCT
c7xG/EJOhLrwIrKbcBc8YlNmNNMfCKgbWm6qEvlTdn1ABa71izklumA3umW/GvDU
hjRm3ZAyBkk/S1InRbYBR0ufHtxXXQQsiu9vqFVrrxAqxffKKPIWMz90w1eXKcLt
SWSYCRL6g47NVk58acjpFjMJV6W6oeHW1jhoEs7DZqm8OztZ9KvPSGuZsML92Lfm
wINsxf9tiT1anv7eMMa6N+o6N6ckfYTs3xjBxiXwbH9IR5fAsbveH8FIM0/Po13X
JKy+aneqkn2zPw8FWYgo/DGmAkAhq25JxOIUvdKEeZ0FLcGlzRY1OYh4drl78eE5
Gk3rBXGq+PGOgSvIujKB8QICptogtDmpjU03PB+59BRxZB68R8uLabHy4jeOY5jZ
u4f66Mu+Nn3qGR3vEBgQt5mJ8X4ESbAmNuFy8m1RPOb1kBlMpK6Rx8dQRmd0uPXd
a5rkKvZRpguxjnMROZGjMyLVnvsNSx/iSs81S0ZGmXPHcG3WoDSAjR7eDkfMt4RA
s+j0rxRKB6k59KzXPF2ZvVLAjYt/6LyqdnXaPR+ucW1PBNifZNzDuUU+jvcc7I2R
NOtBt1wcqUEItwdFA2eSRjJ9mEV0KIDLZa+riaFNrJD+Mmu1BGQwSBs1ZfvmP9j+
H/q+3Ko1HdBvXyKOGN3nncd/2qbgULJeYR3oqRuGkfsoKHENelv4yGe6iAHivnpO
qfrEH+4x9lktiP1aaSTFuwmA+9fphcml552EYuI03E/tXaDiosYbqYNfkWUSk682
GFYH5CTarOfZakF/Ay2E9kmAXKJpJ8IKpypKoaqOmmfLq0DhXALpIY3AWmjKp3Sy
7SuG+c04Je6A587Z4qR1kawYixgAh8UWGXVv20C/WrAymv8F7ExdcNz7EjdXe/8W
LXSU0bV8kLKQC6DQtaN7E0EMaViMPaHH2+Kv+ew/ReVHUJ2jVgtc6j9pW0jqaVI9
aMtYJtVNi6Y7XhJbjdT8arsUaN3MQwid/5vFFJpHt7SSBv3KjdtAYMaeX1sDLfQo
vQ7R2VRLpxVZysXIfOTo+dT25PeVZRWMosDxkLXM5LMakJpJ3O46Awwj8qTMNXyY
Do02eG8qQDEayYpJMlVOfxqD1NmzNLmm8xGRoNHPrrtFLUxmeG0xGFfrPCNjq76p
VlAD/FyKIX6hpQ5Cit4GcQStWIh+Fh/Tobfm6RNwFhExyxBmnXpct7k/BKXv991Z
k8Ui3X1KV+wP/GZ0FyGAYl8Y9DM2a+4JykWY0wZ5cls+A4j4ozyyzARGqHjwyxR/
9FlwYkTwljiEwqTMA1DejU8EVpe7jDSXMhJfA18lWgWPhzigRocBeu83N/BZCdLN
K2EYhRfwG+ZUUIEfppf9pdaXKiGE77yh9qiEFbh8hjAWKuWIkw1Tqnce2iRBq4G+
iIMD3yFvf5J7WEWbr1XUj3aMscXxU+fTV33pzFo3cMFemZ/Co9fngxuApopZUYr8
kuhfm8DY7hV1QJnfnRhk3k1QIhcCg4H0ocOPILU6UYhcTnbbLFiYpQKpGJkEdg4E
YdWVE9yxj+/ea6CVL0OJydZCck8+7ucSpT71OiehL6nqg2ieypqm1fLS+PtO797q
akgNeSeT6tAl3Rgm2k9LENsS8yZFU22AQUv6PjvLZiL/Rl/rMMOlGb3iV4r/BDnY
iV//luE/2Oda+3q2eJKfMzlv6AME8vphUBWWTmTMuwUNtK65Of5rnAuc7rYMoX0k
LVImKlk/5w9lvCuyAJoA/HExd9i/lWSxw55xImZc/pdzbsm78DIuzpIGU0XLeHtY
GnOOD+tcU4zHznT4iBox8g9Nz1Oc7rhxM9aloYd0/iS3ZYVMnYVRTXohz/MftCJM
zClGtoP7OLfgAkovXjG57CGK+VxHnG7G4QRg4HcB/1e7n9vAYPV+KNbCZEj7yBR0
5oZngwuqrd72kRrwnXEXonFCcpItHY7LHTMa2vPpQwn8uKn+1nhV3C3mbrYuz3qO
tO5Yuf1nU/xHu9Dur/w6tMO0IYhlWSLyA/62XxjYlAXVU7CcTnuOaczryVqcidWR
P5BjZ55Qw/vPm635RY2z+yfFmsFYo2GH5M64vJQ59WQO/qima8fihP6bP5ij6D7p
jPNvk3a1p8PBPd9wmi+w3MTx192O8xM2jraBzu+I6t9bzWtN/Pi82+5bcGdO6gJz
ft2Id02lYOwjJIVVjTCVci/JAKLl7HaE85eNC67GRUO9rVdWZlxG86g78BSyI3mP
A7RipY9NFvP/7UPRGwK20ReZSGiYtyg21MycH100BVIUckQcxJEHHGGdgtb1jITc
p0FVQX1ghOa821+RJt0nKdSYJsgwusyuu4ttq7o+YEWLbdhGpaMBKn62xz12kaZr
5tmXhzMBpF8QUEkAtSD1b6lGhYYvgFWwPLZ07IZ4hEo+pf5KOVgK/Dg3Sqbi5isW
ATzDhzZsltLvGi5WEKg5RuDO1Sj3Md0o0hDLDQ12FcWH3+2YPIXvc2M8quzfdU7I
vODkOihxMAAoVIPIMSBFLY9R5thWS1Rr4uZBQOFprJ742gltDMvs9JFULuLMmoj4
seOl8j0On0vkkqcyb82T260HwtjlEqxES9AJ3IFB6eOsZ/yIqQCyhWzPG3TbqE0o
FNOlBwIDHQBx2KE7cne9Pyn71k3dC2yU8zd+RMvcgzzUY+W+zDpDd9z5lWOaBJFl
vqDoNMAB30GCr7gzxp7m5YbvC9rJrtKTjqDB15dkYfLi3NVDHCf50C+bQbiN1pwE
WWlOmxsrfn4OYrPOpO91Pd8Es0Sqe+5GwW/Xy9MV1cGESTrGEIPs8hR6PLTI0Vg8
YFX1LmdFQH3w5NM6QXhmmEuLOD0FoBo8R8OdN/wjxHxZJHEa4aF9117jTQ3GLifk
EjESBozUghNdqcpH84lOiSvvSHVKmzI0YDUhGh6k5hGPcbPUna4sAM6zroSoCJVE
C33QEq2Jlh1WBymkuR6QPzHP3keDy+0VzGMlMRKXrTonVJTGQFyQE/MPvNkNMqIZ
9I/fK6Rjgn2NAHg3cWOSR5Sh9B7IaeoCziuUHQCy5tetoVXVNhRvF03ytA5iRu1X
VgAkVnXyuWwl4jjOHeeJf8FU+Wz+JVd00WOZHhTDCvHJTh7bHF3l+aLXtjm6Csxg
wklZEBX8i9Haa56B5AqtCpxyO3JYWaCTTu/CUU76QdXhJBqCpigQu8f1WMSfnS59
OL4WkMDXVJa79DX1pxMFhmdcJSns6BxcKJMzq/reqyoyyCSkPEMrhnLNpcskc4MS
76zmxa3s/RJCtfteXx0cxbr8yZttnPTkNgzzMjGkET4a7cFs+Z6o1S9bb4ItgW2b
Etub78uiTTKk0v9kX+gio4/UXfxVX0bYwfM3s0HQtag3iAPTvRdMYqndrBcEMGnh
O4uJg5SkdoojZSQmlpDcoxE6GGmlBau6bbblXkRoEUubsxXkdA6IP3xeBFaeITIA
AtuRUKMk/FrGTiM/R2ockisneXskMW2hbsjDpyv2cH9P2r1CE0ybm2xFFGPL7nm1
SLmQPPoYC7QNjx7VUvI3+aIgQwBb80+VGpTMYZjqdq3S8OB5uCOZlyIK1qhioZrt
LxmKsp4FSgnl4qJTK0uuVLhGJDMvfYRgooTAL3iBD+SEipSaNnZitignCh4FbG3M
3vYBcd+FcaLH6vq1qR6OT71Ybn76tzpTNMrUqFOeSTTzIFzkybLUDHr+ViigFQzN
5jzEZ1xVdr4ws7D+A88I6uvXLEVtG1g1NmxmUZtXVcz1qIsX/qmleN1ZHLgQq5M9
bQHV9QzxdEc+uhw/vmAdTkUZYxlYWxIphl3wnwWxipbFjpsdiQiLsPuCBnGf90oZ
RRMEfjOn+jnSrsRB8wHGGs0xb5qb/r2k+ysLatdBeQs4h/7smfKR/FRp4e6AcY4h
Alfc6Fy7gl2K82M01+m6yAGPK/DZtQySgGYrdwcf5izzS6rCQh9t30IK651NvbdZ
Qmp5OsrtdyHhxMBcLkHAf2IITa33LXlXo1I4Qd5DwjqtGgx3DV2sU8f3Ea8NIlNx
UScVJXJVWlV7Asp1tguGvPNjsZ64s+Eg39gBc97kTBo+4c2DzRc2KwHi+K3txkL3
OAwEdRpt2zuBthB6hMelUxCYC+DxrfNYLU4mqdu6/6A2KO5KEjgqr+lv5w4jiJMX
GJEtDQmR89JDGWn0c9iy1z2uX3QiWMkPY7nvBn1LdjM8fr4vGdwHTQ392baqUuiJ
/WuI0cRngvsVJTgqS2Wa/LqutxVBTNzfM4HhKn6jozgTe+G0EWcFRZzco/an+UaU
0p6zvI+IsisMz2sAJbaZJ19W/aj8W5wH/rWT5WZaPE/JDZHsSJvPBrCbWXelCLIZ
Y2VjI1/40pSP/51UnD3uldSWlUwvZLqqgAk1Dlk0O80hV7R964GVCECZPq9l0K+K
Bppl2vdCd4bIBUIYatZ8IjRU9dz2JcflMG13wqUDsC8/DjjR/wIqCMoH4O4r0hhW
/JFb/83XbPCJyGD76CJWquy2045WF8sG+/VrbQmzV3xIZiGqTIfkmdYOnFyulXgE
BdU/lEEYIh8AimzoTpyNhbA2czxVmsrWfsGpv35x1EefYwmZuIGvTBA2CDdpi7ci
vqYGGz5yt3USry9K1x7tSuWfd+Z335k9aX4WzSu4ccThY/7wlAOekJwWhXbftBV4
I1cScIJlUmA/UBN3W4+1/JLKraT+P7nec1bTA4/8rt39XTETXh37j9wVY5LqIuKR
fmKtd0gEVUjxUmHNDuVQLqqbe/lX4xfWcjOq7rPiQdUW1DzsXgyPt4WAL4TlpCgM
He5yITEcVRHEwQmEsp/u2ajVzx9IUGETvL/5m/W9vyL9hTxLa0/UjNGYrm3foqCA
4/7KtwXJGhzhHOgaIFl98lgY+ZVQLx+tpLFOwdD3Qb1Zbigz9uL45F8/0l8vHUaq
GcXO2embxn4blxT+8ZCkPybiQzk4Zqe+Dyynorg+7qBWrrTENrOlMJ0rlmalLQGV
ZVHsiV26Ce6RPUK2O2X0HBFY85PlW8XI2FhWvLXRFj5K/u4L9iDbmh7R7c+wHeR9
+NRqtfRZFvosadWij1RT30Wo2v1po2xY/C209hANDeKt+zqxPzZ+nfgvkagejiS6
dIrKIg359hzB3prs5lWma2/Nk1yi24HugCxPfept3PqUjdXKu3JbbvvsLRsI/fqE
x+825jt2Ln/z8QhCwQEiX2Zuubt4k6WUUh4lgn++D6LhWHayTL4TqsHDJ0HrzHFu
ZtYfybr8JtGUkIueVZL4myruPNinnsaRd45YKHZVbfXXsQJg8KOe6uqaKXo0OP3v
uEK5DFQjvawFZJxFW2/7b7FBcwumERzIRVftcVnGgI5PkBX686ewxRVnME1n63s0
nyhk1MqW9AD6s77gh0WI1DrUV7iiTN120+ST3C//HOeb26W5p3K3JaseeDL1UL25
oBCLf7foLs3ZAUhysd0ef98aKyKbMoga0d2VZ73Mn8g21Djm6sNW0h9BxifGXNAS
pdjMEXmkCkkMPbuKeW92tysjrCf8j5Ek8gp0yb7sFGDMQFwNs2XHMW8HdF5baLfp
mvSavXWIb0+XUvUxGAWhH/XrjqLWWEsA05uMy24duQI/igXDvQFYWuBQnu51xHHX
z9/mUyDXyJF0ej/2NMHWjiVlzr82Z+JQnYIzRAkgrBgQsIaWWAiZc4iIM6+/2n6Y
LPnXwwfUNlnuG+P/gztFiKsWtHv0sJILprZhUq0jl9TOGz+riPRDPLy7LmyxpC6i
yZKNURLMu8Trdm51v9vH0GV1e+wNIc9A5UySG4juxvz277L0jtnJxhl/AAQxNChA
CPHiOHPYISYY5Yf2gXXu7tRmfW94HS2GZI6qBD6Ifuev75AK20EhgPBay9wE9/Hi
rC0ZXSZ+dhwvo/njGwPs9jjSpTL9Y9WQrupdNaZ8puK89s0pEEDC7zgyYw19T6Aj
i41X7+Exs6s2ElVhJ1IRN96twKCEPLGs22ccYtiDs1G+gCS25I+saO307RSwVwmz
WadaWMMqtegSyimcnfNtJnRsz8KQXA+gjZYnMZBjZPQruPCh55UDFAwgUsg9MeE7
tfftqhNzTi8JL+UL/E4IshR+DYuXLXT8DxCiIJoQE8zRVtejXnj2ZIgfoQc1Ga/4
aFeDgm+xyUifejbwpya9cPsQ/7MogUQKQqfmmWhh0OaEAQEj3F6EiAoxu4HBS8QZ
JV+bz+1xA6rMFVzZ7ZMvqxy+ajJ5gJmSLgXWQlSYo7lGLBn7tRgSdhzHpYfAFrXl
5L0pRryX5feHcg/yqHPkjUri9GeWHHdNmPafrpQ4urokUNh7lsHXmNBhfvEo4LZZ
JtemHJWKiOgx2Qd3GGuIUh3Q9Uq6ycbSQ0JiNjKKGg+ZYG10xvDDeEGjQPLD+0KK
qLjDjKXI93szsT6RLZ/Ytjfl5S8n30Ti8+O8ae0u0RYtyrnSrCSGS8a8h7cxHHzt
ZEuyffdRJqN5UO8bgJluKouCLfPUIRpNkIn2eoXNmrs5o0rlkkOTUetP2YucJjQv
vVoDAGwYdO1zaL8omS9/rSVC4oIpoakbNIlHcF1HNISKZdfOq9Y05qF6UmUQENiI
smrpEitPSDlWFZPaAf8TkeY/+bIsVD4oa59r+yxBLxRqS3LgwpJgzt6xl5FdC0Xw
QmdpJ7IFIeH/3otQtV71mMTnyHi9jMkwCsPPE4KEYoZLVDgtpilV2du4/Xdh4O+k
tkp+KCfMpCUbR3+OG5trGF6lKztmPp6qQUwDLn+eLi+iRuAuKJ5p92TdKgrc4tXe
CIgRxax9SpFdh+AK2eTHbp2FSQuAPexs7SgSVjISEAnG9KS3Vil8QM2QynfTqBH4
5HZoI9ei1dGvE57ygNkqERar46MK4u7DZtTOa9vu4BMi60NLjYa/TB58iiG0TQn4
LhWbCfdQjEPm5G291nEi1gpYZsJDUFc1IcjHgVwIU4xcwPBWXHizJ0W+ZqhbZiDc
2G/jQ4fpdQRpOkd6RX183Nw4P03pz0VMidJZ08qT14HV8TpuIGARoUBMps1vbWvH
IywmQtFGRj7Ali463YZuJOQuMzIxi7BJrqoL5DSzAvwO/mtSjLL4gaepTiH2oIrs
cgomBZwLGPEzISO9niJty+nQitktAMsXyKhJGsZdw+ygb/tIYyJK+WYIr0grRbYr
nGL0RX1ewuRYAmf34LI12Qkp7dgN1A2wUvcSvIn+R6/tGI1SWDcUvckJ8iP09g6s
9qa2RkMLtIWQ+VUMrWbZ50WC/huyQhkxb9eNOmppzM7z5vSFl7J+wWFSjCEW74VU
YDu9NiKx8HY5o+GiygG0YUiGUBtgyZzjXkobOZv8RncNGlovUudQ/tYGLO2BSm8t
BTnf/XJvFHAxIuO+uXC8lmtGJD8bwy9K1g41DbBqyjFJ3f2AC9aydNoBkf5j9WLu
WsnzsBVefvuFtlQs07NvbhjNUuef4jvAO9k8o49PV1iCoaXL+eTqiqJ4yWCdL5XF
k6lckL6KurWujRdApyK4yPXXKWNjRN40GMKFg6+sP5fx/CY0bs/ZCJebGncFxtX3
6kAW8Xzb1xzQ6QALoAICMssUIJiUoRNW7Oq5qlYda3HpZxPzgqbKYAt5kKhWs0au
neyBLWIc1FdjE7R7AU/Fo2ODoL6hf8/b4I1khh9ZUTLRWdMvbkIq1Ge39VSUTPok
eVfmK8HN/4FD2dq2clK6dCie+vCmy4iPaDpnSfSlzTJ+eRIYBg6KrI6AMwUz/NDj
DIp4BYTovD+QiWhSFd6i9gfr7brbkbtGpQxA7Zm1xjQrBejdZGQNmCkYUafWwot1
msg69MIie75v1gS3gpnPfsZxS+yj/1avtHicM3YN8rRUkss4qZYNRBcWG1CFrRkL
hcFjL8SbaFp99M3TGAjYozVKfvAGCiJCs4iYaY0GtrRHMSwnO8HKno9f47C31FRm
CRyGFqCDrWRD4tDHo+H6e54+cWbjW5TDIpDc/7LYKRU/GM/SFO/5Wp2xD5g5AplI
keuREFtiFGGxjk9C1pIlH+rx7cqjg3/CJFCV0wQiNH5VFtH0KoxHC3PZB5Q38ig8
OsE1FlZkH+c/KfKWr0GhoX0TRP6HVpcaLT8tNITHJMyNO8GCwDwp5kCTew+BhHWD
RDERF+C91Jep+Tiw3EXboy3uWI0rFYCXfikTrtr+7IXatL7rw/ZDk3HGnmg/ZS02
ba5SU6q5zYfOhGe80lSHDs4SG0yy3+xfI5yFYgnHuM4fVc4NvjFj3vFeFmTUUWrQ
A1seZZcDq54zG8O5efhmowkfYgctMSmzlwuMDhPLdSzefzk7lL5iGT305iVIqoUR
exrvc+Uwi/qDM9EFL9xzO5yuO+vEGiIs7CXHxAxjdVlKOYns5AfvceOnFBTAWsoo
QDZGWwpXA6nZcM+AwRqKm2XGD3kKtcDPpVCR/PruHdpjYIbRq/Iet2Pd99mdgrRg
VHSfnmzop6gPQkBPsbDvFw7gfhRQBoyQ1bCVyGDqhQkFrAFQsKmjlkHWnbY4q/2x
t30uku/Ho2bEDQVagWcfJ8EW+LbvV/9Yg1SAXzkO40bTFB9jFW3GNup7DBhHE3wG
5Pcd+nEPl+4j/l2PbI3Xu4B4pG3gS5wzY686S+znegXde3plEdvXBomTbs/22pxK
2TwKY83FtpW0/RGDHyL3qTFpdJq30wNLPk0D+tovbcGfqExMcg3EyabadnxH4aTN
uZWXYLp3TKz1fpU80pW7YvF4O8BuxxzlkLUUk9xeL8xE61wM2afQ1929SFbtSBDp
rMUAZkpdKy0nE+uYPZIgDClCUwH2xKT77sHMCfgZQdtAbo9J4fsXHm8tphIwHBzd
G+kchhDc5ncC2LFRNgSXZPIT1obFED+LF+NcFW46+PMLOutzepOi83pNb3/CANox
PeDlsk9yYZsQ9N/1ZKPAQT00w1O3N7IiYwRs6/nNKryc7IGgXsbn9FTihiBNsAkN
bGSaE3GxQWRQm1yu3kYDDP8uqyOXt6BxEhCa6nKLRx4swXVTD1T1i+8jqL1tZLrD
/5kmIyjQDCsPZS8qi2CT58LUhV1Us2JyWRZ/RnEViB9deotCoOvNQQPbWYdZm33d
SyGatSRAZx0RQzCDoFMhQP0vgQEGiliSWQfh8qf8slKDSSo3//en/l/BV1+PrDAI
ChKDCYO07gRKQQtzWh2JdQOiqZ0yFb3AGxMjyiOB7x2fCEJKsAiCLjS/2fMCsdDW
NCV63KO/4cALJM6zTnQ3BVtaax1pQD40/Dt3PpBipGDrJgyv6XqpsrKj9iibrWjx
6ny9Ykuh81/x6m5GVh/lm7on8skXQCnCWvlbFLpMhHKB59uzK6FVfQsVttwdaoVl
lWYChO2jjGQeKuhhhrNunPRvLr86vaAI5sgCaBDITYPSfVv53ZvRd1jlLDBRR+IY
OWIjxE0q502XpQoILwrHpqZpRx9apNtbJUL0elTMyE5w1RmtWlv5wKH/G4iVcHBM
HhKTh+fwBIFJ3n2A/w+5BZsMugmYWJ+JpV07/XQkn+ASg81YxoPp6mpXwtFmawXO
AsRTuvIfdJWtOAPOPeI3hD9hZkVAxO1kaQ3VPJUYTVFQ/1GG7fxdWSx2yeqofwaa
pp6BEVmIBJanaW+S0FpL4YLQsi/Q2Y3SfUHpEsv0pP8F/HHvErNLrmcSiWtD25YT
oqYGKwefpAgr/Hwi3evheMBetmNSVAqTT56GmTxYvCo4W1x/p3KzyWkYRQGDzlZ1
uYzwxofcyOkIX9Vel9dv+Liio2hiRqwnaFVS1YkxlS4WiBGhsoRGyP3864WHNDHU
ZJHelL+efdeW1enRs5Va4BSakaXGUg76L961RXI01Luo67jNzeFItGkGqoxSLOXx
50LM7tQNHmcvJTjk8coOWA4Y3PtxU5VL3gqmDX8V+TaVSVCfPmFjkvymi/OquVh9
Pnfo2NjAlDWGWHtvYOhPQKt6/B15lmodOUF60LTmboNfe68GovhpazblRe477Pre
wNi1QkQELQMLYkeefkreM3huUr/EFOP41v24OmWnCZ584496LHSzScUM/shemWSa
C5RegA7P84T+3kJslZDMai1l8ROafBF272naF9ehpsb3EtRi4BxNxyxYBovgNzWp
RhAvSRSHa63flof3hia5vCeQMYEWI1sv4k9t85GTa+TxLWV8k2mUYHtPg02eke5O
0HHePTUv2BW2droYyfUfOftF87tUBv2ycyQwMDXSN6NK8A4vtZQvNrtVwqGhsTdV
EVlhvKXkAhuLC3Dm8VIJHzh6Q5UUATvPNS8UJyNAQ591xU1hmyddF+6HXNz57de5
fHRyeR3092t4GrFpAIFz2zUx9e2tDyhl/qM6MjqNR0IIlut2WC6yrTMdlJbE6OOG
5IIqDwkBgQrOL/8r9mZVgTvhbEZOp/ATHPeihemP3hiIieb5G5KrQxYjwgZpeTEm
qCaGvCeQjPqz7Mz8DjzHO7gzvOUmYpjdf8SDZB63vrLptiFOB0zwPX2B9XYUXQL2
Bmr2oamjeAoWqxhfGLGPgK+Vy2jxUeHw01AeJyTEuu28VgXI10dxSncMgeTcgO0b
e4Xp9tfoQE5IrkQRcK1B7RA6kaDo0F2I/TxI25xlB57H2d64Gm4wY710q25GHun8
BS4iIiRj5aDSsVHR8jYAxrYs5YMnJrD39e5YhO3cyZf4fudJrVnyuLeDz6+HOWJc
RgrYVAcs2oLjq7VCfVKNLe0N88Z6B55ffARYhNVE+kFvW2a7abaa9yI1B0PdTLqM
mbPcLMoXYs5rU2wk80DqTcaD7Cg62IhRQABRmQa6hqtHN4ZWKp8Bkgr2j+5+Xgnf
qZyaDcU9e8pjIJWr9cqXPYd6phR5SDjmFJdv5/0WshldnZ4NZo7G6A+UMRScWF5M
oXCw5vbzV5JA3iYH25oEY5xVitfFnGqncNKaRgGwP9QsxuYhIHJeJRz9daT2kOOB
DAEGYG/A2l3Knt+WSth3c+z2nQ3QTSY5Wqt94C7NgWSafA+RqN0ee1ollbx1XsrB
31+DnE1vjc39MMJJbjvTy/RKkOkq9+U+9gs0LnEeBEFMlSEyB5+Afaiosm9EeI4z
XSzFCBNOS187egjQBCZWDmtWIZLAyMrNFdU6agAPZR6iIhWM1Ba4pKqMYc+KUvUg
ST0UkRxMUs2vmZ3dR9Iq3BIEGAi1oko1wKgzL1NmZY/jdk7Bm034kFcQ9CyhPfPo
uGH93vjvS+dtlR3mMxzxEgfX1avhormvn8ii/rtbBzbNAptB90iahPlwr7ig3JoI
FaalwZBN1NIpaoVxVjkWKUBqEBBVYHdbfCEmwOPwZdVIdY3fJiG/tPnV3o6DqaoN
3TxJDIfNHafXdvQrejKg2ucSnQO+nGR3Pv26qMxcKFvEaKepIAuo17o8Kj0yV/qr
x0XJPYLO07vi5u5lI+Tz/4oV9Mrq5Uwm4RdkqGh4bJKGbU5RxIFLFB5cWnM+emR/
quWiD8InPrd62d4lZ4Z0YyDAA/qUSjglxZq1quXFzM1Ql1JSWVJ6GLyJAh7O5p3z
gljDgBBt/bO10OfJ207MS+vR50+gbjn5qKCTvGcIWVtlsZvU4yUcUbGlM5Dldyw1
2cuqVZsFy6qx8BCbzKVy52aOtS4Q4Yicvs3TMYwyRoM4/MdLQaLbMGoOb50keY6x
2M42oIB4ToM1COs/KtvX9+43iAbwAp/BXvbU/LUItYvhTN5uZ66W/lJ3mTBceo+Y
gdTOFTfUJ1kmTvDA/GBeQv9itlsAkaAK8LwYGjfC2/nYhaMOjjseFWiHGm1CiUgm
oLgKLwva/+q5jeyEw7WQXS77R+JabMx6zEkF1N3BUYQnCBycZeWi4sWNlQpSk+kH
93ppRSv3OSlxZvR7qlxBr9Yu7STbOG/+enYvRES0A/quEmkcNkjdTiwY1JpvIP5A
aOKV50larKykeHGeeYm6BV/EuwwolcGt4ZvsZVN1N451n/UjqF5bK+W8KQk3OlEz
DkZWf7q+S6S4Lpqi/pR4l66QQh6sohwSFWPbaFhGC/hWY9h8jCv+EuY7WOlyov7e
FdUnuwdz/w4qs/yDxPTyMC5KT/uGSgytMQdBFa6FVqvbU4gI6Fga//B1QtsJTj/w
UnrpKhX4wD2iTb/Zy8ilimN1z4wTy+rb6ekExFWx1nYcfTTYzNfM6ht6wijQuO1g
d3IlV8rsP5p6mshZ1PCG+fS4wbfW/w1V/ODCtJllZAfgujtQvFbHIH4WwqnhabyC
pq//tx0Ij4I5zFUUTI+HwfL25vL90o9Ofo3Wcg6egldE1hprIuzTNgOmq+a0NlZk
pwonT0PtfzlD3JXzhBbQhtyM6sX+f2xZWNHCWg4ASdO59qIIUEpGYh/Ht1ljzCid
v5Y+XB0sAdpM66uXkV2PnYO8V+n1PSi98ZJRLu1KSaG5EUWOdF6AHSdhWAksx+hE
9YzZX9eH5Fiu3O7CfbAU3YNHkqcxdpTp7nBbNl0rT2kuAdZA1teI5Ik8hVwTkxW2
yKq0qgGzUz2FeeHxJZmZIMCt0R9NwSOqIL1K86a+dBa1tqQr2hPkbiytEZJkmyUI
vtMGoq3FuhyoxQTcS5KRrME4JfqxTsUdRYdiDbcjjgXwsCCajBjA+uQ68lHzItbv
pJOsqak57jxmH74G1EsJ4KiHg4lw0nlL6dNd/9n8L3L7mSI57o8+8QsBKtAQFLBf
MuD7Ne72PORKcmcht0qhhkKqRzwIxUPOgi/+0NKo0sGDF2Af9JQFHpvY+fyr78kf
dDvHiqrBKeQm2pJ55joVi8Ve7v7XR8yD4WRRe+vC9rQmiI29vpyPqRj1UghSC7Yl
JLimP2oOGT+l1M7afMIMtnkYq30d8xESgt5LYFGYQUN+WZb/+KgxApAYE8zxVo3x
h3CVzkWQCx5II1ETEefmwYKfcWbEoL8I1xrmRSlsV6OdjbRHg0FIqLIs7WP95KTK
RrJgRy/nCsZcfZBARMHtyCEWUwzpDy55byMD/pQ9mDB36h/DV9Yz/sit3PvfhTUE
RuYiNOpF3cFSOM0Z6dmYVARpNuRIsJ/vQymEpvMOxrIDiPUkrEU8LjzJZ0uXO2Bq
mE2w8mBWnHrRUbPleIy8hwrRYyxmmg41NY1w25/TEdxvYfi2Gko774SR34sT1kXk
VK3yoW/f9Zo6FbxQM5GUn+lJk8ALxljuVVeLru50iRJqQdhhBOPkI23XnpAMZE3t
ljDRZtmNeUPug6Rhx9DxTAMKSZ21UUT9OuNFBW57a4P6rz0UdldROS9NDum3tJBm
LOrVpa0xBT9Ak9MCfrIHWfPG8Q8fXOxduKU/On5y5n/CxfGAyQmI+nhbYDFii3VK
LOIfqCo6/TWd5HQ1MhkMK5aNrecFY9lw+bOnxPxIAc54Q7WigPgenkaGPScz4/99
7Yx9d4vhbvGKI85tFfhwx6H6wJfuL13afBG2roSMY/M/39EKKTM8Cp3ZB501StKL
/bn8UJbx+CPu/UJX9SPltYv4o4S1wHyW7ItW/Hc0VYwjF9etmWgm8Pt77LZYMmiX
HW+qoJiqvw1UHyW5XEHI3r/iVeVCT60L3IO0kX0sbNxjhjwm1Da7FL387vknogDc
q+TrkKUSjeV06QXNOWCvWjKWG17KdSsAcAKUoi1nIZVCHcElYcKUhDTi5S3HskoZ
1++MbUIZu9srh3MAoVhyeTdl+eccEoLNnX92r97rcpQZ5+FwpDeWuol3mPD7l05C
rfKm8ik6WOGuetGsM86gmOxWAjtzu6Vz08MenY8+uyqttqliiSmDHjfVqlp+gzyX
0tYix8blUNU0JKs8akfMVpBuGes5rUKVFRGsiW3mdsUarn1v5o3WRFaYOWZXyZY3
6WHNRHgT6J1m/MEEc9pvHz2ththYMVSqmgiK6TBM4P48c1+mSjwg2GIqXoA8OSgi
675UPFLGn3zkfB1VnDbPcV8OIURcpJK7VvwNtnKP+40N/DWGjvdjMbQg/eoSK0mq
pll++UvdCDpGJ8QWlEnFJSZbLRNwCaCxGokKzDK8t6akFMFIMWlorBB9WHywAImi
lNmCRpHyTH+W65URNSplI4TkwvtXrchSrfv7BCNbAbnn8vCmgdo12dZNmT0ICexr
mCdFEDFOP2d+BOJZLpPIWuZBAiXA8nHHPnUo4vcqWIT24He+XpRFlYZXzIjJ6tdC
jDTGe/yB/1nclqwkvlkyGwgWWyDWs0afPyFdBmAhdCDRoV9eku7uAfHXfbhIsygL
cQY/DVrmGmVtUA93pn97cgZF77mPxiH1NXoc14b6uf/PAUKXbGcB2oKKimNQAi8B
cGIjwdhbRKEsfpBAWa7G0zDVK5LY/8vzEvMQplRbbaeW7ZMY2yJ2sgG9Hm2MYq36
mlnTdlnW3/XqThqcetpUi9UL6ZXDhUhEIEG2hi36Cir5PGmXmgOw8R2Dod7uWUPL
JZzSqE9PVXDj0JZ0wZedku2uTJD6Bpq4ETugIP7ImwJc/epBdISKBZRADZiZX23l
UwXJvgMtVE+sSgWwKpkLkXPOIkJm+GSoAn6RXCJPL1jgx6ib7xQURWCmt/gVGV0Z
OHI2PDVaP4w4655BcjRQm/GCDsYKRx5OVl058llyV8CLdhiBebZRHX7neiMHlY40
sl/f09S8HL1TBOvKM/HUGEeS8hBjKcs+l8AXbvERElo9qqHcE+CYkHa9+cO0eoQs
kvfyRe3+27cxzH4hz0C5/OGN2p13fWmPBaS/EzweCTJS8YT3TV7eLGtm9NhTAvbT
k27cLQaCDgX7NNtb3JreQsrneB1L1mcHmHHp2mMJc/Wrex0GE20O6p9sxQplHDFo
ZF0enbsEyegRoIOOd88vODHN0oW2WY/IDbPmoGYhcbJCE9o4myMnkfnFjY/r5R27
V2TBX5azWvasRgDi9HKYoA3kJtADZ6anej0bdo7fw9T7WWGtKhQ4ivNG6VttVdgo
RV6NnPHqExbUMhqo09V3WgC+5qBNgHarGJNnn6O5gOb+jZwrbhOcwvQhHPcAh5KA
UOUE4Ohzw1DUrzdV70M5A2Jc094i86bkveBGfks8FP5dYgokbcEX3FkbEO9LsLts
OPqYfWf/yWOQgw64ftK5kEg9jAE1h7wV5AJs0+l2H85phaN4Y0sO3nwLdduLwNKI
EUe4s4N+HgZMSUpyCjZXy2e1MwlUML9D/HPAhmCwVozeVw4vgglaR5Nqj6ApkTYa
cKS/mdLMYq41yCwoIrHV/RHg13bEyhZWbZ4Q0CcOeXcq9xucT9E456UMPLIdKudN
3vzhZkVK5upYvKVgQutxaSJ1idZRxIMa+DwgofXPST3XzremtzIvQQNka67QbKKO
Yc+OiXFu6lrD8PwwS+k26gJGG8LHLMlc1l4gO3TkpVuWJlMOPmT5H1lex96W5vaH
nJ89GWrfJmSIHf9BvYX+OkR+95U5IfyVEbu7sP9DTxVFB3m3THcghRuV6rBrDrYh
UtGe1gHbGZd9guW3bgK5+EsUGUoX6oJL3v9yDXyG+K0GWCotiQsXagZxFNRj9ti1
XqdwNVWR8y3e3hmsabffJRVaHE8jI84RnObA9iv1GH5v1/LST0760gbapsXEpau+
6MsH/iSmoHBfmLQcAyB/OoQywlvbN0gpkx3Cuan2SXGmpUZd5MbXOFW7ZTR1KHMU
Wq1oJc+3keKkdAOwE6MQxWRmJkPjtnSqmP5OZj9mu2Gcf6XOx/Jazg4b0NgCuWom
8EklMdUYtjugmKIcTOzKfV0FFuB7ovXPFV8M/tnLYksVWpX0djmayrVYxrNJQztU
xvmglHInX3itwLWVQ7+ISUZ+3dGaYqkQ80L50Z+B2BNK0fdU/oxg1UNA50zaBFks
9SbpToW66b0xKoMTrWAteWHfnX0zMaiU/OzB2J0fYLkr/MBtbg6YV8pbNftJ8SrP
NRQizh66PayqvmAChE98wws3iJGC+GQ0vgS79Gxi0CyJrzDvrQwwvKUjxEma6vch
7zUwoQ5g5SZ1Q8TFERriEAyXZV5kMvaOZCq6kdhJ78m/GqiH/dXQ/ig3wbJCYkDu
7/bO/V3KU2KFZr440sPdoZ/4MgGLkkKiq+ZgnVDPvZ4uyxWwR6YbhL6Sv9n8XGWs
ZjRYUXf04uwNhEhNiBSjNXMIeS/z2YHj4Y/2n8Q4bRF96kzayz8JQc0gHU7SiDdM
ngiqOPfqYodEhu+T62JwmFaISVBW2CBuqVXyToXMrmIeGVeyrOTypISkGRU5DNBZ
bn4VRp20kxUtMaZ96wFqztgFFQJE+dhEvTyyKQokhxooYcIOKT4DlqH/1/vvgUuT
hZa5qgjAtayZqIhxAWhxZEH86wtTmPkgrsNgr79q/+rjOV8jxsTxSyqg9Kewo/Zs
5hdhchcX0fysxowrHktMd7/n7E6mCbWzh+irGp7rQPZL6U6miD1PBmZiaaY39YlQ
QE8yr4RodC6DVm9PNFwgRwugZRfgRflbwAjuFn7yuByWbeuM0K/694nlT8ZS5CHR
ZOw48yvTUpYDKKUWJMkWsSnM7EKKOCZ8jm+H2hr3v3mcyXt4Djl7zdz4QyRHhFca
NcflP37rv1oeiknrZwkM9I+gvhNcoI9BCKaDDfGPljWCsyKaQNueJtpgbC9/akBJ
PxI4WA24pAjgWCICQJCFafiCxyHg38zzFyKFsuoRDiHbZkNSkaZY7O49lfz1TU7U
7IoqD0mPiE93PLxOsKJUNNPZ4sDrk7g9AczPS4Yz4CeZAk1qu4iECu+yKqTwtCIg
6vl9J+PrA58rYeIRvA4XjYBn86jFhVlGlvCuSng6Kar1X09PS4766CCc6+gg4Pfu
hsiGuQSGLkW7oDhmBs9PSr1KRxR6wbE0RQPb1uytoIdSJhv5IHvpVBfOWntamcbm
3JUsKnMdhqpYg0ItANg3FuYbfbeiXCuALxEUSGNZXkAWWOZlfg/3r7vkIV6PWHYU
3w/80BySwUTUx1vsSPDyqzARx00rAMNaw2Y9xTuiCwDmE5Yp7MVF1bnL3w1KAWkM
vnZUZmTzhfoXFgmoCKblumRBT1CN4aNJHsvn0/fZcOacW/jtFZzIh155Vm+la2sV
dLKxlF3cZRJkvtgZBBQpgY2/Tfa7BbQIT5mIPseaRdgIFVJ2goVUxbhpAZ3r9z2g
0yo9tS7H1Za57NKm+gDq1BZwoMbN+K/ufGA9en1WyVTooIAp+7Appi6nIdox6GXt
oGuhj+/VRTO44oY8NgBq9yGCsJcvOLl96kgUkeYHzshb/r0yGoT6KOTmVPhlZ7aW
QNgpBnZy9QbSTZ5rQTaffIwysXzqHY60vyPx2SiobqJc4tT4etAa33/j3J5wnuJH
YYB/HCoCK9sr30ef+eY6IW5HTGcgzyyKD5UNtl4fHWK1NvlxeXditdkvMPwrEcqh
nsbKYQRP1lE8A3pT23E5EaMig+pJKe08SoiS4nJ76H9C04T6vgCFl+BRQErcf6b5
cq1QtIg7w9gNQDCK9OkzcSKmyJwTPGnaX+9QUzYvZ8WrJWa8fGkymlasSsKvRI2D
LLdWdskEIczrbzkx0ww6gcEElHYSbsYZXxcoOPcTv/z6wo7JvAo8MVTeFtBUR9j2
aImIFwD8HaFOk6wg6dMR6IiZP29HaUjBEqlkNBWUvcMuoy2ScUnxEE/8PTT48MMl
eKZK8hLLc31kIwKPYhca5NAfyKP/U/VkEJOD4HsPu0ksDKkhXa9XDyzaQ+hCaeSJ
12HGn1HOGOhZbv/5zCELgnQDNea3ExykU/EO8d41CiE+DVBpwogmK8OvDPdb2Xnk
oUoFRIEz6aC8EZI4Pl9akbj6M3Ht0qllzri2L7I7AGf4Oy2v4lC3xTKigKmNFTkM
rGtAlHdHeRg1wMPU5SW88H0qjPkBNT1LXHkmRqaHqdiqqD1peFHJB+44sHW8Jq5s
GZ5RcKdcCqGF+SbhOR/Ro6n2UdhJYCfez2+D3ffwdFFJXhnNP6twd21/1qRNl67K
Bb2cDpTC4j7w9gv+YWgCFDjFIH2mcKp33EOH0N3HArozrwAGhp1HnDpn9SJFyOSh
8KQAFv4hW5qRLHksFdP6rqB64SIIBSq//mEdIXW2YM9NNx2hAI+Z2kpv0QthQ4+/
egODi6b8+fzqG54OC8Ak6pzv1MPgrDIXMcu4f92uIm/FqscGz1GjNCDDw59Dz+Rd
h9MStYUVL7Hex+d0/EfGsvaGtwRk7ALQAfrSSUDlNEDBuN85FA9m55zWqXaJpHEc
66W1UjedQD3NbOUvt29asc2q3iRHjYdfYYO9m77VmAINAllXrsM3X2qMT87tLw7L
UE0Vkf8/Gq4sCsb+ggjSuj/ZaXRbVKv2hKkCev9bx9JCf7AW3+W7DqllF2uy9/hz
L2iJahqKDLMwoFSlIaf5uVoxE1O+cJLzRoeicheHKQO1j9LvndOzP2r0Q2pn31+1
YmaS3dC+/0VJtmfXgyTtQ9v0peVuxD60clCp620877NbKe1SwyMcxqAY3fi0yMXk
Xc6PSqUqeqZ03U4XmZu1rF/tKH910qj43ctTmgYrjvUMrg9HyNWjBDJKx+j0QNgQ
4eEeYRNYD7H56ETY7s3bIm4wgjhEu8QJ6D289p34C/FLpByCp+2Qt2G2keFhLHd9
HpNUaxMK22Nf6Vuk1IaeXTv6VE1fim6VWfjsy/RfPcjLl0nfvUQoi94if2JrE7dP
U+tp41gVYxmGeQp4KWYO7WYVCz0GkgjuhYg2+/U3oWcAm8Zc/dqE0EHKqzEWfQ9S
le7Ryl0aPxsoiVOjvmIr0Sp/ut6kmZVmRt4en/rG1Ly4Eq21RV2sutPe66rJ4my9
HUmQvEFUNu4NFfQ9eNownEhVPBVDSWOIG5nPTrYizBrADi5nkdE7ddwaPQ8yfV1B
j3zHkGwg6/z/53yOtcoLmBMbCfxJFruSRuhcweaasWBDhFQhwwHJ1m7IbHglDQ8e
X4HqJ0LLPN8bITdhXs1zodNC7jCksnlfbUyc3PdkM55tdMHYazp3ReV5UkLlSLx9
BBGzAOzc7+qya9JP5mXQAAP/0k/KhRnvayuo9JtL6pN5Yo0O2rI27cXfcSvieLZq
xIEoEIz5b154CJ+u7jBWB7HzO9TucExRWh/OyknOOpd9DAG5VyhGrz1X4dAioN9G
MawgiI83REJKQx58vt31kOP15MTNKl90X+z1w07hCak1jiv/mFVpfyJ1zTVPLYg3
Hw+6nIZ3hIB4+63nuLhAEQ/irAzCQG7g5AZyE2LZl0DE0R+hjuEO1TeDxnugc28C
4UFerLesKmZN/RmS6tNffAbat3GWiGLDKtJUsfC1u9U8yPWXSOTIqpOwpNpsPoiw
Ewb1oJoNVX+Rmx3AzzRV6QWAJDMd0WF5rIKspN5ksJ2eWKlkOoexGbK0egSyVU9e
UmDXq2uBkOHdJJT2P+ugJcs1W3b+XR/DCb8R55295n+0ohdQ37vRTc+fa58EaSCw
09XhSleES8Mm8Zm8zEz63ILmux1/zRKmki99wnFdLG2QghF1hGgIx5B/87+CEa+j
HptsS88rZOyNxV59TAzw840XHQcWpvagG694u0VFwCM6x0S4Gu0KIMTDjcHwBjzO
dSKktPk7ackwkmsj8TmwI42wD3G9eaS5SYGe3uAzBolT3cH5yaF8fevjjuJOeeuB
3kfYoIWTnIKYliJzfRb1ypoJMB4J4yi9Vv9xpsdT+n0z9B3dvpSd53ER0G72c48C
sqqJQrRfsFhnysJyNsxz7Z/FZIWMCirdM0ccv7ek2unv9KoKiDLM9VcuxZPvu8f0
6eb3mONUC0AlQEgWEcj5J6wnCEqSeE053Q9Ylis769x9qcOGZKkhJpLq5b7RcDMK
Mm20HfDu8twucazg8AL0XGQW1iz+1P6c+ONlneyqosxXlafnvr97rwsM4/BkdZ9X
PtqeItMwPCty4ZrUWRuVbT6ZsaMTzSgQ3e/6+i919EMI8BqCKZaVeAmQVW+dgWpQ
zAQr+gN4KBKmuh5emuIu3K6JPyietKVMKqll94emJeaK7XgAdWcGoZAhaUWe1U1a
eeCpTHu+40M/DuiIs0KGBJRX4g0aFOuPKfBznR8DqXbN78AyKxT49Sb8P5G1diNA
cfMq0R+fs3uYqQU7M3+tvY5Sq5cMOiPVr7mrbsv61Y164pPx3OR26byAZshc39CL
aD8AcaAgdpOEEUdjJEcIcl5JVsyhSN2xeQP2G4l2GHL6Ag5nf9MW8fH+wvJAyrZS
eZ/zt8W9VW4ERbMzKq1stf+b8khzAg7H0myxkVDUUERuRy+Vi3Ooc68xghsrJ2w3
9frivVs2UMlJZqhetiMprTDkBzBTwy4d0gtr7dPCTw7kQWZDrb4wHP/z5vnoQ6QJ
AW3xWxv+slnnRZ1YNa7jlDlWiqwx/I9SPE24kmRDbYah7xoIJnkUa6+aVg2sHGDl
jQzg77w2cQ0eWHUxXDfPtiOe+zd4la/r6lYxRn7RlNW0dF+OvSFC2lEfONQYIvUX
fOQjRcp+VKdLeoFIZYK/h7p6BXls2KJaURzcRcCxtrWH+yQmLtnVHZuZ+NHkeoKG
kv3MyKcJLZo9l8Iv/sj95RVx1aPWeP4C0lAvoQsfTGTMUyEnPwarnNrB5yu2Pnjj
hr8sYsG2prrN23FRArHi/jqMfU56zv+pyacLuj8GNvL8KUg2/QgPn3riktHOWTlF
nKyHcW84UB2RA0vK81KMdsuI7+E2p+2htweKNLukPFFitvioLTHjI22niCUnKnon
mPffIFpcAW/IQ+Z+M36zwEb0ymPiHyhvSIHEtS+pTncXN723YAueRsTrukaBIcPi
07GlhzsuIzkGCopae1paRtmYPy81S3Vu4nIz95/unjXqnksHtwQL+Rk2cAfuG/T/
MTJh5IxJSKUzudV2gGxBsuDB0tPHuQr05CiNIu042EEjl2rZmY3iB9Xcen7OR27w
E/lLY0YBZA++VhW80Vx4D1QrN4YbPkwkLbB5uuNgH2R1PiSXIyc19vVhv1frBsQX
C5c7kY0sqm26gjWMcjvMzh7eDRRZ+Gpyv/tattwFJ7VgdWGlCr9DkpcATceheufw
cKrCLldqieAmPw5/8CE6KDW1KlNN/Al/QGGvuW1egQcwKXAzyk2gUn01+FoCYIv/
fqCvSiX/fXARcBfjk55IfbF+WCOsgQcRdQs9u5AwkUefyh/t1v+3WoH6W9NCAc0y
QlHT1hsNiYYw05PiJMLTrdxK0hRSlOkCfG65YCvXZDPdCjhF6xFT+P/ddocPHaRM
eG1DyaJLzXPP1zXLKeLcBMuyLALUB0bTCFLMDSQqms7uU3BXcid9RtIHhFAYytzJ
310wOFNQw54PevbXvj+ZNMv0JQGOyhm/wULdtQ3Jv11FzNtErJ4Hc1UDphDL4hoi
JBf5RSQg7Alh8yrr58r4zoyJaIbSF4MxMvPWVeViFU/Hbk6iOjd+gdcrcQnm8JTF
uUnJl1HjM1qifoipWaXD+ngI7Rl3nDg2pXKUJhGekYJDDlEtFYQYrT91iGsoOWrE
v8xF1czg0zvB+yhjw5wd0G3MDGHjSvoKonYLTGtgygd8fDgOWEADTtcRlf7Px9XR
0xiC78HhZXxGiEbmnqW2+r8rrt24Qp0ZwyfnzYkkioHg9Bjl6OikzuCXRLCLJRp3
d1m7oTi7jBvWPP3vuDuC69bYxHWb4JnTE00Hy7Y2tVSyo/qwpr7zt3zQhz2O9rKY
iHSYK+GE0WYbgpOyFxyLvpxp/PyL7uT92UABqXJfJy1JcaDp6FJKENHlKoKBfTmM
WagJ67NAo3mnXBCds6XuB92yFMlHzo0q84uOPJ5q7jCTV+2lRjeQg/aCyQP+rohc
r7tIhwOOAiB+/XnJo9oBhX77ETzraJpIKzSDGXKK3tj+XBf72FloNlATHb/O8otg
gCwSHCPxPJAwI382UhqtGNbc+leuNIz9bUiWKHzSITDEyFg/Pre1I4H/2sZ+XN0N
8/LGXf6dGuiBvWdMD+vOVg2iizY7NfeEyYk5Wb3mo0+t4iOoe4WXOthlBh/AiTSm
g0FmZ78T9Ifi5baQvWl3KgjKds8Fhlep5vsTPemWm+5XZpN6RoPsNf1VupBkJHxY
OnYDx9pWpIk0+EG0UYv/AdZj1uMzrYnIN33h2Dzok6+XsmwQ+Qnxeqnx0jm80Jl2
jS14hgqfNcrRihW0vrvxG/lKapBBQ9R9q2xWrkQpEh8NzwNjGtAlEROJJFOeRwxM
xbOe4Pu8WRMU5Oh7iDRibZR0HINg4QKhnUZxk9FSJJdMJwugie6zysB5arL7ExMy
bLA+NM771p/yh18IQcnLTcLYRg8s4qqkJND/3Pab09EzJ6uxJVH4Stskz1Gzi6t/
FJB10r66N/0fNGjZ0Sv6mfrvrdrZ7LMWoX+j/qeTAQk7JBxjR+XZ0cr18j4nl6is
856GJcWUFv36b8d//pcAc8ZW/hZhxbenuxL3UgMdKqAZ6btyk6mFk9u8drOSKRql
JrCxxXwMeRNeKbSoVnCyXcQ5+rvmrd3cfOhjWCWq2HlCY0mkD6gG9lvmXBM32JmM
q+AOF95+a4D+MLR8nhBEKZbMPwE11Z73lDC4G5E5H+n8boxSkdDtAFoW1xRWYmvv
xLDRL44UKPBxXI0JCDB961OaYacl64WY8cZ9+4EoH8NO036DMiGIHZSu0vn+Fjwo
ZQik8SqZ0zIMJdaJIg1O8lTB270s23ln+1DvoPJWlS6kKqfLxfC0ibG+KEtxshRn
Y0b7SAmtB6t4v1veBtWjC0zyaVzddHJs8b6s9BfbwZG6DBg6XMQuKotV/cwWrOHQ
cGWZD6a64RjyHeCg72KUGBu1SNYCfjH6nj3XXlEcKgFDnFe92RwNUBsIqxTSXUhT
H5PNggP2Ar8Ehf6yM24dg8OM5EQZ9IYzBNqSgp9EaVhwj6nF8g5dC+igmk66Y7wL
6ljpU80zCuManyk/XdK5snOT+NPHzNB6flHFTEKlF9PH3FuQ7KaOPvynyKnuIoXN
dwQkglQD6Kv4XPTOKX8AHbKh/ZCgyi9Kp3Vp3kFG5vyOEs7iVTOiz4nPLIZ/L/nF
Wo/+ZH60e+a3EVGvLiXyhOIkO2/h28WNFdX9B6YLJCBvq2nn83hvuvwMnHVsLpi+
Y4d4qeKMyQ8nVZHJm7En0dHSP0GBoe/bGQ39U/71/u42pUgh7A+LGusSlYeyH2st
g6+2zhVjFEvuWadHn7xK/WDOPPlNjuaYAbT9BUMTExOrqOWd4c/yKgDb0XgyLaq2
vmMwGAmHGudu/e0eptxVx6BeBqJJVYZiitSLANV8Nx6saVylfxqhag7jExHJO+/r
9pzvg+50fgt091aS0olx7mnNHvMyhyHQOTa6XdMs9hPLB3KUSmvfi7P5l7D474qf
u0zwEI6nB9YHgVFaFIibCUbMEkY/JCkO+KBslnibnOSoEYDc4gwvsK4oNzQB4C+e
KLDbZiKRgzLeGAt5MW7FbtK/E5+Zs5VaPVwu3vrA6TDA8BLbIRi12YN80uo5KbHX
pXSb3LXivVyajZM4+nUR4sGD3OGLvP4PK2Ru6cLC1e3fzZFrhahcqMcrQdc9X145
puy4QKSS5IOzQLmeFkg8pW5k1pZ/Dt4sWUjVnOZ3oT+zpLh1L5W2O9NkJnHRsBlC
4JCga/cZDjJbGyAV3FeP54faM4opfzR4y5cX3ZEyrMsFYeSX1hj4w2Q3jSQNZlAw
pHlkglFY1NRC6zya7mz7VAuMz/rp0uakyA8nE/U6ej1qLhoQEGCQ+rqJ+uCJ02aK
OP7yh2BBxTCyRAJhuoUGxo9WlGzruvmPM/hnFMmKRwrtU17pl74pYoFPW31CVC/W
IWwIGKAiEBiXpDSM3Gbwp3QPlL9CuEmOzZ+QChyzXFGoLoCJ3tnkfYSwc0xOAfbD
aGhvtnvjvFEPaa0327x1TqQEo7PSsjQy8R/w8ccXv85KsvnM0dfWian1TzAav97y
UI7vRtjYyasD7GAf9TKAm18zlKKTNj2X0djGYPaiWGjl1QrirjEhQgXwGEaFTwfQ
sEGEzeBECOFzC5QlyusECgE0LxukK+Pm1GNrIbe9cj5DBpGQg8Z8ZXBVbbSNCfeG
dJbio1VuuPscpCRSfbWDgVMUgRnYRoriHSDP/EaAIhf5ay28ZfMrKMNZHsu9TUJZ
r71aI4VyGViRon/hbys4exfVBpbmVnxz/Mo0YIRQsd/kSe/AHWi96nZo3Qwh1L1u
N3IUDjTATlC93HrN9qSeZ0HHiuvfc5nwYUenriM/3+R3l/+UT792TS+NI2+GehRC
uVH6ivduFdgxIui51cejPiwBjyyrd2x5vsafYJ0rRajbjF+ONg5/q7mIxys9AOM1
3QEXyTe5/R38jKJ6l1PPLVQZ1XAn7+D83+qtKTVTHogbLQLC3zgvOvvVKv9EiUka
uRCtH/DCUu4b1TRNlzI9PTm5mfJNvh1wTPDtSwcU82/A894kinKzo8ZcDYN9H9Mr
dib68bIsVnhT7isMlYk/jzv/H0K9+D/8jFwUhdGZu+QMErDbDvqMwpNgupZmD41V
DJ1M3B2M5E9CZN0Cg83Szwy90tVA42EK2AsLOesMNeQjLvKFbn5J7rkQqTzOFWDB
y5WfVrJ3NAS7TmHQddRQ0G2s7FaUOWgjiFY6yqeaKOe9ypRWOc0NfLSF3QrIDRpo
8D3Tr6DKav2q8h1kjAM+FQz6xFm0j+p3hviGNyDFwKe1IDehMxN+buClmmtN/YgB
rJp0xwn/kYyVUBDgx9AQ6+E2EKS3dgtuJW8Wronlhq7lOPjoQL78D7WlK+XdrPrK
jZ48FUoPyqiDOwt2ajV20fL94VAq0uRaVXayx7+FZgWy5eKeMLmZ9ZVFA8WSyPD8
7eyWliB9bG+E3XdzUPg/vqQvXg8nfslKYexSZoLab8Y2QGyn5KRBZX3Zt6+HzhHq
c7W/cA4zQKzlwJW222FuwS8wVoP/P35Zso70diUU4WIOt/Okh2bqAwTwZJE2HoA1
vk3PNsJhUoeGFEdGSSGcDAabGUorpOB3S3IUurDwmSHIQLyyDBHF319z90Op+aL3
GZulnOZUvhvOFodhAo+aMj7VNxeXGRdLIAWUQA9tV4TdzuzH+oATONkPp+WCXNI0
x1RduCTQ6mR8nZ+JzhTl8BAgV3krXPtpF8a5JkfVPgosMfjsAL1J3uM6FukjXBgU
EjfZnCBAudTMokpdqH9Pdrh+f3ky3ORJb9MAWX2zIXILh6OgxOkOIeXN47WwSnt4
2BJNthpewav504KV5gWrbUMciWwQr1ZIAZXdVc7rD2qL/0ne9Eb9GJa3bFvwrB3/
SBsFfN8tUcce6GEeLqbB8g5rr0Ett/hJ9YIsH1C0YeefPEqE7YpcIWp/nbTM8l0b
Uv93JwptI2fIldZcrQUteEMpLqt1rtvE7738EewyNFB5ZkhInmZk/aZclefPlAUi
6423sIo+QLrqqx5WYNCPK6T7/eKyq/dVOD4hw6+tpLopWxe3XSJ1M6yyz+VNoLSl
0QriWl29YBlf/6vvHrgFp2/81S4P7wa44Uu4Tm2A4RSwdSP/R80ClkMGu8QCUVWh
aoq9RLMo1GRHFIM1lalRqeEQ3Oh4Cw5SEeD3/7+oj0MxdDb0raGIorEOQCUCFqX8
nIUYF3xLXH2+XH8iqZEiHo+3gRqdl5b0iZxlhBC/RGlxBI+RgnZQiDT+PRwfoNLK
UISgbtHLvLKEqjA+fM2VIgflvLvlXZUnQ6rfCgrNnr+fljVs9/Qku4PWwHaDTZgT
0Icz/x67pGhnRjGPt456f74xMRAhqL/mMQa/GclBhrtWVRhYVZf9QxLjeWRAFH8k
fe4C29htSOB6EJIu/ZenRtaFawmkhxrYv/+1NWVyvo1U/9W9QsAzcKDylmPEOn19
yEMudJ0Pl+Z9V4I1lcrtFzozC8hRcFII0neUID11avXpC6Rd8fNoN56EW8IuRm0u
Ks+rDHUnBpj2iEtZT/7KvHZ8016u8A9oqESk3Eb/bERERhtW7/KxGopUhwDl3lcT
DCSwQGrTmTYGEFYnBYvlLw1uWa/rKRwGgD41wnTZdenYMnYPaL03QIW5ijcPYJJC
SLzXCvq7gykBvSgHEBfOQfznKiF0ofLndAnIN4t5O0CB1gL36huTFxZlDbcFJH6A
YrpHcfUpgZ2EzPCMjr97nYoNs4C/1MSVCM+oI1V/9W0AJo0SieRZcsakIl4Kuw1l
MTYC/ldK1qEcf5oRAROi1D3xqPNvkFvRBF5IZ7fAV/83NDrNRcqgdwml+Yvs4d4S
R/KOioE90Fu6SpnHz5As1Bt2Wl8njLTk5BTL01dg/9W8bIFz47kBxhWSlYkXqvya
y+scz92xX6rSl5cOoF//jfQl5BwUGjVbcIeYaWP4DoN0VKkQx4wuJGhiRZQum7VO
UJcq8PGVHKFsjDPTSDckiEaBc5SDzIp+O+tNBFgpzjfUXuJxQF6XH46qwbNv5duP
VQ44qSPQzSrVd6Z8uiZU/67K+naTxbZ0JTVHCCsJiKqM0441OXLdIdmVMN5Hvwbl
YdECzdZcHRd7VVY9Iw3wwCAGYTy+YC6Oa4+iLvX0i/o/5KhSOwz+CrhcKM3ZDOhU
HWhuNXJf9SPmPlbepYoVwG94JShO7TQWYQsCxrx7TgVB2vrPhZNHLfVDI9lgihbv
4IzWmjf2O+UAJzcMs5EckizZyVuWeB0m6lRRYjE6rVSl1vpZ3s2ZPu6xKBLzAOQA
v55SIBlnRHGaxSCGdrXGdXfZYVRHO/S9t0iimW/Z+3x8t+nTnNDQIFdHRMAKrNlq
a/ku9V0CjVQ94JCISzjAK8n47JmNp6oomSMGK3hB0Z5JQxPnPfQAttyHYbu6WHDE
xoIlrSBfOLViK7l6jpHRqZr6WHRu5padzAYm5dWrc8aEQ427yFwwypVYk480YRjs
DR2tk9F08UNxw7sv7pSvdgEO/UI/dl/1sgLxTSu5gMjFgZkwuizXRC9e55UrP8dl
Sq7u1tLmtQ0Y7bJimxAGyv2BSa4wIG4tZdyVvv93sW2N4kJ7AUtWpAVswwMJtPs9
6J1onxiK6uibRsO7YwNNZ1ARrvAbgN6Ohqz9X7xZlUXaiZi31ak967hwKl3KoMMH
UgQon72h4QMncOfe7u3PRgP7QApQtGivk/a+Gf3WE+168pbiVoqUzl0xkJzfac9p
6ucnWbhiWwBwth6lQ0+0jwbgKgHFNTn5XlXEAVVieKfUw2U+goPGgmkEmNScRRsV
egEsKO3ry6ZaHtbtv27zehYs+VmMWnscAFkKYZzgk179PV5AEK+ada6L5DHeRGs1
mQFTHWZmVYbiNnWixqDt2pauhPR+Qvn3UaAMpTYgrZ5Y+vgT/Y3K0wWWc+Lf7EW0
UzuHKstTlsPWOVMVhYZIdHy5trdMISN3HNpLXh389bfiDHHO1Lg23D+VWgk7QS/3
AyK46LE1LOwstPFHIpp+ZsZ2xc3hRUF5wplNpc48n+7FRZp1BIbvW6tsumHEQ4Wr
JxRofy025cG7PracNig6e3V7/06paR+3AYZpczC437JjPjkg5VLe7EfHel1Ml+P9
NNbOzXtpWVWz/oISkaA/XBUi65FRs01/RF/HwRdnrCcVekzRpEefETtLUjmWfVuj
+vTAFRFNiChrk8+y31PIdJWerF36U3R5q4dU/78P2GNarB4tzmQ+mmWB/TxK9tpf
u+pu6ciuULxhOAyt8Wp9xL99WJ3QJW0Yllnd5DtXxGidT7EwYUmKCudS46qyTi4a
ZQ+Yp7fewNf5vgQrOIV8df55Jwv1c9Tnt14j2XRSoF2Hfsr5n8/In1/tFDGzFHG7
GLQ9Z7mhWHzGiLP0cFkjrXpXHzknitNQCtXalidW77KzwnpfKMpAFvEOn3wB1UCx
q8DT/uHMv2XCrHTcWdKoYWAZAyuCk9FId7hgoZNfbT31WZd9G+5JAj/0V6eK3oM1
Z9trVAymJswuIrRIPur7Q5IzJaRrztDOiUeJD/tnMBFchuSm30VTCfmJGgBUn9Is
3JuDrW53PfFiQkKx+nZCrNEJG0HtXYB9UJOMvpefuJUHI+eA60Qvf+k4L5Y9nasm
wJgvxLvTkYRDjEv+P2BDZe1gO/55nQh5Gu1nSKgLwlKsEnXmt5H8GwwQVUEhY9e6
f4bUK7LqsawTTsfEJS+n0/s1uiSPWnV4fEwZ1uecZQWDemz0KOIYBr+BkNFpmzjY
NT9OtuPvpYJDq4YOeN+tnEbvVaOLxjxeiom9kOfyNA3MzlXFM2yq2c6vfdkIM8VG
FtDmUqlr2EXotBocM9zyE2HdlXgVigFKJCmyNqJeJuUrzuKt995hrYbWedoBSPa8
NydgR5IlFPyM4+wRofUQRD18t90CRiLuGecaSZDcw4bKYMbIhuQaDwaPt/2xoOJO
xzZpa0LAi3CrRBNs2apfAjVnvlD9A9aQEd656opj9Q8eu2Lc34TI4x0kIH+GQFv1
qULxOq04R4E/1AIuihdtdaIZyWTy4AD9y9WeHj7ZPDfL+Kswufqh0kDowIH2+Er5
wWHKuaVjv9tuRQdjQdAt9aEChHRQma2ETu26Y61xh/2Lj4oZguuUvJw+MxRWIw3t
TF78KEEv3k1QAfmQ3ftR+X5bIHECVL8SZEcTCQtyeSgCVXoUL7t6X/5NSxA8SNpS
dOUlYicZR4tCxP2kvugYGBVt6AGAL71BvXd7crHx0Ym2vq5R62y8gJUU4K1Hll/I
LBWrfaqzkqLKjfbrjEcpqqddqAeR9ZlhgQgHvPj2pwyhOcXnPziA3D/oihr+Oz71
6+hq7pV6wsqBdRqLyI28aKuWbG7UIDCSov9/SqXEXzQO5IMHNE7S7ZUKkg2zT33y
Zb8zYGCJVyuIY1VXXH60UhdyosElmeatdqSMgfwqWoNWLefa3gBVF6eqFLbg+odJ
IPQ0qBpSDIAl7iHg3Z6zQMa/rU0zET6fGwPxmfHsmDEYQFIsT6EiuW/ZznPWUEhV
+O340nqASxwJwyr52jvq40cwMlue9+wGsWy3sGiTENYFd7ZnLCtsrQcbVw/3rAfL
xHJdwb9YgMQM3UxttSkUoZG6vb3cNptsehDcVMWqIyTD4iqo+oBlslEeajy0bpQh
G4iQDf7d1wdv33tb/lzNjGW9SQI3Yy/f/i6Cq3owotimSYVmme3gnAvcMb75z5s5
+BXJErjWtQ8FbtBDOPZF0GjdlfONwNjlxJ77LNmG7UInQB3vilZzgxKf4A4YfJQa
nggU7KtISWxmaZze9h571cfAaI4oNV7A/ROYib+EZtWLM5EQB9MZHl3AeBQ5+/Gi
qLY/iHfdceVkzX2eqWCWD0LhSj0WSQEg7pmJFFm0616YAM469eVmHhVpyYUufEV4
O6+fjC9DXGbiThfaN7KSadenSmbHYSmTE3YO1+agWNoVbmXI4xF8y916+aukpuxF
0xDINhkPApOxYDClj8cpvmh2wKyS81XhohNXF94TKTgr83JJn6i2zlxZ8t5F65IE
nuGjO/BqPUAlua5vReZYasafn5ZRJjjQnwKBud9pNjTqVAHIEcCvekUwyHYMcARz
ymMUpIhxVlQT4DVIOnaYJk/Px8iHfImEuUvx86D3ReAV9MD6/RrSK1lTfRZoMIyZ
rFFVZ99Kd/6IU2B/Huqmm7rJEzC16bzNm384HH7E4/H0ORq4pg2XUsKlaHQ0q8vB
ZPGpe5uH2JJauXHWUyfDgXG5Q6Ysfjh1SH1UZv3BDZOihv5cb8oLUBzac6LCMTBX
OR1zIJ2orErYewXISUAeAWDKqD8W1ZlLl39FjduijGEP+XZ6ej8QTeHC+QuHSsH0
M18dlGIiYCMd1onkE1KsLdjpZ7Xx05L64Q/Xipy2AnDzvTSfTDBK52mIqCpifODp
y0mhw2+JOXGs09YFgbcG50tv0tUYhZCB3E5HmUiLJDkGVIUBld4e9dkY8M6zQ0NH
oz4RROjniOY/u1GntTMs1mL9fs1D2gq0gydlym2cL1fg67WCi1C09ZnYNEnYoSKb
a1RH7mKirdRIC61uahj3tV/Ll2Z1PGRToQR91miNkKtsfp55wHUiWkrf2OdeIDDa
HFHYqybWPm5vPJZGqqqHXIjdgGcr+unFlzaLzQJ2ht03eOqFERtkuDIbN6UHz3bc
42shcvOsVkPncVHwBqbQhCKuUjnDFjNC3dXp+UdcWfBrJSIhBwe5vSMroDa36O8y
pGu9dPn17mJ6l/PrVPoQFesCDJ0RUPU1esUvOv87Kk3kFXFl1kuzpF+oPmU6QbcZ
LEoAGUFJh1Ns3OQf2AVIjDJIEJNkzGARjTJAMnM0xEfnv3CnPOH//ZV5gTRL81RQ
M8UETCvD0aKYYipXod6RCRtd8POqavqdVuVNAhSr6ZnJ5Arp2h1KbMCajwXyEOhe
BdkpS9MBb7MqbUnSyWNUK2O6U6XtpMH7rB6R8oHBDa/cRvcAagVNoveI65FxYP3T
bFeWbppeNy+vXjySCq+b8R21MF7xF0ceFNcjkyizKi5ro+hcem9k+IHz44PvHCuv
EvG9Nu/cDgHDnwywLaR/26+HfSbeOs3OkEmX+xRT2A2oe8JYQW8g+Z30TEk1llhH
Tqzv40XlTWDZkBXzLfY/BuZ1zw1PwIhXctt2i8auOYxf8XVmSAwW/AwBYdcv0lCv
VhuT326++fUw1xmwSLT9prB+RBM2k9ZyrmZjxROhHdoRs/TMhq6AVJCsF6la3H/q
8a0cVtR10+ds9iTIBScZJ++YMukYVSWmOu3+HkgHBRIsAIywXYYfReNUBficR3q+
fAdvB1891wY495jomPf9iMZJCitu4SrRNNjQXVgHiEKA1JRJ6fPvI6/XwPjACwQp
hArIv9GEjlM9uFlpu5XTI/H+5pDAkvWw8cnvuZqtybmPyQ1tRQkS38jElKziFzqr
K/7wZWnAt2GfLNkHs8d18kjgebInIXuXqxGNagyZfG7hoIj/592kVmIrFDv43BSu
/M7DqLoZ2+xtaZFIw5pk3aZhUZwkqyCPzPuhjmN3X9I5+9IDF9I8CsRRiH41bM53
1CmU4P9XhkTTtCblWe8WHuhI5FvDlS9P5ICeYxDnZvDjjLgxIEsaMqUvEhxo61c5
MJxIUr8uuy70Fv0IKZiJnfdqs7bZ/52DHWtCI/KqTaakkma+bp8s/if0RZ8MwjuI
Nr4hs/qp0XFTdOj9y4qN/hvM3q8NHN1rW9IyvoOCn1oKf6if57sE3lGaT/EAox7U
ejSPWv2bplBLYRA4plrr/V42b/E3CSLGz9LXtxyPnlxjY4sS2evKI8lLgcWWw5uB
6DlSL4cvkSXZn8KYc19O2w20shL6nIMExs89ZrVvcMPu2GHNCvw3r8MWGt9fo8Dv
j2tmyMT1EL3rcsutT2tK/7xPw2Na/5raGfKl3OBL4LJQnHbvrFTiwe+k1kYE8LyH
jWp6JqQ07vLoa7pfOx3hFeBOW2nvSO+sd/hurArkEzUVDpPXEwjJLPwHW6tfLrDI
T07sSqnptraklG3i0wjTaS0GAazWV/GX7qe5r2Dnk4UMXrt9OcalcfxPzh3e1PHp
m44CC4ZJ1oxcgsgGNwF6MehSpUY8usyyPtRc+LGeM3SlhP8SnTRjgSbqfGBFmi6w
gWy/0Z3/N3X7JsvmrcXg/da9DyH+d6oHa5wDaC9z9GKjLo+3i8s9dNvp0Pu3HcYW
/kO8Zou/m76C4xII9Ahvav4+R3SkwcMbC6X6X20pexRyOyOnNm/FQ44cVRFVK9sy
yNH7Hy1y26NW1eVEApzrU93lXnzVmw5qrJVpkurhMOAkkLdjy+di+9z7wn5FZfmz
Ng65Gpcmom6mD0PAdP5v70b5xrZ2ymDGMicrRKewDwO1mnf+sRqYZu4HCOG96Uyr
AZbw/kSIJzLh/4sAbXZbWheEwHQz6Ts79BmPZGWAFbakIaZKPmvTGCJVXWzieQVi
rhGW/jDf3oO66tKGysp+YenzNjDQrkpLu7TiAcVm/F1capiuXqwnzHSR7XgQh57D
MrrzTE1wt4cEjCECAjjqy/MrIqkkaH3g9lcqAsgaoGSf5PI9If53+uzbkwGN+4tf
yZP8zRlHNiZMZWBF4ujWw+PLsFgQyvAhCZ878PcECW+kJHRUBU/Wh5wqmjofastq
WjTu0N2xZRFPXd3Phgo0FMPHjDHAfhdWyM9gytlFTfR8j+y+IMkc/IGIWdD3v83u
PjE/R7OGOgDXeyhRb+IMdB1vvUGuwrfm+EVkBNVa6QyEuJkWbK0Lmtj7ynjct5oQ
fBGhhGrW17MvfIyn53yA+D7aieya4E4HR2ftdJwRpYUOAFpd31kjAp7EnHPP1vtl
knbgXPfuEGNI5bU0gVcyaHSDmwUzGON35vwcI/0K+e5BFQQXSoUsBpazgeuSOtxb
ofoV5BvPXPAefNTMzgqU2Ji3g6+5sQJFTwPRExcubgbvk23ZWBEsBYGIF82kuZ95
1tlPd7mrpULvPOzOYsXSa3HClkZdF6epe39SZOC0xUQcUHf5xJ7ffnG9Px/JK6Fs
IbAmcsBwB0lH9f8SKwjnOeu+Gl26MvXMHGkE1LMWfRp9lvdCT9VzCdahWmNIhoUZ
jwfXSFapBQp5uevlY8wYkLQrsvQuIapi5KnooBGg/3B3AwKkGR3noudHGasJdY6k
2IFHdnbVLarXgTdmHh27M8RZl6v8YBVp9nMV6tepfbdBL/b1k/97VTWfMspocHqd
5RpRNXOepsczvrZX/wHkvKmqh+5duq18DZMEUpBYe0/DAj+FgS2gwdLWjKsFgIHb
S8LpGIGee2ZQPtWxgguhpmXZEMAOjfF3GuHPjqE+VtdlSvde5dqKcy5OlvCjibD4
3PqHPWF3yv3riFrWT79yC0jbbg91sXaoNueDd/p2tHk+yc1Z++jRmcdAIGyW0zNj
mVHb7VQ6nr+lOPTqkn1qqnytpS6k8YTjsJE/C6mMz/OgZ9jGSW4UZFkPmZUPCucG
w5QUAytFfOL7HmIfpNtdhkeolTHIIRD71WITaP/2pGUG51YtLlPN0K7AdmUKKBhb
7X+ssk+YaKHuzMAWHZ9wR2+eXSjpVQwYR/yNGLgN6iWSNCdpykQ6tgg694dafd+c
e5waAKAfEZ4p9neZwERR+//lPG7zdIqKeWfptD9S3GT/eS8DgrNHbqZUDod5or2O
Wr4mZmBgUvdBJgPf93VpVSTTs/bpZzHJf8VCNVGViUUYMS15A5sUxM3xp5nja1Ut
O4b4jZK1o/DDdxakkLtEmu1DVDfb5/n4NsdTU+mUoudk88mchAIK9X7ktrzohfmY
+8/EyyRgXue9e8x3sCKwpK0PexRHZa53uytM96XmTN6m0A6GvjyIHyPfFiiDlcJL
ocsWhXUAn8xYrMU+wYtoqgqv3oFSNu4jH7Ndy1mD6sCa9sTPal+rvwj0E7gXH2Bs
jKyiE+L7huxYDY46AslVj1aFFEDwpvDkv26YpKl+qphSFzmX1HACZYYFFzRLFOX4
GOWeXw8sMqXNbL3tS8EvwcdppLgkiJh6jSyFQ+imk83QEEUbvPhwalrXIcQIi8WZ
Ty6PFDxWSU2wG4AVp38Zw01id0/abSg7M7mip8sQkW2ainao4EfC1EnxwkikaN/y
2RFkCaIO3VnrGHqdxMSiycDLzsdpjehTjZ4zOXE79LamH+OMAat+36FO4BG58jcF
DVoOrZV656ZmnyYwgk19Tob847yVGdrfa8SvOT7hNQFQGDul4fkk7S23V5NUCUMo
ZUXMv6iRLx9tSaummDeohl7BEnvfpY/aynHrZClNAJ01aLng6XSU5RANzhgWpiqZ
4ZFy7EjGYUenDxjVc59Zh2yHZHli6FYzKqtFTmqEto+S5dengPGYG8dv1OP10xP/
q/LZu9LwYJf4wT4huDIz0edlEM0k6JzAe5PULRWN5D1iRRIDFZzgPHgWvA/c97ii
/LrYenOaOwBfiFhqXkyc7UeDvGRuNEzDjvMhrtReqn3WjZbIVEfgGuQ6xnr1wQ6G
CIWZDPSNYgsjOMdVd6jdeD405y9C39HiHFBDZ1Vp6mxBVxGmoaJcrauo3yoUfLP1
4gWx1UPMxBA7AaSJ04gD+qj3y/PSKnTi5ocQ4MXgHPhkwnXkaLMKvOwoStbXHMgA
KCkFUdrckooOOH1N3RsSg5IKaz6H9cwvhL5FGNFvoEFv1eBC/TZE+ntVcYVJ5cLg
FQunH1v+02MEbNTYwYVNOolaJBKgZuVp56OVLTVlGiVP717LLoHqhRyJmRWvc4tC
VkWwAbSYUtSxKcXzRw4Bj+rPTV0DsVz9N+DWLxNLkC/5Kte8NZdL8RDO42nJWPoW
I8iQPjJz4JAJi2L80dqUWpHZZI0SahlvBSeMh9aeBL9b9Bnc2CyDqkADOQrnTT2R
PkSPA4TPCFwREcYdq6gVIRYpUmOo9hPaKobTPPVoNUUz9W7KEsYmzL3hM5PaL3Yx
odqbiLtkRQFBbwvJYrpDr6thf8Vfgxn9+yJoOOXYHn6akFkdzY5DsFo1VWGZT1wZ
ylIm9ebgFHdIOwaI0sBarP/labGXtG2AVNldy0jNWWAiOI/BCC+0h5aLs2HljQVv
iMvh9zw8tgVnJgVqOjGv0o5mO/6HJuJLoxATxgF12Xg2ZQO8fNcDuYtJxJVRnD4o
Sw/5xN13EaLnlooHyfzRb5ee2fIm04kNltgcv+lYjSal71RdWtqQNvilleR8c5f4
BqDoGGXTnkV73uDKSAQEhdwvTSms4QgIEv6Fjr7biD3lqVSNHvbRNmhZTBV2Y+aC
89AgkKQxw2GS/YnzTJccddAO7qxfyFwjWzfSF/JObzcpkHesPc2ag7cawot8X4ld
dIZD/zWmWae3ZH+qubBHXxsdm5FkfVeIbB/Q4KHvwH4ADKzo8cok9IQVeEUTnD2N
wNa+nr1wUICnReVayXW0KGVZjqNL/pHFTupi33ZOm2E5Pqpx7lfipbGgtAIWHffG
1V6+YlMOQgtmUt4vd67+7ym/56FKLQZOdTKRQKl7OxIuNWvwNTqkDuIycfevR1LQ
0J4QBuitwTe7kJox1z0L+W+sWEukfKBtwGpsQPQFsuIxwCv2n2qZACvtoRHsKfiR
Qt3r+dr9KWBcYR0oktalUivb94SMc0CmWSo9MrKqQ7TH0mM5nqqnmbP967y3ZCzQ
5YoyPwjLaDeu/cuMRFiJF0M2ciY1rDUNFBtWQm/g4QbUW5x6eSc1UOLMnJKC5N+A
kMe++zpenTGTXvf1zZdyCPzXmNx1L9++2/Y3uCSedGEQ3NjzWxSkRzsKTsvoWV3O
zHwWBcLo1hQCEgeyyFJcDEYsZjiQkcJxbBxP1xVXP/PW7RrlWFB3RX9UEwgue2UP
kd0mgQN80cZFH+4xuR6Hjh3drDu+QoAd1rUulAiusI9JdK9tvcgVb6qpz+mXux3l
CO8uBVrojIdie6yvQYgLw6p4VWEDf17xZjHBSd6ve3BaR/60tEQQirFrgeVx8vip
uqpf4JnsFiSeDsADfHASbCVR8t0s5TGkTECHHK4R54f2YvVuB/dXg0+86zLn79mH
qnMA8Eo5/p8nlLCTsVa81RQjTaCqYuuSopl8UpDLbsLE0JuUwrBiaK8DRj2YuQ/U
PywXffBD8HOHV8TzgPDuGQ1iZTNSwj80g9PWW7N+Oyqky347ZzWCuulSZiI46yig
hn/JXKarytlWn4VihNiWeVmThssebKcxU/vNWXYLKhTRKe4HiydF5xkgEBmTZ5Te
KYQyX+KZbpNzICISp0CAf2s9KAVAQvjbNlyBcBToF6DDo1YDtImjnep33SaG7a6j
vQaZhfBWexMJCzUDnzboinfyhysCYDS3UdlY5Nc7FNHvkjHT/CTDcFGShJBAptwJ
3O2AoEyJziyZt8UPh5YywgSL+A3g9gsK7j6rb35c6Y69d4BKhrNFwfHcFdAXIK3Z
G1x68zC9gJcpa+gFUjQ8S+Laf4U/eIB4jrYNgGR2Tw50uhV3MRmvFn0J7JTmXqMu
Vl8CnLTr1bzy8NfeH/2zvengEe6/C1QGnUtFQRdNsJxfKqxsz44orloE8p0O1js6
tjuWpBjUyZ310tzA9Mi2OVBAAmwWg8vu3GqhZ5IhElZBVSqzcLcrLI9xVlBiVYkN
oYnparyXlb3/OQvzXjuRnhMxz7ljyTpPQHksOixn6vvEIi040on+QRb1b8dWCsJl
KzX0PChG+j+Z43GOkesEq7A5cEk3zkhYrymexHxHahLz/mK9op+3S7A8wEJ8HI3a
PcQdLCzMUytD8iBYpVcd8cU8oACqNd7rgytA9MNtleHfq/aiwOwNgQH2YnxGgj9X
J+2vxLuiq19rbuSro5AB7cEX3XYDJ1VTRsrvA2wp9vzdsYshbJVJkbZ+oCZNbh0z
5syiAMZSNN0DX9Z6h6cONtwPNJncVl92OGJZ+8rBpVQyYvxpOrx28BR377yXBiuS
9Zy++OOh8solTGS4VyHPS/rnhBx0R1wkmugL0BQ/Xj/9ex6vLtih2vnvWsif5yy6
6Zr+Rt6WxJ7hAd7GT2vzsn0QzkmB3B/G23BzsW0XkyfvfDuulYevZ/xzRMXR4Frv
LTswdlsYoT+g+rrcu6EcacwLBmnJgLWk9vSLTzIBYyhhSRtReLUo8EVpdzjHBL3U
8z4+ntYIRi6PF22eRmU9QAXpC4mftZg68URzz/y3fh31ihG4wXQlan2U4Yv86K2O
erOy4+ZDktdeeRoYnkG+Ti1Va/uQC+kHsgv91eQSfL/QIFiNZr7o4NTJZuvfPBFw
oYIJkbGxCq+/O9AZZ8wc2P3adE57TjpynuQQR/yeSuSdDMgcJjJvySpv7b2WxCQ1
L6qoVr08Jg6BBiXgHoGg+RrErv5dXrm3Of5+iZMY02FZN86/P/AKzFXYIFUBjBjN
Kdp0WOUUrMXLbrL9hvZAjly81usgmIRMx/ckIQIDKqjvHhU0SqymgTsoKEqHv3s7
oUohAo4qB3zbUh2gLn3o1o6QfNUX1AKSxCq+jQT86sRbjHglWmZsje/HUaQe8JdX
dSAmAqg8h1N7Cv7rlwvikeCN8WK6GaQeKH6/b4b6KEULLjrdBcWeHT8vRbIDSd9j
zu8lIKZV8QOrgHn0eIGQ706ezPlyfb2MZIub6pvWzLz8ADWOQquTZAcO6pzE9Qzm
1XS3QuyT3QsWhcsHwiKJlWfUEMHDmfHKniH/4L0AaU7qKK3DNuOaNg/VW8GoMgdm
KMkGfy3pcMxW1PX2IfwXJq4aBhSGqW3L/pVa9tteZil4J79/KLRENGezEjioOoJa
FYKq4ukzLYJozf7O5Mq8eiuzxmz87yRAORX2k5qri/kIRkqRgm67kTaLXlF6pgm7
z+ZpdmzkUVCR/c8dEB8WJUKd+eRp1quJj+fC+PeTlOSYVFrSyByDBKd9u9WGJbAe
fFlOmE1DWUD4xfxncZ/UlNHSebKvPtNwbxyIxis16bJbVioUtGeH3Y/UJoxU8B8H
D5RreUqt45KhbPttXINyAJBy0+fXQ3gWohxzGN4nBJDQAjssBgvHKbH3mmgOgOm4
Vau/F8p2CMEBzwjf3lWseTsNE6k6BZ8W1jdM+uUzOlG7BJLiw1tzdH/y7Oa1AnWK
BKp7nUv0pTeur6AuitDxginTuW2w6Cog+RMv5pQ2WG1lLoofwlN8cKKNcHKOhLev
c4G8A3JM+rlIlyZ2HlJOSusEl4Qf/PuUl1cQwIK8up6Y2uezXLgy58o/QzBWykkT
xz8I+02+wKfNjKy0S0XgOA5lG44GlrPGZZcTbwhJbHcIGfOv8kJaX00nzpZa3lpT
+a0KrHH/Bp+/jPtfDytl1j1SrRfmHUl/RAxctCNoiGIvIG4jo/Hhn397+NI9iH6o
10zCcgLaY76jsAPeWY1DhXz8D6RaPOn9Vs0YlXBB4D4Eyu+PSDRmEzVO1DzJKHxN
g5DLv5zXUkhczAdp9nHgnqDFv0d/v9fTce+N64tdGHOClMEGD/W+Df8ON6vKwUEt
lx9V32bPyZZl0mEi4cKdV7Xj71vmFfnQUicaQFi7MQtw1SKagNoj9yR3wNZlmdqn
4gkl+3GXER/868FzZdg9y7PdpJJDfoIeSQxqk56G83rFlafGrFFgzp5RmJkMpm8g
ipVpiyIyPDb5XhufRfHTfrmuiPrS7QAXg98Fh4kSuMAPGluMMIlSR+WSdcl6R8oD
MXbfL+uzAFsxAJBmzradx+awOyTqLnN64FShR5BL8kTpM0muQv8EoNayPnCSLXi0
3vQGhhK9/69u7lJYiZyZJzPPqWP7Qj59N1U1GAGn3YiQw2lAUs7+zGKrTF3qh50u
265F/bQupm0h+OBnNh/97MZ+cIPmJpsHrvFpP9Jm4tZI6EXWDw/11CF5Wt4DW9iq
rO/cHlRb0TBfSLMM7hzeoSHJ0kQJEkTzEZPGXhS84pzG8G6uGgjl7VSSCTj6bcXs
8jkuFO9eYYYEgEHzEi1QeLa7dFnbgPkXBZsqNqOvE5z3q7mvjp5sEkhp+gE9EmAh
RbNkZ4ecGjjXbVCa4pU6I5ZvrluG3oo8zVAWBwhsQ6WwErQttJoHMTQQk6CWzsD5
7/ymSQkDdiC5SCJvZJniBQ6I6QXTBLttg9m3xXIFzY1Fo3hXL3hJQOBuxGrXpb6U
SjlbbHVwBBPxYylWEnjDAvuQZuuNCk3xtlENCquGPHCwxYLNG1hD1XJDDPS8juKP
YZyzFB5SsHt5O9MoV0AYBIbrpdaaRBrRziOA+1qQhY3YWO+EeQkUK2cWS/kuRpsO
ao7X9qewfbfWUum2M/QQzZgr2UDz7vLPksvz8UsEMOtQTbyf1wmIvqbB9EpRnKql
1HgrhdsRdTVq8ZgU+3tNhjEuBQM/QkIF3QHCw9zWgqnxGzFwu7zEh3as8UY+LmXt
5/SJnRRA3CEiNxDwpk+W8HLItBga0BUTJVxuuxl5crcekIm3F7krVTmUZdvzKEtM
8a1sWTa2ot/lENycjHcIzSybhAVtmo7tmDJn9er6rmzq/DtBpUtXjkSGpMclOL9r
/49GlQbtu4KfgBj+zCp5Yw0pd0gGcnb1si6oVANa+l4ES6ZxaAc1pHA9rVp1mVEU
xRjXUB3UsY3P6u5j2yj5Xi3iVC42UgkPo2ZKVRuu74cMK9cz33OSVCyKJAGgkCUh
IjrKU/u5sqyd5FwKyk5naYAcEC5D8zVyt+0wC/Bo3ozM0Xi+eqHfQiOpxN1JOpwJ
JmKqOyqt76uJM4oFCVM2ROutwi1QIjxHnfHQSntVG7P2/UrcGhwm67wCuNbG1+TY
JQJRQDVVCN72wSS1uRKtJAG9RuhLBPf506grEZbOE9PDUnvttwqr0fMdPolCRfXs
j4S68rIS2mia7HjIwQ+SV1I/YbYlTJARoKjqa1tpkGkcHwpy9aVpb+1mVpGNuiCi
EXyRYg53jN23/MD2r+bVCMPjqnmOvu0o7c2a9R7xD4DAJoFLU7qIayO4BpsXPvn8
7Tb54sYB+ZaFgYD8x6G5TO6kPAZ8VaQm5N/nlmVc26yM3VgG6umaoXp8CR2iPkRx
79DP4ZyoPtajdhXRSo3h0t8UUy6873FL1pKVWxOvoyC1fk+lNWmgMXNv3AqQfMwl
XIBY2JxuOoFK/UEPS+Z/Yqb0aofkKV4LTDeLsYBgttt+iWPQSpCqvl5BERkGhnsm
kswfuio1+Xyg1pTrtApowHnbMkqFiqkKnqH7OZXjNsyktsc7sr9WDLRqhdu64G5G
q9KrhyHBVDoU9InYfIsG+XD8Wdh8w0RNNy2tK6Z0raREs99PaU/FCOIkff951fbi
xJYcSv/Bu27fQxynpIaox6WsAATSZ9Rxy5CkkzAWuu+xQig7QQZteFBjGq5Km/Gu
yciLI9XJDjX3AlV3GdpVxepfnuzWoV+xgPJA4AiuJky+bz4BDMH6v8to1TxdBbVN
XZboG1vg48ABhKsTeWy6Jz1wJ7RElPzSA5axh7o9v7xDyoMffiHEUO1I07iF3rZq
slgGaTtn/EYuyqr6xsKi0ZVBsoy1I5Bg7yi+DYTS/XwQfuRzwrz+xrblX0Qh7Wg4
KDYG5wAWbMwNVbv4hQgO19TELjnN5crfyc+EItXbsDBmaNQCfMV9xVpvGmBt3avt
ZMun0+ZDtfUF/gCoigsS6zMQgfytfPdpLRT3GMO1FUnN9cFtES4cpa4zjuQ5osXh
j6tpoaBJy/Eus4eCSpYMhFH38zBJNgt9Lc8ATaR9TCXCcv0u93Ad+cih2oKEkZoI
2Whon2u+M6wsJj1Cood5a8xfBzL/ChkoAuFb60W/Fugi/lkvXSj1q54VI44RCslI
W9x9m+3Q7bsbxKCvWTaINAyFgnncTmkb9DxK6iJvPbqFKJmbS+Ini197qWwCGcpA
JcN3m1sUqfTbc8MXcHUzKfoju6/jiUsf++yXafhGvnOYh/pe5NRLDWz7cMv5otMP
pQN7Gg/JBA9WiXSHoDvT3HUeSK/6LpdRqB/9ZuIB5m5DRxf78HQnXPXrvnlfwiCH
Aj72Yuq1JpqK3bRkHoYwkueQ/vk8roaYPLprj07OX/o04OnZnOfX0flpf0lvVSCD
RlJHpwFREA71gqL51UlPviG000pzONZFskhOBaZbsHHOCny5A3GSEuEtJJxQ679P
xYCLWnMWb/JhWnZNX1kWcIrrswT05dqmhLRIiXCok/GCbcvvghz+Wb2I6FldPtbe
Pg4xx66cjM13/1Hk9Msc4eZEV1cB0Jc4t87H2dXdRxiAYt3QVkJRMsJdyEzh9eli
PhvG9JSjt+V4nMUaoIWBZ5B1SnH/FMhQzd3rm1IDDCjyPkkISCZf8b1RHR8OntpW
iEREfO3+SEyW7cHrgqzm6AHXtsRmJmAkTJK01T0Sgw39p7yhFktqVs+4VE3ymETO
EtuoYVFiu58dTTL2mBj8IYKLMpi6FoFGIBWVPcOrcZ24FgGvQ995aRl+sCRj+y6b
fGSMsmsKDMzAJ30woobUZZHOLi5VNqIpLcgqJ+U44Rxf6WW4e+PtQv5SJiiVZU59
DntMb/wC96+6UZ95YPCHMSVkAmKSCs2IUIc7pbETANQXQekBfG1xO6d3/HLStx3P
mdZogNWw6z1osxGRMelwUR/T5fW1tpUcDNGBXIgZe8RUU17j8auyzmsc8PBFgkjc
WyCdvxQx20XH2s8veTYIq+9cNRg8gfA42wT5xkoHtk6iNbts05t6W534Nzzb0ZXi
SrFoq5KPGGX0JudBSmg7H3jsp7/CH9VZnWLLldf4XEebvr1qWTdKcnR8qCanpev7
Oj35ydMJzE76sJoW+JTwBkAVs5eJUH78qHOOJfhA/M+a24c2bysIN0Z413yNs7cm
EvCJ5fN5ZKBZQPXWgHjsmMxUCf8glG7mMopUK+JPz8qrXg47t6SsXvxihT518JoY
bUVqxpuyXBusl8+WZmEMlmc0Ml4l5e0gIwxaH3Z/KdwNziG7L7Ik1nNJBQ3poY2S
dKUWJ+nO/AK6u59oI5ZW/A7m4sgCgj5KvOUCDSPQdQYn6L9bNXi0coJsh5QMBe/s
6CNJFKYAiLkL/PHrUmcAxnP8EUebEHTglK5U4WC2DYWTDMaFKP+bKzyzJO/rhWQu
PCaxX+SZRhqdL5RxjqF+Zw/cweznhrmcW+pKz15xffm0j0TZsMLpoCRLaeOvw1VB
Y3rnAJ/tFbw8J+xZLaqQxBrOe5qGfndl7ituAmVwlaKytl0Huo8vbPKwLi8wGmv5
Swkj0uRbVTjjfFggG+K2X95rYHrOCAIvCnByTA2YF4+FpeUmRXDnlDVzp2urhTyM
6/JWj310lrOF/PStJSYwEtbfH1JKrpIJ3Zfjl+h/Rt62dnxEtb8h1Kgey2+SbUvj
Thov1ubqNMf4gI2E68bSUanEhJtTeJNVag6et/8B3sCf5A+0LAWC/aaB7/rtjwcs
3xSAXe7D+O4CjMB2xGqh2LabWMboGpeptImwSuAgREx57ZTX9SGEkSxW3RLnNBse
Wk1SUAqkslwWNirRkyslohGVZ1lF7h29lGLJF+MKTMRN+7iNqdQQv3DuUf782jQ0
xMcw/KHxQu09lDKBr5E9pUa/Q6cIWDOEDn+TrLiKadMVThCu3kAjlHwUFW1vJBfh
Q+9oRzT1TUED+ohRGp8R2W9HsIaevSXhlljXpJcifNluMq5XRkpBp9CKhK2i7zqz
C4tTyrp0wH8rxzCkRlM2b8igtOOT1mv8l3vF/tEbokTspxYmXhBB0uFzc2c2RbwK
OtPdV2T+jAqPrEblzfoo44dcIdVSIsf08+fQ4Jvf7GVkOHFmKsn26WjoU1ibReLs
Fx7wTbgePg8ObRJGvg0hUKHCcSHDehOc//DxnSqKk7wkdvYvyqt0Hc9bo9Ov2ynA
/2eVtBMm+cBwygrGKCa0KpFiPIMRnCQkN1r3tbVOSa2Ml4wRgYcypfKKn+giG2Vj
yWOrokK4a5mwZeNYjKN8QXq6tsmuYkn4PvJAiEflhDKWP46YREYkNKsYCXukQB+1
Z1mo6zVezgRKwMADpsFVoXND9I/JVKDDhnXwOhbnVT32KfjyHbQh5IwG3Fvkqt0k
ZHBKVWtGxmGetBg+OqpE2iyeME6xOUV+CVYFDkdZgeyQIDV0hxT9HhKhkTDfClJh
tgW32IsP3wmksu+UONUPUNgt1MTh5sqaTeTWoYSyGN5fX1dXXbycVwlJnvRDh5UX
VhXfF8+qTxo/uY0JC9AxQg/W8uwiMuyro8mUdTKPzTn/Jv552t0awMN1G/whFa30
Od2I94hhPtURjSsOy+Qjpnp3XavtKhG1dw8dhs68nALp9emr0jeDY6fDRXLiLYlw
9GTQeRmaxjy50FXrfyLoywAnGHsGhFiPlpdVdS+RqsBoEfedkdtlX57ZmazRwEDq
W5g78GaaJEQuHmk/ShOP8EwucT43Y/cHuNtleOko9tC69Z9lDrcysdv6mXKb3/6q
1u8goXTRYYW2vSgRG7poDbmiGbw3m9jmSuv2pqxE5bIHewmRR/mzqFuIt+Vm9ji/
ZWfzDWjFhsjzSjwq2ZF2wUbaQOZnpkYv0c42fVr1+cntqNbKd6oCr4nnvLxlhZp/
FyI+kL5WAAHFnvzXXCeHAioSanbhH0WBoy8KaaQsZNbIygW1VfEh13SVNhPgWZDS
1QiP2UnsNylUKhyBGMwRn7OVkYwQT9ShgReIF4xzG4bC8UaP6qALBcmDbJvzMPKo
FVnFlbfnSYeFjyGMlXlDM49++ce3eJpzUBLcB53e+1dff3mkjpudc5iuaj5IKb+u
qkxeutMbaOLXZ0NSWgz21Tz2v4LUw+9YW/KrY/NqCkePyksVjQ8E0X64VYh/z4Y+
eurzESu/8t7nhz5+YilAtw4+D4U1ZHYc/NjNHAdifEkG69jxsCpf03zSjeJ0Pp7g
9c/rr3p+hsNrhFP0OYV0NjcY/Zvdvwc+6M8bc1fxOraX3p6FCWnLr4t6Aku+Eos9
EixopngHWLMcQO0MwwytRs/ay6Rtawtdhx0jMq0qDbFp9S85TIvdSVTo6rxdYc0q
wqrI8OQ5R3NePJDew2pTwN/jHatFW119jw6ZOJ3C2CW+IloocaWebXdUPfYjKLPa
pzPmkkpT4cVHRkzOpuZn2z4p2YRKfBRmQ3n2Os3WOLdhjm09IwzU/DA7mE+o16Ea
F3lr69bN8SCp9+jxFLRc0AzqSMu7ueHNOshIkpi503/zhdaZZOfs/FrDnaHvPpFl
tO11NWcChEHWpT8Dz81/tfF7Hd7gyo9+r1KgfG//40dhu/69+JCohT1lrIsLrqR6
eW3FmpUayLol+h9wrfykynHP6Y3k8VhbFzLcg9gqDxdwAv+zmysedMTxX5WGdKFP
gSicRLT4DNT+abjd9UlOeLpMF+q8NS/XVlTtWixddPo7qFQodnHyqujwYB9l9kTd
BxsOQJ5Wg9G4Rdh54rDZTAXz+eM7XkfYAtPWGQ1m6RI50iB4/x5JoTiIIUOfST0L
o4Iie4qNdT4+A2zsfeaKYkmbvWjiGirqj1fwTNivuEGHNK2ofenf3bMm1tUBud0L
ax+MGHfx69EcOEJYyQIVCZ2iSKQhxC6rLEUUwm8aFWWfjnI6jyPYAuO0odOubjNP
pUF1Sk7DMRDeMFjoMia0DcODgC8lizNTkILwogxKkKOqVcNGfOnBMwsjS6f4sHU5
QefzHGlSP9rETB206r70psiV65Mtf2hbPsMDWlxsxBStheCtirwgsXpv8YZ2b/Yv
jMJ4NkngoFjSQASkpKLI8ZETgM5JRKW33TvBxIj3DIr3PYAKPlSC5YTjPYjEZatv
eX9qj/XUw4jziiX20URs1K4R4ZTg1wBYtT09UlPHuG9reKtumzCgaul5Tda7AuVp
RfjDKMh2IhsqnAyPtHkO0Lzix1wD3N5Lz13P/44bPxbeEAesaWSAwxngrDi42LbA
kWZ9Fl2bED1raZR/zlWoK4ldXsCfsKmyNcJ1/zsIEDP5zDs0yxtnFEX0nlyyL4bj
qQGmrrBiSaVTXafrBt5ycpfKg1kbGSWcVP4MV5dc4Qj866lU8AVaMvBzycwZwBIb
FDza9uaA/memWLMUBFcfDUeSo0+SGbK2qAuYirZbukTP17g/2IoLAcfUUX55DN+o
j+9Ab+Dd48A0s3bN3vQnQRQ+1yx8+e5QuvanYxAXl489AjFNKvBCK/jB6+TjUdTy
P0jNfWbUQlVr0KwrlaBcATFK8G37OvygVavWzc1VGxTu7FU0V5Hog94N+CHO+GlS
IsGuJwEojDFKTHbL5QVghWCIiHV+oTA71Noxf/FJzoIA2TPICU3ZA+iTosZm58ox
OTnAZk8o+7OIyrXkERkOo2NyoccLBSEYHq5gqeZcViD2TJEWhBvB3AUzbh2cPJtr
gLZYB60JwQIkeO5XcqxFr//vvLZTaPDeQHhLJcYFBe2ulITc5yl54QmyS6OQsRzt
VRP1yVzM+JF1moiD9cOTbVgXWhEsNIXVA1SPtSv1pl3xuD68vgSISHct4Nq35k0N
B8gi4dbfKCyT+O5G2yescBN7fG3+ZAvx0xS/fzbKSbASNe5RVN66vz/t0NGDiGBD
Itqnl/ZY2N0VAfJGpnMVxWgCcN7oB4mKFAcC7CqmxTQ+TDesXlokai7uh+vzMEGv
JyPGmCSLNH9ZbY9u2QxuXwWZbX3epghCxVxw0r+TIVFrq5iMzyfj5F/BljpOXfkl
OHiHmVda90S6Kie9XnSd0ZnXuytNS+/bL3rh11gq7ANLylinm6m4xvfXu13Cn8Rz
yWc7+wE/jscF1hHr54AiaiDfaE5tc0REc/aU6D56ZfM6KLY/ORJMx4qZmQd85VqF
xjJneJ6kY4I2d+KDBwxNnQ8v1K1oOiuEeku4WFz8ffd56TdKMhqha6tEye4uYbpQ
4RTSuiYNB2VOH0inz6rGPTvK44pUPk5HiOtd+y9riVTzbflIaqZMGvbt5D0QfSH2
VKBzodSxSksmJ+eLAu3Judn8M4JOaoE+yKmwZeY40ujNERVk9xPtIbqXV8R+dSyt
O6ZyMIO0M7wZS21ypnNMoHOgDAyk8biV02iABqnIhTqbat8lwBAH2Fej2hWapxV7
r8f9D8oWS7TmpXhsP5JHufTJv9iCL1/W6n6G6yXSsdMc3nHOv1c2AiN5NZOrbPMS
OWWFO3tHM2lPOzF2JXJESK7czRvWoxgiGVQ74ZZCmGmwi/PXdGVZv2bAJASoNFnp
n/fX40k8gCEIuY4DLXFzJM59FHwgFFgWNyt9iB8mMw/DC6ms9UHQlCuW8ZtMahHJ
hw02IC7Rsax1p6/xGneqYrXxF1/tUlaWonm1W/v6BpKJgd8I/c7HC4rrftY4eyUK
fDoEOzJ823r8nyhVVDjed6yGdcNhr28ywnfFpMP4KzRoYb8aH2fg0Qt06FG26bjM
ZP0ciOVvdDCuco+hUH7bjy/aMmZuOr5ld4DWfhTvjKhc3osUfNF2dMqOg+KKbrLv
7QEUyqxRmHsuUbjyIJjVA6f+vpl5wxY1kRZX38kTpe4hVUidmmdJOoYlm4Ov6D1d
2oB7pyRSTk86Uj+2JepaQVL6mvRZ/d7ojYoNeK5Kg/6/q3e9H/cpchpVOJPLDFAn
7cAH2vbBYM437MbroN1pDGZ043ai2nc5RKcaC1hH+ea8Fxiy//GGYGNE8snz8x9R
SKGeYutf86psb41whBTfglxxcMdlCJfcXcHDLS5pz8CVQ8ikOU8AiMAdF/9A/jOo
2KmiTA+UjX+bI8atWZwQoAupc9WZLtNzsXDbgN5dYOWuq4y5FxjRjh2vSqlmd1UQ
pbks//VcMDyRlT8u2SKbNNvjeqodIkTCPUsSWfhbisLOoihN4wXIFiO7G0Z6a+H7
H7dmCrKtA43Qy0j36Nc+2knEBVnjxbMlhZh1wllBY19uoOdvln4Tt6cpCy5kQObr
xHjXDdTwJvwozkiyBOlWT+F/sMfSeu9fdj7ik6KtKlCL2fcaxf8NzO2Mpd+XVD9Q
v+vpSn7PFtA06+uoHtE4QrBTHnwhhxVgjsTGBeJh8UUJNfnM3mZUNITrCBH420xf
Iu48iomZxKy56AVNDTPckzhB+piqelkPavTZ4k65OH87jU66oc1XGXglOgUQxP/3
YLCwIbO60ypoL+Tw/k3KePAPK7XvlWLZaGeRXKZf/AFqxbDWRT8KsMlkjajy0LCo
V2Fm1F1o4XskCNxb3k5mOuVTvEh/EN4gLaNsz14h0JQ0gTQnXE9Pb7+GXLmU3ZND
gn8QnkyL6zmOX9GqyljYJhvwZLnwwv4DaH+J2hGoDkicXRemYuX/QmahH4QVbzLh
I1Si1uQedGsNgeN19rQ2as1nSo7WjARlEIJrntrwfcOYTNHjIWwqbluLpVNwY7hM
0649OLZg1WvIcMRJUwK2sC0bP4Ki8gJRLrdfgfqhD38keP9duyAMPNotg1gEiYOy
3oaTRydM76t6zhgaz3i4XezxcnDxOoQHc5QK7j00i8V8RwOKr5DdPyKeCTrAvkyC
lq/QgYKkjmvuGe5TT8dP1fA49Q8nOrbGdG/IC1PQt8SX4p8hcYzcEdcmc9jyphFn
lCXvbI8jXEddBo8VxTuBJu9jYiuQ1PgaPldSuMHHuBGuiEkCL9xYJVz1gMam05GS
KZn0whVZY+tIuHB18/F10wyw9Vo2I9DsYj6yiyFr3oRFhLsJwJ9ggoGR2DGc+fEW
DCF0RlVN8KK276oZR4+WPb4s1jevg/CssSxy5t6F4kjP4PaGwJbAXM4emMjea2Ry
jCdt1fjbSYr8Rj48C1clnRBqwpeZEv5sPYPKXfSSb8+89IttE1GluPilKz9XzAEW
kAaen9XXv9y8rXAz5cQqcm1UXp+OYHhfTOx5KwS1TFr0jQm9AL+jedgxxUCLtBWO
+F2eJGQoW1qWC/RZJVp35u8XSyk8Q4Jvut8kPe4uLbYf7LCcUBn4rUtNJq6PXcTX
04bvpPs23Ewo4EqaphwrALDK9oowq9O5r8RPz95viGyEhDung4X27GA0Le6jOXpH
tp24t6PfRjYd+LUurBhVwCsH6v55L3QzfDWCNL+g0O2SJj/qtLPtcK5pZN6+pKWu
+O7v1AOGADt4ermH21pVgOP27y5/6+VdRh3NK5Cnk0Lcq9kNnyGTCVnQk82YrBxW
HDe7WpBHUBdzdYUgUAVsPTbyhVFJDK5IVrVbmrSDfDZ1yN3TvxHesDQdIhCbY0dF
hm4Ng+90URM1USo4MFQIANYsi23oFEW/QD8+GboQT0FHxUQrhyxbynbfL0SYCA0x
NL1JJBQ3WwbV5XHYrQosGhmd3P8JIkP1hHUh+RXiI5sn8/CZpHHDbEdFllnOVVMR
I9mGSug5R5wQ9wocTxpXRVTgH8WS7qjybS0QwXytRna8ewHQ92NOoSpx6CAipMbx
DyeG+/LQQvB+3caY7UFhqerzOnURvCnqbuL35/PHUXzTZc1cCpzhH36kWtZEYVd0
jG56Nz8eMcR34/GN/IZYgwDA2qbhv5YzwKJ8eXfhLqS+0lqERPBuHqWzWW6TJdbp
DQ+DU40pLmYRqnAbxQMItcJU4fAAQ93ZZWd1C6eYlkxQvmOHWA1Y9HcMGBLQTv65
gZSi6GgWcaWcNVBpz4Qr21qVcMNXWmmimiHK/1X3AVvbyHpcYxlXQIJv0Aaa+rpS
dqRgpbOPqAFMKKkZNXjix8hUOVgGVBT3fDDdv0HdaPOw2X6xuqWVKHZiTJnvhnBd
ItNRfSNWVbKAnyndmHUMyFeoV8TosQD2iJmlx1Q9EU5aj7Zszd8NG6T9rwZDbj/u
MWwvf/6pLr4xzWQl9uXRpz5kEmSKN4ZXDtsY1bRUVWoP8Frjrfs+zg/so9lJdp7T
GIEgTfmkShyMdpJ8Np0VboUYXytuR4fcCTR97oWr3Icztc8JtUXvmXAzUWeWyZAt
r744I+51aBGJlokxq32QQa381IWvW7CFgyHQOr+RbAVwQEdrg5Sg44DyXMeM3WbH
U+/+2Sn0UmhHcXEPM/INaYGCT/tMLTXkIiaFfMd7KP1wlbhWjKM4IyuR8J/V4qlq
gsTEkTGx4oCo74I4zsp6ZWRtZ/paZuwecMAlgV2msCSDp4htmxK9B5mGtG5eP7kz
Vfu9TzhHBzG4Y7A5BDt7pdN94dbQFZzN37UzKZmrhn9Iy33/9J2/Zi1LdASjbHyy
8HAdrLtzPFpZ03EsI6rTTn2eVF8xWPrg1Grcqf/xvmIxEK50lwa2Pg/Tuevre/69
5UiU0Jk3a0jg1PBhQNE9/HBKbUAeLRqTUYryaTTxQw+RXqfXDj5jvuECQ6UXQTp+
nqZ3ajx+QtdFoLpPjf2xJhcrM0vHzB6+XDu5B5kCTYrjSHACCpJA972yZG+XV4uF
Kn7SRWeqynZUXHm8t3eSMOwB4bs12NB5sEQxB9//0ydjlgG02fBuBXsqAQZXho6s
ER8V0i/uCmS+yVSM2HillW3AhAnRa6P8sOKXQlx+JP3L5+HAEo3BwtombX/lBdZg
B/nAQsWhR8Y1UHTPRKIxHLONE8oaeT6HOoxA4zU89wa3yhGCNZiuw1ThYF2dr4Cx
2d6ibPdCrrAhO/fy6PQVwL647z52Pw91uZLT76Fo5uuwqBUwyoyqumm+y5yYgUMx
hiRObYiSOQrAqAdH0CQD/VoD0/+5xy6OwSXzMi92VWQgMIihzNeJ7jJ3hSmFCyPc
CH6wug7XioLvOwiXVnXs+DNdPE6wirGcFqx62eeUen9fUcWQO4aAKzEzyNnmFOvn
mzdOwVQMbqcpWrJokiSbQ73EG7zy5iAbzawdY6uW9MvH/88yENEN9L45Zt1EZ3vk
FUx+uykyXlmZUC4AG+AEIqFrRE6hmFhUt2Wx4z4Rbk5KWzTfzj8bNLRudhpM3JA/
K8tOnPgQki8weZwhYVWNvACSHw5RBH83d0gJ3NIkQ+K8Wh3KW+29Hlfc1GlSv4Ys
CymQeiwV7RVH4THG0ZQHwBAt+nqf4NRSQd4E+Ln3awGZmSpc7BN5dKga5VGK53r7
ZONN2q746kKHsbKP9v1udDqgIH+LDqErry4is3TNwK702o/oOK9Fgfj9PWAhw8aJ
hgmJqKWaMJkPX7y0AxcsmWp/2yhO80H9LQZx2K7TtYqyLm8vhCvoBWcygiAYC2DR
3qtxbwMc276NtftH7RJQb66LiKww85B3w7kAc6jdVNRLQ642TltlF7Rs+GOsgiRb
jttadkGi22x+GE13g2DpIuFQ4UyItBirXumNLa+0ghrDnlv+uVw0bQvQAkRPKoDj
gxaMyEiI1ysoKaldfFM2nk4zRzHsBze9u2ApSahsPLxv1xTcQ+W9EkxPSNhZI8AU
7rCKe8E4FG85v7aT9J0Oq3j65RgqewSZW/heNJ0W6B9gDI/FT+v+Km5hcW5Crm7m
BpxesO0EIX4Ku+IIlRp6ZLfvyBIKeW2GGbvIPqlkMtD6XlsN8m7YNYCmQLyS2c1y
VmZetu/df1teNVraVO+2tLWAqb+BJ2XNreJX+wX2fYy26GQKQ47t5/u0SeMIW7e4
hsmNPcHPcy7oUiH3QW60NWtMHPdehA3T49jS8gRWF8EN8Y5pfho5vFsoW0cVnqEm
vP8HEjliDi7/SbvZmAXjb2iMg7LqqTLXGwr07pppsZf99qOARQMbXH3D2ZnzDLim
YIJZON7A4jmRFeZJQNNCrM4tp9ZX+XwF0IifrU0wcL9FbZv3XNW+u4NyuLZVZre4
bokNT+ztN/g9D1aOJZGLGfCEtZMXyQfpdBrBBvIn7GTt/AoA2LPyWTCwngmrGJR/
26phZ+rhEmd8WCRMGqOJWsX/7YhTfLi+6Bf5Wo/528aLPue5S0NuzUxvo6jJYOyd
0ymaXQq2WUJ10DiSKvTgOv7r11U+i6LtYa5ZaNPAnHa59SJ78k7pfpV8+Rpwdngb
05BbtaKYEwB0wcgiOM6pmkVBfcORSfHCwh2II9ruAPB/PkUunP1yRpKM6UNKZi7m
a2rONLq3Ee9aIhEsNDeY6a2LStUvbB0T1ChNkChB7Ku6WZi2xfwrMarWmfLAvyF5
FwbcrJQ+FN0NOayCLd1en+e1kvs17RjpalDime7At6Z1bWUebSAHcDyclOaFJxyn
MOb5QAmCZnPZyOUfUjHsMyELuzVE/+8BxgSya3WfobhuZJ8LD6S5Sn3YLL/qBMZL
WuCQxnZ2qYxRCXLwWk05E8xeCCGwv5o1V8d0v/L4qGvekJOGhQ2oOaw8+Vv2tv8+
cvd+zhhMkc6N8Yjb1byUKPETx8BuXuXSUyCai2+48bqDvOjBk1pumRZJVTwA2gNj
gWgJ2UEZysVGYbNiNovPAUQ35mJEl4PLHNDBcbhGEOmJZvvjtv5itX0bRQPZj3kh
0tC5rPPjWTFrelH2FrihyZ/XrpBbRqZmvYqGbTtHif1t5F5QKqfU5aej1nWJkyIu
ea3MvhFkxf1Q6xunPpuNxO/i7O8QKSO3V26JHlyfLX/iJ/NmLtdkjCcSVmHg0pXr
Cm5uhGNl4pxBVIzLaUNsq4/zqnr1ks30zU7iaWiWABMZ4B9vA32hDXNNM1cKbd10
tPWXskqCoUboxBXPyFKzTTaAOQFBUYbNMosevdF0iv9E5WExqHeJDbJhNJjQPII8
bpaPmAc5EjaCyXYdEBNtS/7xhjdOAeL6jsf2WpgOJnUbBzpdVpgm7q+fZkiFHdHu
i5R1EsHCubXxPoderHeplw2O+CX6ZpINK6aGPuiCDWn5fZlmrbahVhZUBLYXGOLw
d8EvOSmz49r2e2qn9I3iAV87vkPy+BBRzq9ycRrx6BBB3U1f9J0X+lirC3c5LTYz
GIbr4ZcxotkDh05NC0YXt7NhGoGJsxW/57qfJQ9nO8hEukRIHnYGUBOSegikluSh
ZB5ph8Kdlv0PCVjijDXzjQemzuwFkyEaCd7qKbZMDLV8fblpprASd8WEAe+DJyq+
41wGuSRcI0+khKEhB2F9BlRA9OUyowo82ChyTWK+ml0qsn4nu3Lz1/lG+nVXASZ5
2MNPEt0S/Yd7Hwbvrwkd1uzOy7xTs2yKlYE3pXv8UZBWzpBHoLoGLcdewj5yqGBX
8/+AVwa4JktFbvtqmB2IxSXQtAZPtRmXZ4FCmMwApd1tYlIint3/xgWPbdgqZc0H
anJeboOhwD5XgZUpGPFS80SE0Pi3sX4iy34cPdBG9wIArjGi78bpIztXBEj5nV0G
TM/CV+KcU37sy43blG20KD1pdB/XVm18bE7efNgwVk38JJ4mDWvEYAdsqZ/iHblN
TAg1YEOHi1q+YyCQyUw8IjnQ6u+7rxe8NuykLaCW4nA34hYoiqvIXgZzPp89A4aq
tfbSdohnt93S2aS4M7XDOeJqk7SL/KGpDGraftluL2DGVObZPNFZCSmX15L+02vR
kFeOm8w5TJ3JQ9wME2PiK+297x7V3/F/tfqo2A9ctbdT/+7lPv10ui0eRa8aEhVJ
XqOEhvf07yPuTJRhDdFXj/By0dOXkdBm3mmNsiTfDlPhpf1TY4j1TiL2902K4rHq
cUaJ+sEGskcoo7TauhuAqk+tQ5+6ysME3tUrcguPEDzd6VKc7owukeKrZqXv/Wn5
2u1jzlYiD9oZQlIZWEduxg1T2J0mmME1TfbQr3P/CYPdEh0zDCR9/61M1KnXtYaj
6/F/QTU/yuMCu8nLqaewunc3F3HL+Ztr7N8mibdybYQC0t3kDUnY6B/w+dhJLlSi
DDKIE+1r1z39blhXhFez6HtWjAEVrCIsv+SsrBEn+IbqpuQxaDJLZtXxp2fye0YS
OLIzdJfchgIcMAPKUwCfLOU4ylZKzNlyPRyBvwY7dEDCkK8NbTtiyCbQ1EKcT21O
edR/vS93QwcCTg6sUcnJc2Dj0nVfA9/tmwijDl5RKsAl8mG3GrtR2KA2sdLUTaa9
PHq3tmHAxxjYlcpjky/3iv8owi5tlodT3r/BZzVfyKD9IHOh6mrNckznnEQMfW9U
56Oe3MT1GvoB36ZVZq6gHpyhuwxOBJneqqqKyC4uDFTA0B5KNs0rqCJ/Fk9bbOKH
5ain2Qf1UgKcUwEN6iJodd77X2QkpmGZmnn1m2A20IeTGyMZutMXFxiGSELqfXI4
DMMZnnshvKTEk+mWAQdGBVV6bGwAqJx1USGkv29tDeRV8EhUiiEdRv954A6AknZH
W4S2IK3HwlXCU0FJrfaCGic4EvA/Em5AMMbTRGQhsfS6kWezgdQQm76LDWtTpQcy
8XLDAcFQ96rb856tBSHXHQOMVdEQdBWP3R8MBriNHj+JpAQhEVRwL39ySd8hp00/
o2b8sTwDc11TbyUXSoKidmcPR/taOLtaTtq3fZSU7O3aFs8Gjbu6ZiY7yG6aljPl
baEzDVYYuBBpXovFgU52EIPZI5XJ1CDJbu97xwJwJUKL5LbkEYdg/vSEIE8M1Ccs
gybDnnY8L7akjewi4UYRBfN0HWa+SMpm+LV36rR6Q0xrmaoH6lmt/Fo53Gne9g10
CouWbKz+5wlZ4aBSdeefNKjXYduaHAQl9MWH3isMqn29mIUggViXK5BowHY2oF3a
kWmgWl5YMsAvezeXlZ5Nnyz+Ta7o/t671m7fO00Ou9O11+oN8F8DdFEA2hW9ZM5e
+KR7jitdjnkvNdp00czz4di69kriAr7S330JUWOLoOggjhPC2NJa+Tpm4J+3kfq4
s0GSucoYZ4NdV9LEDsBpM8P7fQ/RhZPWr2YnbU6rv4wVqu64lqsvLR8ICr5T5139
9Ghx0/cW4Pkb4KPvOMwXrehV74WeVLpGRx5MUdete6Ml/PjuvFhl/P9TJV2H3IFv
z8zRpGwS20tOS5NW25/2NS86ij1TY93kYqXcS18t8Oy3CU8tbbyyskWORMpB3VEf
+vwYVwv5rK7D7qUIZHwyW6vm8d0qnq/JPZiYva5IK7vIu3jkFjVbgr9qaYcvbKsX
toYctIL5HZwhn9SssZofbY/pbMxJ8aHXdMpcLoBov43QZOveV6f9pOvMQbDGaHtp
tOc/qDbvb3SaRyH33abucIjt6SzzA+lYr50p+s/pCFwkxMEAJACctwXma++uYzIN
rcgUOZbmQ7oGlwPjUloAGC7a90kxMbo+XUfJ59SMNhkWct9zZP9TmpWMT0XIHwjg
/TiTyaK8NKgRuCD0xfREx7XwM1JuUOHChXu7kYiJz5GN/gF4P4VI7VCb6RhRYtgt
28zypWM+pC1Xso7nGXqRDmIx+sKh6w+bsrJw+4fKiV9+UrYTgp4o+dtNXjl5R15C
BQ15MxY5YTCx68oVdqZjQ+r9sWdaQKxRyiBty42qOGZVDwmzLti6vBrlW3COWBnI
S7Z0GALVxjbIIFaf9Cikc1vVkYHqQdVJsXUWE5NwM8m3xdD/ZVdiVkBnJGAW93FY
ehAj0i82FekvRcZY3Ua30i0slyHCYKfZwLWjTnMP5JtgDBG8fWTBlbsws2tV2uvV
tkhrFgvsWaeHwK0lkw6NRNWnJkqs3zE2HSA8obUOmwKBsqhXwLr4DQ/1zb/MEHu4
iG+/DMHKyfzRJqk+w30P0g674+7Huwl+OMU3vx1D7vm57IAZSnY05TRTFLeDl87j
ZNAat7bWgLEzhzhPZ747qChWRUXSLQQ1+NdYU1B2XFCVUofgnzxlviC+YcZfT+qi
YF6D4dhUUSz4Vl8rXxGCt8ixH55PV6HSZHP5vIsh3/X1X8VtIZhmY7b/YdJ+21Fd
IYTNcdns1ZNABVR0DLSKvXJi3XSjDlglnsvdoO6anjOoKAsD244LVxVQNSLCfWK2
Uu3d8VMKzN9iJFHcF8/ibf72an9mNZCawn2NdLAgfnShhdtnevO7DJAP/ZMUtr00
fpNoCndhFwjrCnC8EBX5tzBz6uExwwpU7RxJsoY6G5W201xs450BkMNoFEod61Zc
KC/uwN6xxAzXwBNvdCs7UcKGDInEUa9KBXvABbdGgCr5agxpRXgCZaQXCwC3SqAV
TvPChC2AtQERsn5Lli3uGhGev9+XLt453e43wGZOpxKHC74nXaZOR9dFBSUWLJd4
becIIb58BYgb9j8yd25TnlYqN/gPHsieA4cDv/EzhHox3dPGrzHmXt2dwB8agZEs
StbX2lbWbTU+KESyfXZrgnnLsxUD7ILY8GF0fwtFeBGQRKQGKEIXtzkQZEh0ANgN
FIyVvg6Hvgq4lBK3rOBwwHgGro2RjIq/B5pUQcX0OMMtl/5KMATAzdLdwACB9lSS
hzjZ7pJjjviRk7AXTNW2ioeeuS8CX+0foSSltJ6Ghe1u3wtTlpIeuw5w/Yfx2kkj
8WrpAGXT70k2eVr/F2OF8OuzUSpZh0xgDxCgop7sF/1dQffAhfEHlhJKb6S/tJlA
4nxCphpVOCknhYEWYgE55Bmbr14OymNyzIRah8lQB2NHzP0G/KT3EVvlTN5Cb9zk
zZQL/ZHzoTgfgqaxYISSPhsUFwxOUCV0980ymuUnrzKtSyDgD62o20sCnLnO1fVJ
AzJ1W1c3UrgyMqY0yjpND+o4oHdrDPoEvbcTxtyo4lHUyJyupbwc27Cg/dfmA1/r
g1XbZ+AuwJOfs+vMGP3XZTuVDY1y/2srRVUPu/4xdd6ikd5virlCdmW+xrHxsDfq
Z2MuiB1aKGlIphRAsZjqMGuyub5shN6UkPGLEN4bu9/j/et0KoPWFnzTvAWydH6o
1zSTHN7/dGpLxEoWkY4gxyAxyYjSVHRaiUFJrL5OOiNYzfjsve96j8dVv/4RiQFh
7WpaJuPaniR5S7g19lbY/UGVkiMWXYqlskSUs+GNwfgivAPPicTGi/vKOGNIi4bp
T1LZJkkZ10SKS/ybws5tZuCZEz5/KNV9YXdmCC9tRl3r0V/ieX76bbj1E+pet2Mq
yj6M3lWezg+o82OaC3csAtn6NyiQwuq9omYJga+jCfNyZZ6YWmt4Sy9ccz9mjfR5
2whGP7DQTCPnkQHvezqx3EegAyAJ7SfHDPhp8aoiv6T7umzLmulZmsc6hfawDuf3
Ga3ocymD681rXNZX9ZQgstt8L6Db6tg5wu/BNOeKd77OrQ+khRwkD93VGXSJ/GEx
hifIHwjELc/8g0g5MSuslg5xuRq5IM0qMsnL7W7+DgDH/IjsaBMOffU65E8/NupX
H07pEeQayoxRm0PY5tfqrek0VsgHAOoOs6O+s8A7BgUqq0yCj4fkZJ8UC1PlqRrK
shlIBfFivXOGDRkzA7evQRX65pe7mqYFmxWtomC+sYT4zXX3m6Moa8SOhj6ERpJM
vzmSJNcm4cxPRGCqRHBpgJLOkFYbsA2TdCMIRFZCc5zr8ssg6gpACDVYmT/vS771
4AHFteZ/3NbTFt/+gaSz6/vUZwybhlqnrP7sZygb5aDnnvGK6QcaqDO8FaYnm7kU
1piJh5gmjJnRGP2ZAZLzM7zibtWRzGrcdsVm10OaGScG9V5JWN/7UXbgl3HsU4E0
2Xiqyo0qqBbdAPJLlo2kJJWc9M9VpWknDA/hlcVhaEc/AmVPU9IX7nrPZR7FZWSQ
K4ivWNg1BbodOxxkHVulHFHAv0uznAviLodSBY+A/i8h+NBtv+9O0ZlMXKuro5ey
OyRSLJe+WD6W24YcTmhIn+Hd/m/8Sl75X9EYPs4AyHwhaU2q690ghd6ulZGiBdB5
jdlgFy6Dfo3j+/Om80XXohVNqEjcHFfuTrl8uIVVyLCRz0x2al+7B3+Ush/avSh0
eoo/6OQ7a33wCpdnUe7bhSE8Itsw9EFZijDMfTL8r5dh7yv+Vw4CFcCtfCMRgKOC
VDoYC+7WUZPlXT8H9g+CN5hU8fZS9gWh9LaQOsBABVzDDem87ac6VZpHUDZRF9gO
zHtfPX5+4vaFlZtRN0m+Q1H9yaRunZx8J89a3FUHtF5ht0180hMSNGMyh1oBULT/
/XbFz/8/yDf3yryjvV57Z59G6V0M1EAEYj5cjVb2NzaGW2/Dg//Q/aIlzg5ybVq/
ZpLtgLIH5Aq1bUkVsWTxt3x1b3sEWibW+I9manuBUF4tTkzXYlWCtGYStHGraAIG
uJMojCxwlTgBPJ49VwBmqAEAHrnJkfi+gLXf1hKSw1o13iR4iSk5E/72mDbWSG8m
aadynkp7jdiGk7C7p91EO+8EzpeIJKaxwQt9L9HU6GUESbVbhEhOSDAWPpyhyDI4
6O9AZX0xtxECtMwSaJZWo/9gAcwKA/HMKWrCNC/fcddlXbuSg8CZZ3rAQiKXq7+4
KSlJONEyKBG2RO4Yn//LZufKW4M/xvMzCKLMM81DDaRPSwH5qGPDMkH0pkVebvZ6
BQ0YvpZb17UapkoDG2HPtZlXHK98ZqIylp5HmdAxjAUJ5IaKkhr8HbZE+6T1xCv3
kkD/60LbW5vWEbkLAx50TFuBfRhQN+a9yX9JsIwu/mt5Cf+NaeOUFC/U57jvsBse
ePL0jlO2d3IhO6gqHUfDiQ2uINQGAd5/leUZB8K7aS0uNhocYietGyVgcnw/56fK
VAe6nQ859bm9au67tesr4ZJfn+8vVk1epEfNmqEDINKqjDqLEFkmXUcVq4RcvSLV
FEG2JQvvUJtlAL3Bk/TXQ5RBJ3DqaR8dP1HohixbsCBQA8cSrxxQpxzpPZwQiip4
/zxlVnb3LoYt4SNs4xPuoC8XgOmwqc5L3q8fIQJtKMJLgt0Cwn5qN8mhKMObTLqu
6DAyAFeb/XRI8OkOvstffows3Xcuw5lyCD8rj9pdA2QKFbAMBhOCxGef7vPFQHNX
HZUkqfVPdOhdoF/lbzKuCtrQBC2nI45PiOR8ynm1PMCJo5qBd9pDmQzRGK8KnbbY
TsyKaJozJvCqcTJLpLREDXkY7NWNqCRWUsdvsazZ1mwBgPI+hMoL7+Kh5V7iTCk0
OAHvPFWnDVPeu3BZmKj6KC3g44d4rxu2DqHJc7wOoVDstHyVlouO5Df10u/MvOfd
e8QcuzINdrbFkRew/Hx35i+R6AP9lUWo67OZvKOxmn1LouPENTkQj/DmSLTa9ipx
Ht0zqqy/PmSVWixajiyJqfDHBdnFQr+yDAlbyhi62VoxJz1ii5CLpYLS201C5gZ2
eu86sAZzjTUWHRuAIUJEfub7bhr+/2u4rJbF2G0x+ogSpusodofI/Yj1mlS514j3
6ZfbqsxCaDG7jY9w8tPSVO5KzxvY3JV1UqxT2gS+zx20l0BNxC6cjyqrG5wIqMWc
96Uz0sGORWqisN+E6SCxV6PBOZcEmIIK1y8TNkgifV8/5KkK1PZz7v1Tg1p2Yngp
SYlzcNqvHG8GzQxYedTySbWLGUO8vuJa+Z1vEh8ZrljLUwBYVY+z6bB7XB3CF3fq
WmbGa4RtWRYJasS9OfVxIdK7QmOQ+v1HqcLVHPVkQllWYk+Zom80ycVfW22gxyNf
wuNRuOve6Fq7N1QC3Oag7aW3B12yOiZRNBcJHdRt7tZJsvZBUtNZ8IviAvaRxwtF
FUPaXaXsWBtzo9e47fvxTMde6DPUXq+SlP8WGJgvAXdDS4yIzt8aI0haMD9z+KZ5
AXh1RbxFXNhD3wanLVFpCZmvdq0E5ehHM+MZZGPKgfllJujWZKCOeMcAewG4/bXP
/FDHzKiZ8Vs6ySDOjXHiTAlpXrLseFvNg4QMn6aaB3C1H8bUN/ofjJLVTU18BtkG
NLL8V1o0RFhOqT64dX8R0dOarwcxKHohzYlFwVQIM7QnhauZNKtTGpJXUzylAyjL
i8M6TNNQkxRdOc8HkPhXS5eS9WtVUPXXfX0qxN/WyuHl54a8f3zPICCTH7dOt+Wt
1Rj4zYTgyeduZfEfaZMleHEVAg7umQEMTNAl95IeJNaItckS2t7vfWrc3ugY3PXL
EXuXDvraHjNUxmYdFyDfBytCn5fEnvNTmkMH+HUyQ2x0M5KD4XU/o6YHte417MjG
YPCsn4WOIYvkp4wLHjKjObv/hjCAryEZnQHD+koXlaEBGKdi4F5Ll/2XgCVMU4+F
i8M/fYdq2qQ0vM10X36VNHmDdRRvilicNitQ4b/I+sm1vO8CvjGRm9wd1non5D+H
hP53DZhBTxvNb41BQTQSyb9PQ3DnxJuvnYLxG6gaNts/e7e7Iu8mHH068ZwoisfI
taHC4yRKgekOXp/MejfvHuxpCiRCShHqbjFq2pVf44NjAjAS6fHLNdGx+VKKdd/r
eSv1Szi/ZoKICRZzmgRlEUak1QKilqivLMWNO/TH75kAtSLcgCmDo1Cor13ElO2x
JrrSbcmDQ8XQO73BAO6878vCczSrf0ykxocWrr766Iki62KTsSqsDgHbSM9Izpmy
sOQtRW1nf0CD0ab0PTxgyLCi9IQJNhbP0bpur0v9rCC+lv9p1IgceupMSIhVkb4V
uk5NwsYuUxbessx52eqessbIhj3ppvGQ09qgPWsdpTYKRwo5GxPCTScq6+bd3gZP
VD0a++rKK/ZCUYpF7GBwiDZ5VkaRL2SgIbhGsUD9PLpNFgyoCj8WXzoJiPG95uL+
wgKT4ypXzKJqTTF206EB8GFvDGdnW7n57AojV0q5lo/fuV8wL+T1miLxFjsQbmLN
0d9pxCz0omQr90jovXpzyn/SpBZoPgsfuOdGfpOdawakVrZyOfiTmKV3qIp1It3i
qUdKHwoXYHuKiR7u1J1EhYolZ7tOQajp+hsGF9wZApaTGpBFI61id5j0DFfjl9ac
CAV8t4tBP7tpZ+5nc8Nw5q66I2AF700MWwrAzrOkfVTQ0dcQTbmJ5U1nyBMCPe2z
o6DneJ1oFrJ1Z9kdbxlXeDWbPbdooaFcU6haTBhMokmNKWdTN4ZWqMcPclftsXm5
9P3gAOI2F7M9Via6fV3bmBlXAKCH/TDfIhYwFdcVpABFd7c5TXCJcpKMARLK0qU1
vYxepldITkridjsWUvLGf+UXoBq0jrR8WqLrs1qjG+0SJea0rPfUI1SHAozFA/PJ
fEYjFV6kak33lWRbHnLnoHHvjJxQ6kDvEmWTFvI8tRJICVirQ/SJ6vCQD/Pk6EFJ
C6uhXMNxu776aVjJWxKmj4RljZAmjYlEmxg4oSgfyapAlBFuXwLKS5Rj3uo9xYjz
Con9OKyLq7y9/iRXHWbICjP5E1b7C2AUNYxeiNUR1CrBcZH2Ha/+2R8bWAwEcX4U
oOhqYSs3DpSO/T8bT4Uh441V132qhWbuS38ZubxpEhqhySr6CaQwHvFXx5HsMXxj
46ynfCkxlkP2+HLuC60zb7hnHJNEdgOhZmLUMHMVD5IOKum4bY6bHPWLDC3zG6cJ
zutxNxXbSEsW2T9PIXx+f4LFC/tr3m/aB7LW0mJvYUfOJ6O1pGReIpYXQTNwE8we
rjPONctl/B2i2YrAha1QafjDV63I86tQ8uI5UMvYQH1HfzKgXg+iscG5vEsQ6PD5
IP7GbkUrTbHPbiztDZkBaL70+HbisewQ01zN22465ez+/b9KiKQsPllEo3CTV4fw
9DmtspiVMXauFyHxI48Y/OcDyBArK92uLKJVeX39ZIyniS60y4YFzg5skOnt7pfk
Q3etIP4reYofx5ufNLtPL2RAXfLi2WFKxns0BgBppbOTOeFifZjblu5vljQby+0n
U9E2RsO2+PfMaljjSNSGwf2IQwOUB7+RXcPwret9jImWFHyjMnj+iJeG7Rp7jMk4
k1VFUnhEySSyHopdwsCPUYzGj1nFj3X1+sxzOT5WUV6ytKHs9RtcMVHCqR91wHMF
8pcWnNciGeiEA88MgoUfSnAgmtApPpF3I338qSk3Y10vagr0ww1nnHtOeVerSPXy
LEV62I3CamprzeLVIYJVo5rU/5FMYamSZnoaPZbObtUy1cfTcXYPELQJSyckQ8lv
mguzotcdYxElHczqotoewz5kA2N9JrOE4Y1rNdyGyK7WwOHF1es/TLsG9sr6sLMu
MdR1Rv9wiLcTLGazhtRji3dz7TRbxzZmGIsPDaPk/yChA5shVLlgpI/cP9oX358z
bspvAh06Z2z7lce3vEusTfCBEuozwEGAKYDvho407CCeOHMmtm9uVw9Kfb1+Yj4r
Txcaev8lKrB+ic2Av5pDb4NpnbmqjyE/PwP5AN3TZ0sw7+okn501Wmvh/58gn0M4
fuBAhUrvFjhnJ4UcZ8FtGb0yIAu/XbkjnsBKJU6AoCu6UNBEkt/lmLZihXGfiFbg
qPkg6DHu6Hovmy8cHVuhwVW3TFqmY3r7GW6x4PG8yest0Pn6hyMe2fxe2Qlw53jq
hZwSJhYlAX7mU8Nr/GaUErt0H7cNpbT1pNJpMj3e2MqA34MVOdtvkxx2tQ1F/iJU
ODsmpZnmmXxHbBLtnWUt0xGF1TUsmCEt7uH38VIi89sG2iMIIhH9K4ivjsCTkEa0
DibS/qP/OBPxkvNasWtAAJAjcgmrUOxaAIbi+FofwzAcxaRoui70JXZp/4coJKby
dWbxShYRwSp1gNNCl4YhoQvsL7+aT7ozLRKVFKbzGEFcc912ctrrMvZcwvNtFhSI
XDchzijwfR9BzmY2crawZY66+ihM2bjtJBwht8AK2TWI0FQLy8se2zmvvrIf1wtF
4kCJLu3+jdTsbHSU+cpXopS+oYoj14EHLydXYfr9xFiWqEiD+prX9o83Cfm+yYvy
A8t4vwMsb6FhaxDQDmmM1PtL7tmlDQWpD2e/WV9o3z04wrrAAyb1MW/BpoOdNiE9
HkhPUtCKoq1BL1fHg6JQrboP/ovRRBN6K5d2ZrxGXrORneLZUi0uSOmuZkE5gfrt
A8sKDXxtSZ7kQLRZqESfCzBG2wusm+3DYlcNdfKke7il+S/YjfHDBkVBjiwSyfoP
FG3CSwNujw2DaB52vIBpXrbohTa/i1ecYCOmrHg5GE+syf+U+QH1ca7qS4otxPYV
pDe0y0XPxHANoTe2Sl8sIhL/uaNn/XR6sxyBQb2VrLt4ToSWQooyOccDYni2KzM9
PLATVvrhzRy33by1OjYHFG3eF+KfA0EdncnhVEqFhP0/1xWrtICCV7rlifOx9tkB
Hefc8gApb+cWTcFinT/E8tOKkhcqwOzamsPFaX3GUTagx0v+X9Z1VH8p5onpR4cI
Kvq5dWao6ii2FmsydtXWoiet5r+OIjjd0qcY/V4+Q/LbEwdPwi4XNZCEJiZrMgFa
Lc/qrYK5MzrQOyBeB+v18ZkM0w5pzHtjmV1rIaWwx1/EiTgeMymX313cHT6HVtpS
BROKcOr1F+veZOnveu3vP72AlE95YEJG46WRvAubzjmjVXUVPu0NPRvGZr1rUFiJ
1zkzHcPBY+yX2Culr+s+DqFUxAbzNOuis39L/dA9fIpbpKCSeGymHm6EL5wKUQ1x
s8Gwyqy957wBsewQynr/R9YDuBLqo7tdSWmMwv79ncWqOGNvCA6OSCofZ+AOjzDd
V0uz0xMtjZmvN46DOeBZfsL/zc/MAo2BIGA8+ZYfFyvdhouxQqT3safH52FLVVDa
x4ZFi5CzR2TXWZHbzi0JxG6+kc+B0oNNXtxCAlTUSOhG9zT/X7aWU+ewoveuPAbD
Pf6qa/3+IR2YGJjFIXJ1xsv14aTT8ZduSEKjNm8WTrcfQNHc9DSG1GuL6OD+FAkO
Zbey28PBPF53VWXXZUJDrLxjjPDsKq5c2QRAlaP3vVYSS3Oyi2JtNbHJy3wGZY5D
s9sqgjBIQKFcaotYHuQZ6VhfKs9vMB5m9GyMmuvrm9sPv/GZIpRPJQNIL7kP8oXh
YChCTsTQFWC9vOqseEtR1Rtiy1rgbx4fPpoA+9Va+lLGLLLaV/8pWfGQuyM4DUDn
H/SpYEYRNxBZZhVqrul1vmBZed4rD8yQM0A7pOyaaevy6M4T5edEOHuPnWCXxaaQ
UjycYa1Z/J1GEDpVkeWVKJIMIJxWFkugzE69cgcobDJBjIFZtIxbnk1rvEPU+bAQ
zlidNd0lr/OlygSNZHPlqMBNNZjMMZYmz0eLL8SSFrd7JmDCoQ9tyqgGnTsdaGTo
u7sY/RYQsTKk2jt2cTbEeQydJ+9WIYlElgFeeZHjlmIWpNjhEJMhSXh3kW4CPS7k
5u9WD+49Cq8IO37YrRm5gkVCIYpsRk6O3vH7gn0VBrbztzZioJ+vfMZ3K1ifAkDw
37ys9hNpQjgjIYSqzWsfHDDff4qIlrG6D1kp/Ox9FLRbyRToZw6RCcvPjOS7gioY
4i3kCfrcCISiAPxu5IW6bvOsERpUABz4nvMcHYDtHywY418PtF+qNmKJdJJ0jvbM
OJ9Y3yYpZEiWo/ddDjup3Z8irgKM9mbgs5bJaI6oUXN9XiswTW1QEejw145ExOzF
yIWzJ6v5kFbZkZKkrOQZEK9PqKxenDhhFCKxyHq3ZzX+9PJ1oSlmVIV3RuzGEIdZ
X/b309+l+ynqgMEu4GHO+TeJKQyo0k00rwm9brsJzEyBJLxxSfXqD6jDo2xyaiYi
leFDmjgGsYPpt8tw5kEsA1jWfUNB3DsZqP/7aK488IgsIrxRObZhlxbvoeyOgM2E
jZU9SN83xL2lj2tLWy8WyVPsnFqNyvBWL25JlRClFEf8HRf8akasjN828IrO64K/
w7LhP8hlAUvIbY8sD1V9u2Q0QBqVcDy1NdGDHmo8FmqF8M81gJtiIcB/96PumknM
iM2izciwTEQ1hycI9YAcKUKybVJjGqA+qs+MOwr6bvEcH40yugubz3QeyTo5cCzB
ULjDmaq/6qGY/lg9NYr48Wry3hv05w08UNXdS+NQwUZp2AC/2Bti9UcV8K3bgmNu
zjdBRUFvCgdGzBjr8v5gh3iD8Udq06x8JhUT29alhJ2GO3ecObEQEn4L6c8CaEb1
ui3+s/+fgEbvsCxzb8XCqeW0X7nVJGrwRwIYH8xcphlz0sFsF5apkocK5SNmmtJW
jfohm28WtsZ6sI5iZ1n8P0RhM81JwgER1FalIPI7he6nHfI2mmNJtc1r8k2892ej
KBUPOo+agPl5PGNFqnjrQFSkqv9u1MeDcPvQmQjLNt8uuzi/cF6AK0vLQkqr8khR
0F+q0WC9KxDKx4o5yujvTBJMllRxhZKhqg8brlQRvZnk98fALWVDnp/dPCfZIYBR
yS534fonud2TO2759AdJ8R6G0Z+wVpTm8DMuqxb1YzUZvLSd8lAh1zyBC0C8hUZH
kGeaEP2SBRWDsi4dCKBqXCCOFulPMxwFaD0CtLBTrGH1u0yxjLU1NNH+x1bqEUBv
jrr3qxbFVZiaj/8oenn77kllXptqMOcwMc1hSqt7gyPEkLPxOJKBGt9OrEQTGaQZ
Jq8BMA7i9MqG/r68ilDps2ZZSh6ibvNmG/H0Wv81TyE0r6qX3cH0kFjaRrluP0yA
LgLn7yJkEEaAZtlE4IB93uzCPezetjCMoc1pjiSL5jRzt3jigBLNHmxvZrs5SDR9
RGOasEj3HDeifGcyRMAaPrVyIaxkB8FyZB3jljf+bJdqTx/e62TvLgwxgCV0b8jC
xXdFJKPLWsrv0NxXsP/x36MrQWfnuHFUcCOBnqZLrjsJ1p+mucwJP5L3uXwakYwI
bNhhp/bQajeyWUJuPGzLTer6v0ieAn7U7B7w+TLeYYzgUm0H2tkVpHk0DloxMOFl
ZAdt76Ob7w3wwVRZ2RlGXa6t8RNqslPMuOfh1jH9rsjf4tJjJuO1PBYrvP906O85
vzDxgOVVrv2w/QMLactROLA4xhC55cMCNu1lOvL4gMBKeJKO70bFJ6ClZzAAuA9B
tor0MjTsJc6R26+pGC5kQcqM5uKgMUZbmnAlgxcdC8I01IVgv/gWAODLLmsqypIX
SIJhFmPciSLT5saOXTs6YxmhpKqnZH7dk23HZB9ZeAfbJRXWkuOipZE616gxFofh
6f66HQjrkfHCZdAqTF9GzNm+XimIBnLW0nD3b0qnjh2W90hn1qbEyxfQIXIdTl7H
ZhdmKa1bUA0F8mLjMtWT0C4DPf6o7xPcCSfN8vAmJHDSbUk0Rpg0+agqh/u8Q9aB
+jLAijvaSKckhNwlBiY1NpzT+T0KNm31y1bG27Rpb+lw7yavQcgrld4FoHFkU9i8
gTTgqELwICiHSIqOdD5IF9QsMpOWI4dV1M4bz1HZl2A/ldZlsV2r52oPJkCsF7zN
TWlotlzp4DZ5y8JmNOHH1qfzEuQKbLyY0VcD3dE9dd4DKQE9lP9PBcFYIJK4HMfX
jxYBr3ecqJG2BRmgqP5YZDukYIGxgICLT8p1OstFBdzHmsg+tOLFOAVRE7ySVMif
KaW912a61YQH30dJcZVSrDOZ0CFftfhV7tsqZiZqizkSowu/ay/vFSQNuVaYTaFp
bLYYMv6HbMgbSlrT7R5byJLOEaAXvzgR7EvU0F6cdg0hP44W1saHuS3HjbKZtGK+
YUN9wCo8p89gXnEWY6dn6ktcL2/KzIZ9FyD5Lj/A6exaSqEg+KU0p4H6+/WIY/uo
3xTsXLvahGTLXWhLKbQiwiP57o144WbzVDsFZL7tFKWNiyXHDdm8T3z0dPlh1yjD
xxT2gKu21JFyP02sxPNrcL75R6lY3VGpK1prlG+F5sp1U9q/gvPS4621j7KBK7JK
Wk89WXGCN0qsviAoohul2MnXdkHda02C4QU1t1K3LmzusdRLtFwXBm76gS7Z2QZ4
tFNScsGDwv6BMoaHQ/JuQNPRX+kDx3tQ5qq4kR6UOKP7RoifxKZIGRyCEfV+7B21
PHbM8Q+9c4Feycwcp604sG3+9v8lzlb38iT21CLagAQ7evVV6ziewRQo/ZAt7U5d
PHnGf3iTTGbGDqrIpNEHxZRdkVb03t4TPEdRgLfUWl5DYT6n4Filsyy3Rsp67Can
kyct6TN7bZv3xvIrV6OoROYSuOPUY3ULtNpahJ+/GvIXdlbgPl5fuRiQuXNopuLI
MvPL/0wUz8u1G+nv8r+GxX/a4sk83kYqAq46qMluxggf/3ObnkKl5ZiyT1t3W33U
RSMxmyU0tPaK4t8NLRC8pc64gycZ0lEEz2oRT+F24qRa5nuzMS0UZMDYbWnCU1Lo
xn2t2GOYpqyrlrF7yAK0Zf3s0jotg7WvTqK0m32r00gjqzVsLCLjg+WvZwOSOt4Q
qM4SPYR58wXIUmS9GMUytfU1HGHbd3GBDtcANXwxJumk2plvHVR2+iGkVY6mivB8
LcrCb3SFlJTIOJgdwAqbzvcDWgQuJq7rDiyawLeT3OiWrpxLFajr18bnz172SkL7
Tf2//DCiAcUgHiseIgMfrFkNdv2K5ZAw5+1D+LpyoOkWpRlQAEyYcSIy4eP3YlYQ
1zYi37FSI3uszFJdyooNCH8R78iJizYv/gTNF/1rWwhe0T5QMBAlLYuTq9ptc59I
eaZo9oBh1lCFQOhPs8X5qBPvCk8nm46wE2J+GBxDsusLdTc/HB4dqu2olImUiunT
h/+2L+PdGGK7MFvl+Hv/z/no8HPnjinVuzaH5RHMzNLzpWGsfuKAKwaGyYkAtL53
fSbRN3oxaNaCI74+WQ7q6Sh3BMREnvJexjRNQQAw2zxx/voyDv9cIoGzttU03Y+M
i0SBAv02eT+3XUWufGG2ajmRu7tCgck2LzR0bwrY3ihNFcfwp7oWIG9GIVmlKi3e
e89/N2DjahsWfgidO2dKJoQInjw+q0UWFV8FBJN/C6VjZs+rLHfguc5xLiAHpU2q
SOUJBe8/5ZzRj5Iafg0wBr2E0hIedGm7m7WfcYG1MXA9k//t3r7qhz3K7oGOx/Oj
M8CK0wgUPopTnqkC+uvRoTdcOzvEa3S47K4JgJSF/hsVKmZa+B4G0hp3lv/Nr/x7
g3ipzxBj9411HP9E8ElwX7LcSHOnYmnCUZXccHex5QYwsEVX7bilu8K6/ufZTMOj
DICbHoKD885FJgP+p9TIJKOG4Ib+v3WP/zap6Qoe+AdA7LXgzZUGU4gYYOoG6S0y
IqqqxOs9BLxrZnzRjzLbtDk0+N0SzgnrQoeMq00P1fjakFggSBQJDO1DmShH3GEN
Ojmteaz+yIiyU+qpoLYbGeVF/OISIEbFfHNyze+wNyBFMtzo56BkSu4juGZurncU
N2ONsHQ7eypTeEHVJa+C86PK2VbnIpoCerHxf3knezsLS1xXISbSeV3qeNkzQ+ZS
PTRB2268spYVgrYNxs7qrhrwdRoYTGsyhWTvlLnFyXEbEuwP5ThdPVSmMxeflkhh
cJRkMLQBOClkKTCG9tubaNIqsy/19UGnTg58NZaHdGM9Mn3mddgWNMGq1tcGOUfB
sqyyl/zcJz5/IUXeVyHCkC2qjL01s44quxhs2GRr6jKYOxRpauim8xvzYFG2/1d1
OaIkUyN+JX78PMCx/pDT0BEnPTc0DytMCOZlZ3GOjPTE++gQP9+WcVUw9YTgO4U9
nQdDGSaVjbNZ2SCKn1GHkN6l6gxUG/0aOJGxP/r/LUaBBxLoejmnq92m3Z4gk8zp
AA61IPco2rHw3pdXIhMnZwrZlzLojrESUzqtG3vTgYu5e9DFxGcvQmqyCQfdYGQ6
e7MZ3ZhsI79nY+YdSgRWKdGYxU/UKcoqMc4pmMLlLsu6z2oT34CuDa61aURg2otY
+PCgoIkhkfFugfZYVyPes2BKnGIerim7u1dRbnfEVWp1Jdd5A1EK4s3zZAN6zOrH
3rAQekeiSux0PbJj+HgulenW+UQrqExhN+TPOKUD3yhPVU20cHxi3new5cs2S4yX
ACg4wO4pCMMxoGs4uLUOEB/+7Q6MZ1VDnG41ULNgEjkHldg7fbLOiMxOxiEUzayF
2/vkhEhcbDG1cn51TMc/NhfAHYrNgm1TP5j+CFT3RtbieeyQFOqco4aAPvQNYcDO
khxbKsfsg6XQA1A9HdUdYWhNkediOc0vJWxz31LwH72Qh1LlORtjkcqTl7HUbhJC
1EaVS67u70BXe13w/MAlzclNJ5CdOefTYw5/FtsJgt4oM5agHa3OdriJ8lwP5Ud6
Vg1bPl6zQ3qwc558VbuXcqVDu+tcpMrP8nx5FZQ1JZ4ioCZYV7cGAsDEqp6ThuP8
kom4SPhkPKPz3MO6oY+9h7tcTHQIB3U4et+CxlWWAdmMFEDpVKPRmHtsT3qRlKk1
CBDbO08sU0oNNv0B711FF1joyL2dCugrLDetCu6WL3NkMz2KzvIO3EY/Gbbw3LJc
+Y9k5QvubA2ofXyjmcHQRNMWElA9uyma0BfiKd6jilKK6vi5mTxe2EbrkobPd9lb
5zUQBYvQQ5mZesj7ho75fwdjHdWliS4TGxEscPN97dZuNAmqva9W8z/GxtSYL7EB
lzwUrmHXeL9X3IROi5SHiYinpuwWkOicwe573wlKYEnQh7DLqIm+nM+P/gK2pLKN
Fd1qBr4urp5uifeN5xGD31um/x9UkBZvMk7r5peLrRGmM+3GqnyTzeYjKqDtEMXT
JNL6Wkn7xOySZtIZq14egKHYPdKNJ1WM1OMECl3WeXDkHUIIy7td9cfGcLkE2O84
IQT9HadVlbSoyuY/OldW45BWJ6A1C6sdMoUcVYswcOgPvkOPCEttmtuPbc3h+efV
An43zTKBWEFq92r+BTqJzjPS/g7a3vgxmz7EfbNFM68Q3opjGdiZ7TpThSZOkam4
SpP8XtnnJcOmtl/O9eOGbPZ6rY97IbDCwgd3yCmGsXGRxfwL8l7WJ60PwQ16oOS4
RJizjylHxX2Ikh5hpux5sVKf+zQIDzYatIYhO7ju5PRJe5ovRJKYN80nNuxIdmGm
YXaZlWc3gvLaeVRe3W60OxLu2A1EAGlQ+sjeBdD29H7cAV6GgWiurdfTwFYxuROL
YE1Fp+1KZ0wnnitycF2QUzbC/2Y4lhD+qX7S7R1NcT2Y81acYyBMzAThvOvKmLq1
mBL/1HepatM/1QGSb4MguucZ2/8NeNGhZOBtVFqn8L8EgWa8Hp6JijABCWkwBZEW
XNHlvYW0ysB6precfMtia9YFj9TAkkVcNLpnr/N2j33JnshCHCPA7E8B4wocZn8v
EPWjdwMfrbLuQPya0f+6jwMJjdJ0d/iuaQx9YREbOYeIoCoHjgXqneyciGQFO8kf
+vcqPkc43hUXUXb/NOeTg6zQSrHOkIoLTd8QR+O/eK8iiwyb0U+3k6RXYl5YVZHG
59Gpli2xa3cBVT1ncJofuGpDdkwy+dx51KKeHCMNGFbn0aPvLKamkNM9cKcZA3jo
+PHCYJMdhO0YFCI0Iqxx8k7syoNK42Prr4tX7G1OhFQGDB/aXM888xU0Pk/GH5L8
kAjMMA4fy0GBjaU1WPWY46wRNRfyyzcKL5t4LqZmH1i+50dprgJBD13KCXNjYHyS
r/sYIxGgwz4XSA9p37XUmKPVgDO/2gK8brHqo+tnum8kBn19K5CewrY0qV4S/7eG
wXUqn5+2YtwhZPv35apPkl3jnQ5dwR3qAs2ZmdbEcUiWe4y6EsxnlzJ/E/cjlLLV
NzZ8o954+znl/KN2gGOlAwUu43rV794+NfMtCdg8wzB+/NLKDwPvOWmmvceKttaX
nJ0jv8BKU0ZIOb2YKxxSKJDKDYmSWOareTviVEQa2lm6Q0U3FJVdHpe3j9mcGqir
kzjESH8jAn3FHCVEGHtmg6jc+fsooSroL+1qfRXsBfJHLfSuIBZmNUeUtb3kiyQ1
A68deoMoYd4XHPMT3Zig6iYRhxMhEMI1TqZOAcQ4tbDah36Vo4eRJQz7nbatyNNq
KiZkqfKvSe358lPLjb2kwK01r0P5LMf8JD28jurJo1qvIACGRD877usRa2JNPMZD
TNJVfwFp183RTGyyq3K5r4QwjaEb3XqnamlLXkdRKABaj9V+bBYuqXPOmLykOUUj
WSiuGaRuqF95RqqDGlVpdjJuMygM1MluT2Ze+/MdGd5+Nlma/7NNdJpi2EaoiV6y
4Z4HjdSStiefNoDN/jsIs6eebDG8CRPYcCShrnd++yQ0d0F+25haF12Q9iKPnTul
/vR1wvIFx0g+4wYQHfVK/fKoHiOrDB2z4mFNqETV2iBh1J1puqWibPL8gJoUux5Q
IL9XC7uWCHddYrfcMhqaAWD237cobamYigRS/fGQQFYL89oz4I5Ohr06B4FdkBk8
IOzhBGETF46qnGgaqLMY4qrxL6o3hgJSyech13+yTEwo7fJb4EvmDc1XcjYz3ope
JDQ2+Z0ojLQFD5oxc4SAbhXO8kP+mXBQHSDmjpxI4Z/Sy4rx/Y62kKDdhekUbfIZ
WN7NhcVF7L2/VpAWwVVA9G5YLsanelYGY2Z91y+v2l+BAWCpqhNbYogRcbmehRGy
OjrtjMap8b4v82S+F/IZoPFoZR5mgUCT1OfreJ2kCtAYmzwogheiHa8rVjQosL2m
bQkD/EDsxEChIgkt41aBdJnYPrLOiiwnvt8NztYqV1LIapUC9pMbC99ZUd1Pdfaj
qL7y0ub/DroXEtSuuw2zIdaROwrvpNj4rYSaL7Oe1fbtNXCsEOdAz9WGuRwGO3LV
dS0HKtN2r/LBzYpKcalSK89Nssnm8CbMY4EAADN5ds7M2d+kuZrOzl3CeJE6LlWc
iuUSLFSWXFVRqkyrhfPL0fCmOEuhMQhRYsMabQeWV33Kc5lA1B02TaefdJ05u/OW
cTsS+MYD9NSV+zpC6xv2qnRJhV4bXZRym/E6XgwqzYOo9nsJK4GHfNeJ+BF9bkvL
j8FIDWdp8DC41QWSHuVWvZQZn4CGw1YRBxeO7emr9PHc5nA4yxYTjRJCMyJs+JVM
oV6cB/SHCp3GVDQ7Xd8BMTOSwLk9AynJdoI9BA6Z0LJkYML1BqcGkpAJlt0QEn9s
nF9xojEmezml25yHfyt5LJfa9nS4alhkPnLl8LNZr82dXBzGkbhAPpcw6JSjQegk
6RM2rfv0eoYH2lHgQuBAWBsUC/eECFPnrd420JBxq7PrXiEsYMiO3j7/Y9IFNdo5
cT6bf3Hn/50CCgx1iN+f+yqnGceySkB/S0eBkd2vChFRw1XRN5khSXbwZGjIsi58
r3zn3XWnmB/l/VjEfrW2yrznNx8lfiVsvRL0u58yAONkvd8a0qPBSXv+ESua6aju
phT4kUoZ7jDlju5kvSiWGFYEmzaPpB2TlVB8/bFQBZvtc8dvx9XdehUGq3adaaob
71mrjo8knxSKgS/+GHceT4lvyC96AxE0OlAIZksYhHUZziWaE+siw2dsbMHvWL6y
5MsaUUc4Ts7iHjIsKXuv3/CsrWibIawvktfp5JWm7BxBkJ49dCe5GeIx+f6Gmjg/
bLvc3rM/Jtbm8fuaDpk6qPpZTGhfEOrD8S+q1HEqkANgfXY0tcN32tvGgO0nUJj6
4tQfn0i6R7AHwxAEXVRZRGNdLMIw4qneWpojZvkZx8gFLWLWy3aLdy28PMPt3P0+
jPHSCJUjYjFdV2XYy6fT5g1wjpCEqsvbN777qQfup40ENB/cIJJfzFIzcNWWjosD
8q2jEmuxDqWy1oCo4OZ1gltp/oeqMOA/mUskNDgPxS38NX1OGx7PTEp6f9xLb0va
oWqVP2aHuueEG7/F87mkXAZCe0r7/KZezPteYkxIS1teaa44rSlzenIdjkbhX3v2
jItdCceSA6ySnkVUj7gOqLie3GENna+vYX//FgWquqZrajKK1fn8t/+vzrUW3s4U
+pugW1Cwr+jxtP6EwGBPca1h5zpz+dEQH6QhDG/JpIdY6lBtHRBrIVXTDKaN6rCm
VD12Z45+Qyc5uzLqgrdKIkMX9EiBzd9Dp1s6CU8DJCqSUUnAyj9nGMJ+ScJVzPp0
sRTFC29l7QNdRDArwZ4EJ5jd3NQq+p5enzLWAzr3jsMtTc1XD9OuSAJBC5AsxnQN
Q8ZfxL/WSyMBvqEDVpmESMP5v3plT68fSDNRBNGIQZWUIq5CwS1ohUJqEEEJpsTY
53ZtB6caFxeM9nh3yNtWLfkE5+uE7OX5QWX0siz218h6TbvhF9zs9yWyZl00kmBO
QKJnSWZ6k75NKGenYcyEsUijwisTK4mtbVVxcxlCtBac0b38j5ZFt5O9LTmcLNDr
M/sTupqG7xWiOYPyYzLXeOeUIia+tT08qiFPoBEH6CvhOM1kFJgcNUnA/EEX7D10
ivG31xeQI6RsTw+cA6NjOZKTeLaTbB9dzxiS0V3+y7pvyCt8mGFBJUkfYHP39qap
5PfnQ/kczc1E4ybtlCGsPOh1dOzMo3qamUhHKrYxtx4Ctevl6z65RdFvGDet4nOr
2fvJxbgP4QGuWc/oc6VK4+TzUbEllFWDLj5YWC+cM2r+svTbLwrz7ThLDDJjX5tp
M7Ylv26H/3BY+SNp6sfGuLunTamUIxw4UVuju+rTpPrcePky6WVEFYuiuctBjU+M
OuD4xO8AUx21p7t3hybGKto4D5vtWqRmy8+heAwz5OoUNceujvFEtjmNHWkKsSYp
62+//LxSPA3ulqpQU5Qc7vlUy1b/ooQIh3k5sF/E6AXukSODBF7uqRb2a4wFtCEc
Vxmm3+IiH4MWqsCKjIqxK72ioa5TB5Voq/fS8b934WU7JwEydKLYDOGEXLAw/vrT
V92urpfvd4zrH/JQ20KuHwZ0ci5QaR8cRqtKRj59EI69rDiqDzeOuqP4ICNLw1yq
UfQHFC0wmCWIkMkQ8fv0jei4vR3HGFG3QPnzNVpsrCDlpOK1P0cXHnU5ES98zGgf
khbqFzP8o+8wCA7c1l/kf7tUBPP8T17mIb3b0ZdD6bC+kgNDLM/O5iaBm2Sme1hU
Z+434jRdnsl88qf6PAzYBY09Kg4S6F6WSLyi3arzYR5vI59K2qttxy/9raGEpGK6
e76eeZHGXRrgkNb8G/P4rbZWlnXZkHH/yetnAG2a+XXS7rQG+44Ih66bCyD4wbnC
6FTGbfwsh4S2Nsb/KYtbavEv4W7nb4bJzG4xZuNsQHY0KD58XWagA4ummhZf8wZs
nk+Dgy9G4mPLd6dpzH8nzssDYveEhKMeeAjhfoGTuQaZTL6y9583DvGtTLyFO5rG
AwssJWGza1+0JjxrEmuyRLxeqDrLkDEQW4eE7qwuADqVUFnfO4Dwg+00OIKD7N/R
yNBzhMwGg98co88Vj+2AD6/6hS2kVBoatjNGo8Be94GVgPJ0EyYz7u46PlVrKvnJ
i004YWixYlTBXWiaSfnQHZ7aN4TUFPqI0svA+U15Gr094XSoK5BTPjIZB/RxRk18
CCy58VxdOjw1Nt/nPYPMSgpkhT7yjlJP+JrPsY34L2Zln51tdoT6bpxe2CMOSsv1
f4vH0aGtGqTguLcOQ1BUg/MXEGddBdZxF2DUlzXQ7CiRclT1HItzuaAamPtp4pBs
WpwkllxAw21AvAp471cxue5WUlASEVpPwXosfWqJmqPjL83NkkOoWVpj+3Pa0bB0
YNotxrCSIGPCkHzQ2wqL9U5Eg31jLLcA+qgRBwf+QvlBreRfLbHkINMl1L+BvIgJ
sGXCkge8+92QogqmnKaKwTIc57cs81yuc6SpBmYVATtkg8BTlWAin+bLN+4+yRap
EF8Fuk+NXQ6huzT/pzL4EYpaAtrddpWmlJDe5sGVPFcGmX8OOAr0r+iUlYX+U4u2
m4DqlIb5Q8pJE8xorA9QhLwOKAEm5fnJNm7ZEt7JTkvymWcFhaoSM5PIy8/nFqM9
Nqcsg40ijuBvNeDIgwM3wqXZDjhgU30VVpR51+mkXAydBPD6IHPgRdULtZOcqMUh
t46Afbtg3xPnF3oY4Ut6hZkbSjsN0QBy9Sb+q/A6gPYYbQapzHOjaVZuGgXrJqdl
vMrs8DFPZZDWuHy/Tmv3Mj9cE6LBrxWM1gom0KofdFBtjMhYWsDYErf/TBtHgYM1
Ccf7FA7j/+TfiogJ9wiRar8B02XIsRnq2SHNViGx6FDGidWNIf/HcJD3VjyKQZEq
XAjY5IJmQx3qrC2vaMOVs7AihSVhpyx9WC7GzesHkzTid1g79o+wBAV8Imwu8844
59dF/ViO+UBSvQMdEmyWgqvvJW2KhbFOulLZun7uXsoEgksb8UVqdXr6CQToPteO
lYFrM98cvW38KjzU9lNUiLPTk13UNVsTnigk98f0H19c/Jg+1tQY89dQEFtN0Gt3
kKUzXsiFO58yoaFeZewnM3QqzpQ0C0/ISZvWbdb9+UAc4/NRga23qMCl1G3MxlCU
uoQrJloDuurnFncInD47PBq0q77w4w9p8T4YFmb6kVagHGorj28ty5Oh7qlbuW97
QePOo1AHb7aqsK0kOV4w9MkbxvKOFTTHylan6v4FERgV8DPIzIhY2hS5JM/4lrd1
wbqietk/WhIwqSkwFUDttnb+xG1bqx/pYXt2Gdf0uB/7+wp0mr0MERjypScZ4jMn
PbhzFXBXqD53FmVo9J1Zy4H5p+klLdcI4reOKTY6CtiCDvlBWPTokEZjCA+8AEcW
h/JE/PxXuhLRtlcJuVG+HooXqJ411l8US9HlwYs+1u8v+Fxm7JF7pwmsdRoqDbyW
vB5i0vzz65GEfh8HSgdlkFkknMHUk5ueVNgsSGwsUaFLo3BEszBTaAw5dMbjI7eX
KzG1+w+XIS62JXn3nSgBMLiK/3h75vo/40MI5UilKwPMndZBAcocE6itGDV7ZH75
f9QEFEyrrWuuHkdtaBsETP8X8c8b1hFHVipfQljW9dzL644f8XZEu8jY2zJvVY6Z
G4VkBPxpfUuSlR2XaOnKhO5tyGy3AsJvwAc653nAAflzxhAjZF/5OZGGIaEg/92V
l/505cmsTGfV5UyKoQMYMqDz7lsMSaZGzL/pGMTo3/5aZZavRh/MfuYH8QVQMHcN
JpqM4uIVRfiUy2pJLf1n27cFJbHNJbg0QKLD7WCjdYyQoB8NXeZp2ezTqj4v/9IO
fXubRivanwm+JdXEyEsonml4HACCp+WZzrFz8OwgpKQ6O2cZ8oizH16z2SnZy8k+
VRNB7+7Ge9vRAxNtLHH6lFonql9/jGUrJsStyoTHcftUCZhgr6mAlW2On2UW/z78
KJbTD7m8zPeAgKzOF2jmYyyoudqVtCUxZ0oupWgLUoH6KcHv5qyBIMPHyTo2OTsx
i4iIGfKMOsOScBEF8XSLLCWca0ee4W7vV8AmPCM80qQXO1diFNQNTbNpBnQduxPi
sDGcNe2s4W069yDBSnzkDZPuVCXW31ISrM/ZqP0jbvMT9LMIuuapxiKAMuvcHLKo
Rt2PI+Wm+HhyYS58IkP522WhAwgTqAD2evAfaU+gQXMoz7mOZPIHzEC8aPs/waqP
sZzY+OWJhGEWrr5GN0x3+H1dav1Fs19WRb/4g0VUjn7ATMTB8tTESwrqcnzSyHEr
2AwbRjC0mNxD/zpY8h9if+cARKjZ+K2GYewzqdlG0Fy3gA6/LC+97KeWPsunbwOK
RDTQYcAJoGdOvDu8rlAnQlgdM4vvYEPO1FZorXFjA233W7afuBVHQ3G9CTkSpFTP
OKL83UkqJIyy33xZqJ7HcU49OKSegQrTfwvAcUwNBzBFo+JR3TKRad127VxEFzPX
c9tTQGS3Ezf1LgBhvEWXJKJmkFeu5HMslunfHa/qCpCYGVj7PvmNCVptWFqcOYGU
8kF6WI8QycQAOpWYPX5QY0p56rNO93G+ts8L9zWASl47pJmNhxNnLVcpNuzvyNb+
sVGBEekHSPyTAuJhGVt3Ijz5lvcNk2u8X6vG5QCSdmD1gFKHITNiyv9rNpt/0FmB
7uvuKFlKIAzZkqyeoBVqbiFz/v184x727G32nGoKbKdP8bwMPVNd5oLjHx8yHS3H
ZkOmazjX8EXqP/KSaHqQ4u7aaTMYA5R+R24l+nzHys0vDti/5pFvLO6DZaTuTbAt
oF95LtqYTfLjkpPDfQTDrX15l13duZ7YqG+Zd8U920VMJ+0x/e9s30zYUfHq1765
X8NVVDc8b65aOM2LAP3SFTy7k5hTUzGS8oQ9c9sDTxxuMf/glXv7rSfS05DEwkz2
E/9l6FejmXr2Q46tpd01s9+Iy1HxA70zkXYTinYSmzJKVsK/8WQSQqsJqVgRa8Zm
hJoinKXV13Fa+D6LrjSwhe2dEaQBrO3QKpb7hdmFDV3rfeG/glihxltSgCA/dgA3
QpphR6P7ZOykyQSKzyXP5QpU56K07LPmbAtWFrmi2IHdbi8UD3atPfWAbfmQAqhf
dXr2cpOR5ZOLHzdY7VR4Fxr++6/2HE9Lp8XYWlSbGK3YyyOKwoVd0Tmf8+OlYinh
+A+UsPrbHCyUeTwvoV2h/ssVQuRlJ4o+/yGvEym/0M8Uyx62hj66/xDQ+6Zi36Kb
nfwN1pI7OaTZUdcAVyX9AbLjVpXLL0g3/GXlk8ItJQvJ9yEmZM0LE/JAYn9jrae0
wZnwpL1wfYNNnUkzfJK0Lf4VaBjcycgma0Mab+h7ifinBkqmabq0bLcgb/ggVD6J
59R94HaCnI30WFkC+s6nkcRMVAM29PEnH4i9sRhfS6ebqleGz2IBzeaziSnyYhi2
a2pMOJaqFlShntghOeCY3rbS0cqvOfLO/VmAp2Mq1/gSM+MMXOsnMXm+hzQrWBcp
+qoCozHxKWningYosLirrNr0jsarqmWp7EzZSA8zgIFQvFfnZXwVN4fRG+xi3v+d
BNaQXCooku6Mx8fT8NeSAbzUSUBfro3gh3BMZJj36UmgHPlJKn0LAeUP1eBwzKHI
VAADGAIBz7t3hcDaus+5vINJFIerg9vfSNooJu2GF+6CHqRsPUIOsvkBkB15jhsn
fjsdsH6vUdB6K9iEZCacmDcIioF5SPfwIaOMSX8y9BeMtAbkyXaUBBt6aSlmIe43
Yt2oK49exZ2V74r+qd7puCHDCJVZ8VeNffcg5dbg7fu25SFJl0Hb6MWV3Gt4Snzd
mFALRLxUYcUyJm75Wkpg2ReHVsalo9sLUQmQMj4P3BYxDgLyylmP4PaaEwrOJFXD
JaaoWXohOv7mpLvCKHUKXkBECXWbIQ4c1w02VnSosOU4XNaAEWRTglOfx10TwvDY
tHBUo0M4ROjynC6mzSRPRylifRAURmUaeDGWRA0nL4wRBOJ9HUogzsnholQjoPCF
kQxyoF2cN2AfWqQqgtkZC0+pDLaHvkucHPgtRlUxwFGtsNHzwiCVbib7GFmmzD4c
eK4QwevDrMspq5fA9hWQ4Vm4Z7KeA1rYiSb6wV+PUgvzMFeXHGp7BKad5bU+pSes
vjd16ojUy/LxkAg7jrYK8MpJbnF4lWnPKIKIXmHAYopwLxsCKSQ=
=QOhc
-----END PGP MESSAGE-----
