-----BEGIN PGP MESSAGE-----

hQEMA0xBmd614XhhAQgAku6ylNSh4rSSdOAZ+0wOXgqkzC9i/m0mAOAcT0xFLFoP
u3mldlk3YbOjDtQIkJE9xHSyuHGP0xjqQ9yxmeZ/6dFPw4+Kl6gaIsAwPUmM8pJU
HtVpA+pAX8rRDntAvKb0XjIQuAGukTAUm6ypjvhumjCXJf3gmlKgOK2gk7Fl/FL3
QzQU05Rcfoy53uuQUMEh/HESRz/NvdeNFcU+sXpiYs51px+VRXd9hQfMJrok315w
W06PKntat/aMpTu7v7cpxOZX4GK52qtu45vl3nF6feKfEvx0FGqfrijDKUaPxovv
jHgiCfUITcWcrAYVb58+ruTjYb932gvLP9hQZh8XwtLpAfpntIDYnQRUBRqNpKRh
IoOru3BKRvrGe35z1hExsil0yKruA7uEEDjI84QV2+DEC+k7PS+lq+rAghIXi2d7
MLIFctgIGFPMI2PCDVT0jAAgNqtgtXje/qDkhqhsmX+P03fLVCDc4rDFCjT4f+eA
JPNUep2+42ynDPMO33gaUzVs/XtY8Fdj5sj7TWuMalZFjf8NCIuiAUOo/nDoiLV/
qpCpmtzLuPBQh9q9AvdEzAsQZO2ySPk8TslvYnzghPCyKzJ3Mm/jt2hPBwuHOJPR
4fDqfv0nBs4iszDRupUs8RL/OwEz1+8sUTaNCtKu8sF0dIFOwREBZVr3x1FIKyEr
0Z5Fw6DOoLHDeXphwVVow1NxH8LZg8pUpNZSCWqaCxfBE3M+RQSvTSMzqWzOr7JM
wfcke98Q0px/mNT7NgR/ffgwe57rEBz9BREMT871d7JDRnC8IXZm66mLi72Ze9/F
yQddZx/aHe6lEMGDOUrsf66dePwFhyDufeOgc03aKegjLRjalTxYDHPyxkab67ex
ny/K3mx1n83VN6lIEA2VfM72clGPraz9kbxcrsSnvCcWj1wdYPAjGDKgwrZb9lEF
C9GwpIT/da93RbHcr56aYaK8B6Cxpcf8pgKwuKFsGJ6YEkP9N2d9gdCnay9FrtaZ
MNBmYDAERIj6YXK+inokqNJiXTFG3TDnVjseEMo7XXgrz36BUAnP8KA1plexUlXR
AkZBz913aiD+PV/F/D8MezSiBONnHhxQ255NshVFAdIrg/lakkTD2ixDZicRWS01
s5G7Qh6krHjADJ1KzsXPMtEg+p4=
=1xkg
-----END PGP MESSAGE-----
