-----BEGIN PGP MESSAGE-----

hQEMA0xBmd614XhhAQgArbuMeKGAAwzvfDnHzC9rhijoEL16yKDutW9KYMU+VNCp
yOB6TceJzBOGfL55RbfXGupuaQcd3nmWdW/F7+V+j5p3zqKyEYBcdHSetIjv7VBC
eCjLst81zUHmnQHgBUq2USaAUWoS1Ezjxxbn7Zw3bZUnqWyVXCpD1HMzXpmnARSC
BJJHKMBhHhpdARaslgkXVaQl47qfJhOJbs1Ko/vsX+66UA14W20hqHz6CRll2cSD
VZtnylC7/1fkDvnMPB3h/x5MkYML8Morp3WiFm+NfliNxIjS32QgJJT/M/KSa7B6
72hDxXyskhx7YmfJOO/+GtshWfA+RuogCpyhE2/aP9LqAdPM2BsFyRF8o9Nr+pTZ
+QngF1xu35/y6znu7atOb2menbESEycRBlpadwJ0gz/+HFeEqT5UebU6qz4Xp8X0
bhJ04xSJ6bGFmfzOM6vL6D2gYcZVOt+mi4UQPgTWKhfI3Dt91aOHyfTNfuDWpo4X
kDUnG9BpiZuojqaelBfPSi2Yl7bbSoN/Oyy2lqa1UHwVFc2V/adsrt7H0pIuBjtE
+7KSmRYRp50C4Z4yJRasC6XR6RbLsH03a/s/LE7mN9fPenhzrSmk2rsRjhSqjTt3
iKFUlMNiWsSw4MbCBlmN9Kx4g7FKB0fDeSZvSLJy+U8vh1TOd9sA40O+vdDaqqZs
BeJVOHWKa2Vizbk+5hQlMeJlrfmS9zgNv3JkHvhaw82/8oHzzTTojmiapHrGHSlm
BR6WiDjY1FVBIhxYHysdb+HDssFDKll8MCZvpQQCaSiL2g+7BxTk5xCZz/nOCLU1
KJy4tiB/cnvPrdFp5ahdwzZ21jg+GZU4+negDOc5dhrScbwpebumFdwxMfqjaHlD
16hghPTLPWPD8/oHqE3vkzjlv6StZenl7Ii9j3rRvxa4WxoFzwkpBE9FOH3nU5yW
aQogVtlvv7FlyNfymNLl3TjDos4QAAbZJ381sSbKM/pTRSfHx/Y5uCQ/B5XzXBDD
qO+hilUhmrmNdNFbqNDIt0T08kchN1dmxrhv/Bd51RpdKJ3ArmJdtTAE58Gm46wb
8HK35PavjBEoPsGvObm1V6OL1hkWnB2osb4/aHUnjeLhVVOM+jW6/AhYbnPwwUm9
xpGf64zuby6B1MSz9YHC9UiTzwW6C5cMAQr7Q8JPPj04f1Zlsc5Wg1BanAxGe/cg
0PYjD/en43xofWrmPUfwT/OGQxqb+7JIiBUOUr8OB/CLYSGQfd/pEIj96y3NLKbz
cYq2ZQVWH9uFLe1r4spf2I6AI0fei9tDJ2BOYKnOoEPDQMwthM7/30dHza68qr5r
7/wTUGmTDG0hYe7d02BFgKyhRu6TeTOxVkfhtOH5CGqVzAreWsFEtLM5uzrKS0/h
VXm0xWJZcVI+mXkXxp8AVA2+QINFXQciwpstDe6ZsGDXwegedFitfVOx1CuTfbtN
BfVBFDw+WIp40I99dmUo72r0T6A5EfA+dGQkpxU+36zAZFc8+RJ/h45M13Megye6
GfUHb4p3FK4KwirsCHeAdqA4gCfYZbmE1oaFbZTIQfYg0eulNTECW41YqXdqnRL0
G/wQNhoQk7hxEmyZCJ9Vm3AeFHR6EKZqEX+Q1hOVTb6VeDDTgeIKqVMh8iyrceYW
nM2ulecVOYBr90OG1ifU3MYQbe8r4JBYOORriaI7g83FLrt/PgYr4TCkNdtz8AFY
3umYkwaaVM1L+6kz9E4bTnbMYj1IWIibej1g1Uh//CXs6Vd5uY1gCjrUib84AfQ1
1Dos5R6/mdjBf2etc66W3g4aS7TwSxaDHXPDN1NkykfYLHY+PCoc1ipLp+I1qm7a
uFARZLjH0gwFxWaFf+LVknKo9gdPpLd/I7l3q6oWdAiX5mHuZUYMCOXOPK6mruZN
cWwzybhVMYRHa0ET0epHm4Q+URdV3pDs7QZBYNxyM5ZvoSMuTUlaA25/xp1bffuZ
dhvMEYfEqUWqiktLt5n4txJ8AA700G0483wLzAiNe5pxhpYJIpmX522yq/a39VXe
vghgFNwzUiIq4Z9Kp/84wJ/3cuWlvu850pOHqLd08FKb9hLkqgKGX+Op96pX4LTV
ryiOGoqPSQGGmiyI4FgIXtGX68woUS5d9fuMrGovo32jHY+EPnhASI3bwIZ7peQ0
Xq8T1HMLJEGEpV9DBwBfBhKYKx7g+mQsA5kAWhyZ3sMq+VKgBit0c4A0XlOZL4CD
54bhI+qeADvv3qupJSXoabsQihApq2TZl0gA/kXb4yfBg0r/PnD7Gex3LuGB4GWY
24MRuwo93fKd5Ov637ORBjCVVRhEgq7OnMFw1WLD8CMs55crN5bXWzKJ/sIW1mTN
G9023LJOiBMsI+TZIrh82fy8q5erNTKGb1xBGcqED6kNPZkFvuuVI8C8fpFpYhY4
6YUoGe+UJSl+m8I2kn0DzrfgnacZFc86hjAQndrIDrER2R3YHJjWHhYicaHX0UYN
NvGZOc7W6wrahocJe0qA1776aMkmfW5tJzk1CQ/I/6/c/skRC0bLk06WR8c/4WBe
n5jwmmQlg9thaiAS45dqHotNd2Bsv9MRfeCCoB5VyzognTn/LcR8A/sqx6E=
=oxII
-----END PGP MESSAGE-----
