-----BEGIN PGP MESSAGE-----

hQEMA0xBmd614XhhAQf/Rq3A4UOktddnyOFRrxswwmmJ7tq6fXlVBiHtzUhQ3OHY
qf5o2GZ632hKwNGUnE3r+BIstSj5og5sgYW5WDsFGYLDB9sSoToXDFjU9790kfmG
HS2QVTfYJpVnE2MY93fTc+RdsjN3oo5qCBEW5Yp9qRbDfDC8jzxG8457dQCz2j+9
PfDarnm00pEsTITbsAfw35oUYK2tB72eZGdXqGiI2EryBuKtm8D+7zBjbOtOeJRD
uHJzgm2imqoLsJDwtZXQztVujVzu65eiM+M7ekAbWmDccZa/k1ZRa/2vwp2FVfky
THoVtJT1/RnhwWmKo5iZRrXieXu6SrCGv6M2xw+OttLpAV0QOIkyWfqS5Brp5w30
TRIm3z3E2aZQoKG31XClrSV9PeJf+cNt2XSvKeVxp+nwGbDO/XEjrGEnUtOdYwNG
I1laVg/Pyd6GuyI52e3fD7EbXaIn0PgBRlfIi5+vCMVQG5yN+4AC/R9apYiBuvvu
dc6RAeoRxpBpfwBPigZXdVn5L2B268eu3FB+fYQ0PW4zJsd2VB7lD2OirxPe3Xpm
pCoEUSw5lyRmcYjtr5CXQsCYjJab2kLOH2VrYAD6+EQQ/FO0LKcS8/6J4PjXQT6r
T8fVhBuPYk4dcwcdZoK3MipWHHsJo0nHur0yc5i7tIoXOTvELZHbiqVZ6dhgNAB4
eYL9IvbKPHIB3OUS0yTIzq2RVNM0oQzrUyYz+GMN+Z+5RJrDOe/hpLQcPcMitzmV
fobIJEYqYvavcLXfLPrRm+XqK51xshr0aBTR+tYbufowebof3tm1DxQuE2/n0AQG
nd68f5s5waJhVDqKIusuwBxTv1SxRYPAFaqAVX11w+WMh4Iq4kBsnKPPnjsp4nTX
XXe6+eS1nEcrklGG6TjYB9Z7C3v0uwHasd59xvFYGwnZgHC2kSJKoxv1QCof1gL0
CihScjyqRM/fQ7S6HTFuzvQvtwsEa8AV7rgDHSHmWwfDoJMriSHIgmmafVVuJKya
vOc/zSriHSD9iZRp6Oha/FzAeCWXaX2xgmidxuvHU/Y37zkqe8dMuVuN4wpAxAt8
2987ShleXD/c/WFTEscgPNp/ASsuIASZEYF4/kleT6gIdX34OAC2da0bDhGR3mT3
rWRwF9esLauo4YQqPnDFbfsL3kcm/9feb0u65Ih3U0aB/2kCBOb1NgDQWvevh7j+
T9eRHr337+vF99SSQuRzgvsr/Y8tzzccbXQovi64T9ss83Z7X7+YQXXx0EMZPEOr
lr5HFiZ6+dHA45vL2Rfhg2Jb9kN5g0QJQSsPYxJU50+d6qlOMsJRpLTuyt9o695/
l0+Xx00nr/f5kNVzRHegm4YZzl2UmefE1lHnz2u3i/Vt1ZB9LDgbpyfTtQm+DhKG
Xftvxb4Bb5ZTH6b34Xn5BPZnjHrOLMoBMDFj42zPS6PQXF56RSn58EcACg==
=pIrl
-----END PGP MESSAGE-----
