-----BEGIN PGP MESSAGE-----

hQEMA0xBmd614XhhAQgArh1dpNGjo7u40uXhWHIsP/KjsfpBDX4vbHe3c7GfEtF/
UwO01TpxN2aW2jBjrnALhY4B6tYZcWrLNNPIeq/ZjffydzKQ2b1LWpHnFNmJz+WZ
H+2giFJ7GTOWSDeiGoOnRXySA/DHLwR6prO531RB7JrNf7iI5h7GO+oJXLhuYRZR
UdXsAAmetIwL6QG6SfKB9ft0kIkPSLlyltpGhX0d+NS8gtIweproXs14xn8/ZveN
k5f0cybxg46H1ixLk5Zn07e2F6pjWF9G5W9kmvWjPRkCSFFSLMWGay8wrYuRGBmW
DhyvpS7VHW1EgSTTXb3LEG/vGlL7Yojv1J9iIO4+M9LpAUCmATD6rvHf7Tbd5nYe
TTT4nl37o5+PBM8WOHFeVWcmEsXQsFTF+neG/Ct5wWE+KdS2ELUWfgrsUOhUdz6Z
UavwG9bHotoI9C/zfwxCCoZl/XPI2NIfuo91XzU1FnGP/AfqBA3yWI8COKlhWfSp
ffBlbgSdwcr8Q74HBv0JBEbqNLRAxWFQHa1JOwmJpa7q+Wc8RFe/UAb8PB6inb1B
wP/mn3gfzgA2m0K7a/NgDJbKqMNRk+9NunDfskL5Nf249d8uzM8isgn2K6KNfJXo
RTNI8Rm0z2doM0h5bs7dh7YrWNYJ6R0DZs+qrIKzfBRVb+AbVVVHNnx61XEzw0kU
TapHyifVGqQSDbblTWnrcKa7Ix/BdgyAwX47JshJ0I2h3tzzq3GKZ96HZzWNtFdN
3u2BAGjhffEFji/DnD5IIe8SvYuQZ+EeZQu3NAml9Emc8wfuZO1g3/VH+9qhgGG3
xbC4Ebmcrv73Q5QS+D7zIdpqfEIddLHutxAwWvld4yILPeTc5ZFKXbIFn6M1Tuh4
Jq3MPmpUtoMKBWTQF2NW0k2fshnxY4QMaZ/zRBM4BOuEg2esNS+FJ16WD182qU02
h6d7WeLqa2+LlZIMkoM9UfyZH8ocJWiAyjwMmRJ/veXwbmdFd33FVDf3AhDzV9ya
/V/fxPmAtVdK6RQ+9U62NrpFPuIzNFt3AUkAOnVUxx5fevZ0gAiWwDaTdomqhle7
t4iG6UxM7HDoh6Xkr+pGKxqXILdMwoEOfHCA8NGIENMUlRmvBpc9
=v9wJ
-----END PGP MESSAGE-----
