-----BEGIN PGP MESSAGE-----

hQEMA0xBmd614XhhAQgAhzsS6W7kU6LJtekExf6vSJdnREllz4YG7tDxVBBNHFRm
jxtot/CJXzZUxWkJ9Q0vZKBCyWuWBZ9zvu/WKAURVjl0q32+/EF063yLZYwrko78
nlf0k9jM+WSeSnzQOgbyK/ysy1VkHLMeyKh2U4X+GA4JbpAcrzsvaLWq5+2WoJJU
ftkwht/82hcSq/HxubCXCBlxs0JQ5o48ifY/9P8UB0cDcWZQnuwHGE6t/qN5P5qy
f7HY+yygDZORPEWfCftExi/EVR7sBs/i+EQfebS8y3wkDM2FL4LbGx07G+FZ32Q8
I25BleAVgPPKLNQdoRmurvvysqhVJBDsexrkEI67H9LtAZ79JghKM7IbBLfGBXrG
qd8icphXb5uIvUKyljJMavo9c2pqaJDMabqOPxzQoIwY0614tE1nOv4/+pQQGABi
YmSco/pebJ9kvpbflZTJfGou9j/UKUlPC1iBp+P1F66d5Z0r2rNhvz+Nz2IlArwm
AIqcKJnOUZr3F9XpVdO7v+58qoRjvxGh+DXSNAk1Iz/+mDC+f1P2INkG16J6n3Y2
jZpNvaWr4YnNqg9Wx5alA3xLuzXy4gTUX+E7e8uNYoDQ+b8jgYo/GVdyoyf66+hl
DgwtylZ9ceDh+tEt5DPyZxiUJsy1Ox8yo9caFEXAREHZEHLw6ZDpuJOAWXgRgFP3
cebgGSbdbpf4kKuVtmQ+JCxkhVPl17z4+fWpMCGgq5uqLZKTYAXYDFlvwvNI+9x0
8wbIYMVVA/X9/ONB5XDdhsT44TXHR31S2ItGFQZDVPfpa8nCPl2Ni5SDiAGk64Wi
MbKEE91bsMLvNb+cPq3yWduFfiBxCHQ6VYydle25n4zWjosDlz/k5H6s7SkqM6LQ
eYGwWvtk3PVdCF0z3LNX5K90GCN9Bmx7tZq+fCHSwgHhCwXDJm/7iXVFkTUsfzdZ
JM1MMRXp6z1Ln5lkAncT4eD1hfCq1Wkd/PbXXn9kpG2/cheY7l2pZd5ICLNC01b3
FAfeendsfFhZjHPQ7oNB/cBkt03yskG7Z/vr4X7B8P+Ope0e2KctCaHSZEJHrhbT
ZqAlA7yrz5rlzYIu2t+zOtuTbE79tZ9lQX5/8O38GIdJU0C/9qN/4A2UVG9iqk0T
Csb9Yl7p/cBixBRXFQ4DX/uVTGQdXiAg8mitI5A5tW91xF0cklKHaKh8grVz/N8y
XdTfftcS4tLSBu/TiXPmiKa98J2RzVYM7IWVnTv8LEHdno4toi+GfpleRZ6SdqL0
5xIELGx4aaEjjMyDRDGjj33WxVgtK60WqahyDh2NrKWHxJUSIL3Y59zk46EzTWQ9
j1oBi501yecwUKPGP15eQ/zcVBDlIdxoxoN7XiGBoy5q6oBUIXtmsWuTgJgLZFl/
1WyNki5ZJFkqwNanrKeue8X+xWNpBQZN+hZen3RwGup6bovxYPd8vAirNQxmu0Td
epjApJdPZyXHHmG+kAK6yseEgPfhy0QL+Rgwxenn3Kub2bsqk8/154ojs3wdTqvj
khmWFBwaDPLgcmGx3bOxmQ14x/YM1k9JBU6K4oxCZQpgtElOorHQD7IDNvIDPDVR
gLhaUo8FLX/5kKJMUuYb0M+a8mmg+Bz13DOA7XbkplHifnQNnSr/ioTBzvErN1F+
FMgFeiAXQ1lDIpmBXTEKWY1abB0F/x+G8V28TvPhXq6ueU4FTiAb0y6pFQhwDUx8
tddyG2olAnTW8dtBwZi4xlkFz8EQCnMWdCaUQMeb+WZHby1hIMrytmY3W5Iq2hOw
yGGYi8RWltWZwiXfy4BNbQBuutB7x0XsEwwtaXzH9pn15yP4k4J7osb08uovfXcd
/vVpFSp5FmasfYMH5mJlN0VcYn/Aus5vtRuGbM82KF3iQLat/XpJSuF0oBS5N9ds
uHBnpy5NNRBBhz1yLwnlyuU00Ib2jsRpM/fuErCpvDxtmQCsSB9VntUI6bdX/vMt
ZXYILxfR9M6PnwBkcSIx1Xr1Qlu8RsuGpEYOJCBQM9y4gx2cIJXGay1/hMzbIJ95
b+Z0wBj8/IMX0c2dG+OrdmDyoYv974oXSfjL5rp6lBGa6rp8DW5MpWzDoe8QEGf7
TK/oxXJKVIqt57EvB3KqTdR/whWNMCv7cKpVvNXyt4b+PEIZL9fi/Qs8Vt+IBkMc
a/0llr+Qrm//Hf1qhyWDBV+WCH65WMDvxlNd5BKakVXavv8/1lbOfBBshcu8zM1q
hB9lTfM7c7kWfHe03prZSOpKRxstUoCwebJCF4PsarSXd7tnnNFD2tUKD+9tv4YY
yfb1tVHaSd8adaVPo0p7o10SUJYAx4DM2jfS2Ckt4LQvYNu2rnqzf2VHtOc9Wzdw
5N6CvW3HCCtYIYVgditoKBYDT+b4Htx4mfFZP4XPS4rovXl9ObyXAZXLU7xPiVvr
N6ASrQy3JAd1+3g/gU4oi0ZMMfqtY7+VKT1U4zwHucz0E4XhJnU+3sMu0IlmI5SS
zhPpNBg+vJT2ImeXqd9k6Da/fhe78cJpHgccvwHIxgt2wQ3KPwchHi90cRa3dq2V
3LQ41dq77diwRNxR4yGwlt8rAGZ/D0Tg/7skDDAFdWV1eSgfTaNj8yz1qdZMlg/N
lQrJQ4ES/s5TMRxgubaq6ZRTu1dQ+ycouHktsPHfnJJmtR9Vi20n9L8AXXil2A/K
oNaWb4obVOa4ydV79BYWYkyq2YOdU5GOtMUzR+9JtEV9NK9vLzin9H5XUKJKp5Vr
OnuMnwqAAcL6TWKRSjhNUJTVuLu6MMmjw+UWvIeV7sbfTBHoG4owbWCceeWcG32Q
ZQHaHDnWJ3c2aFQl77je5jjsP6cZd8mqjPYshaqNVIaNcq8pIaKVrsQY9OKWVS87
C58tLyAszZAncGUZ34b7jdUD96gMno9tMcQdHs4lh+eN64jQ+ipNv6zbx3aFNNdA
593ITndZHSlOHjMAkYONlj/yj4VU6ui6cJz8lQ8F1tPIdwutcB/GZluGGAz4iCMd
SWLQSpM2TyOWYj43LouxFnfkRsAVhhdP/Xb/P75nJheiXAj/ett0ZM5KVx7Rn/f7
j9IxBYckYzl3GhI3ca8VG2qc22Sqh3aGG/ZE2+Ug5CxvOz+sfr8eCiftityQKI/e
bkvz++wgyN+sk1g0ij2KmzY7PpjFFBYPFqEXXP+Me2Gdz0kppWnw1HrbKewZ6UP5
bCn5PgeFzlJx8YKA5ap7whRHOeU1P+OfPzYZ1oepNTQ7K5pfpJiXHkxp0KmLvfXU
z1fOgfZQVmbywZmhBodxLvAO45/k9F8xYwVAM3hkAVl6czs4VVUrhK86/DMB7W7w
nkDDyLGiQOvePxHKL10bExPZlW2zk/3Gcf8XNKQ8H8OBpgOxWprB4tA/zUAKp13H
N8rN5oEe6V9OLNpPUcK1Pffi+YhoS6mybmR1ijLcLEAL5A1Y+BrQDttfBpsgIkl3
6fLqPsqmCanMSWz9S+gFS/eH28ddFY/hbTTTpHqp6q74GUWpU/vH5W+URd3KQqEN
mOkgGo0tFpFq5hMRgwFPCF+ViK1VgaqqcICfSTAJTx5MyjCgX6w18I6R4VzcgjCG
f067X6If5LHuq6hZ0vybLoBg3F2HkwrZSP5tC0SGPgv96PK6SXtMt+K8RzwjAfy4
rhniWumC19vB3m88OBF+ST/pgTCcXi/uQqiueYlZ04ODpSuslKx6wo2DVXsO0i7h
dCpsi93hHl9Dnnft5VIHl7rq69UvRfYES39MAf0wIdOyFmNdfcqFiuNB61K3YJ/j
DKaCWwOE5dXBzwM2jntMT/0BYbRHMNcSf3G1Mf9GaBxhVd05SqZeSofc+NDUhGs8
S+qnA9soH6rOWG2YQSoRSOCY7vLnwd3+l0P6mSV0T+VjwlrNuCvVxPyN1iIvcUib
etmoSyIsRMWyVFQH3To33o2rENttPUkZSfxRbELVUCM5QIN6iYXZRwhGsIQdLwl+
l6tPlJrF4hXZe7kj8QjKXuLof5CmHG1cXBQm3SC7mNYksld9qvz1HskppCaztS6F
ExNokZo2ATNv/ptX+9GGrEz9t4E2SWiEUKtRew+lcFXSi3vVE7KagGpgtvGm1jAe
mNJ81laIIxhWxRYdQljiew/yyCZgFLPz1+Hh+jPUgKXJjE+NQLDbLdbSL7euYFQg
9zYbQ7uOrB+OEVetjs/IKtvkhWJKhsUrZxQrhro0MxQ9gxXRspyHqFz60ISxWfJg
AGIdPKHJlhH8hnbfQITFcombHjdOss+GaVeBLDDNB5YkmAMwcdQnrEEDpTZxIkiS
7ohrK42fagmCP/j8t9FAAUHmy0TB2q64xWLLf81dZFDlwWPGyAMQsbiZvwj0tgLK
51V7SOEV8vbsz2lIEjfdklL4QVv3ta9WyAbWZbeUnNVGG/0Sg3gM45qf928Yer88
0af4KDTm6yaglOFR2Kmu2UYCtltK8u9KSry1bqEs+pKy4VFpZXpoTOGdQhcO7Xad
RikEOaCmwAfeXZxAyxe3Mc6VutAyacYiG+oAyI6ziDWVzW1OrV/lcMwTc9OhGeA8
UwRibmZSltRDzsnIcm1nbaJel19DvSwLB4u+4PZriNepvqSDhEd9uBLvS2/MKQUF
UdeDhf2F8tpo7m5c3X8aNCg8RSHh8iXusWKpKiXFph5sYIYG8or/xrSxdugEZu4N
ncsn2NDB1JsdVK/0KaC9eNB0jYcI9w2d8+VUP2/R3IkKVr6hnyGa1+e8+fbqirfw
5IbIli6stsERkMNHcCiKSqKZW6zuMV+VUSaw1Se6FajgEhi5nw9U2wHBIZMIpgpj
zO6L7zXPhNQW2IyKq3RVDiENELNhP9RVYNaA+nsC0S1KXq7Fh3FxwBtcLzesznVE
RDyaptvUfoEYwVAUn0JmYG1cv9BEYmkwtoRUQYVLpwdcm0JaCNo7fBuHWYgJp4lb
kiw3GWpuOvmzNrHbMI7tlZktGD5xelFdnlOEKjIMsUsxWs6itSVQ7qD9VlKgO4lq
2gL66RrtX+qZC7LB7bZp0M/loMN+fHAjiS7lVg9CmfZtilljybfGpAR1V1OksJr6
/ELueZB9Uaw6TjfUpcWY0gFd04rSClO9f2a4EsJSe5iE14kXdURkReHscp/aPxYl
G+S/ShM1DomGYXqah0caLYjVnGUabrk1kqGU+8ghPFicRK+x5BVADc91Ea1zqRGy
4UAKEJxL9sNXw7+QOKsa4vi7VUyHocZ/BjzWFnSkDbKJH4KcHCc3us0Qf+2mvQJ3
zznfFkd+ToUPB54QNt/rGmaajEW9HombgIc79QLpz7fVqLvigGVY0zXT4m4rGIYI
gHt7HqX8PFYj8qI0I8Pc/Qfz6YLTC01OmUaJ8+BesNCZxdt+meLtBmMmriIRn1ky
M9t6LkyXCa/TI4nJTu9bKFsMubQcMBEuUe5mTdrtPbROlfdkree0T2j4SR4H33T1
3J8iO5ugkPNe96FYAUDw3sP8Fe0YV0k02T9IIz/j/X7RWbZtI2USfynUpf0UfFdM
ZpPo9r3yj/zAKbZA1CFj570tS7QGv3BKVcXhqorGHOX1cv331astggO11jpRDwR4
uo/T7TtRjcLhubkR6zrUlEhJqwcpm4mzxQhEXzMrcOHzrJqSk/jNJTyu5+5MGYnF
TIVJAur7PaSQ+I6R1/VtHM8pD/uVm8osLOHTzIKtPU9fuUG1qG9hXPZYjCjiLLXP
X9k++Pq3VtvK+IjD3AZcfs+lrDxlsK+ivW01+Ava4hsZE6ePHRL2hCdSOrnUmUCa
mVT0pZdhRzSmMF/Xx26Pxfp4Vu37cExGgWaQZXIUsha7TldpbjWUYCRUeRrSE8pE
QcQQm0YJinaTifjStW4uzX3B8PQ+kd7H9npndwatEdn4JeFoVvJvm8MzdNdUfpdd
RaYWc1M8/ClL8PTM/sySS8zMRY8YN7bXSQUU9AvoFR+HyBGRy6nRcoS54BcCPZeP
VXFF68IiTSlgtVSyW8W86ZdvxNdijgMBEOTuXEM4nYsBMwjQgoSUBNm8TI6diEPj
mjUeziCE4bTGBl0Y5tVzHlYWgj7zjBmzLL06G6TB1M0GwVSWTQB2zMl7GvcbpuMm
GJ8s+16vlu0ThuT2oTPLC8pZf5m2n+CjM+nDkEUwjxvnbAVWkucEZZ6zZ4IVOqZW
TMJ/B79yGmwBrt9PfIlwVsu11osP1U3SrLLxFbpqlTfXBGqe17yzT6qP+toRoVxX
iPF8S6zlMEWqGPJdKyPKVp4rwPN8sTsgXUNn3wtW2DmMBS9RPFRl0wORpPn8dPKd
ESC9cWmBEueMyRRu23cK6hnkboS3iqgRi/rTZ2heenXUjf7bqVmpOclgofEmRdYF
+Doe4kalKGlU4wtKRDrmLsXkI84STKM5Q1GfhGvpTI9vk3ox7TJiAd97oc8uqZQA
SCaS4G8Pt0zLWPS6/Fv0UskGLgvS5e+jylXHubq6nQzAQEvCUL9xNx4qHJ/5hued
CfqLXKNDG/uEq/mYfIyGtvHwR5Xrr6nktmvjzkeU4oj7/zBkiAs2v03iIopJoQUa
XKQsBsQwn8RAs6PxaDpr935OiNYLepfKd/6hr4XJz901S6UEdNctGeqxbz9cdUpj
FNDLfVUq3SmonxjIStKcbRLJjGoyRz2eR2u+5F19lQl2UMYcX9cZMRat24snYf5w
UavSRHK7LVpzrVgsRIRaTT3DLckaFjeWnMkH/SQ9Y4P2aocFCxgzUagReHVBjQjU
SpHuVFWnvlPPUZHNjEFb3FzoFZQ4/sY95f6JZifXC8KsEAhysnEfiZ3KtzWiGVan
XyfjJwx3xZ+/N+CWl+AK2ykBCXFcv416qykhh0ZYnQbDtCpugz/WnaUKk0xMrX1O
Du+fKgC715Dq7g4yD2ptbrJ6mathsV4xSyV2VLK0w/ds7JuLoe8oIPO2Q6obtQ4I
k1hmoYjrjGkedIQc6ib9vPAi2QYzCryhBbKUUTXosJJlmqG7Rq39/za3KMXx2FVa
MuSrXwYZoeZgpiUM4ANQMCfXY+f3VUA19MLV22XLZwhDefMvmKWPTp6ZMOH7WSQM
U9mG/TYEgHDOc17b+AZF3eO+LHopbupW7ZJK3b25kHfXVS91SGyQlIGV/XWbizzm
3Cwa0BHsR7SErB2Uozz1i7O39e98hw1nRzRUmcxwlGy3WTObqKQApue/sOjibn7R
2vE5xebjEj5lP2JWztpp7qs6fC+3RuB+1F4UPX6lrXGp0CEfbgty3OxkHxNOt5rk
pNYO9CZeKGqf6AFAxw6IV07TN7mQgqQrQUpP92hSt0tUs8lIDKhdexEMIRp4z9Lq
GN1KEHjz3OXHjr0R3n+heE9hxNfO4hjdhTlQzlh4HcUeKwMeLYDe2237rlwGX3YZ
RSsa7A5r9lfDTZPXdOi03liV2NT9WqZKXnxB2dtlB4AtDjerM/G5nzaaAgKRfbpB
XXe7SO2oOA1TeFo/f2NKAEmII6knNAei+RfgjJvQRpkIgIX9oTOEwfGMBQi0pDQn
npl+ONlGc1jOmCj2EfhpkCeFuqC6XXN5ylvftvRPbB9bRoNsLMPR4LSAH67Sj9as
dm0pM3W68XkDTTIP/YCKLb5zmcp2C/i46YVNOD8NzjufTVIyg/LmKSRbRmIVGpVy
d/stWA6IikyQQ9/ANOQn6aMxfGiGYZpIW6Nt5jnSYkKCHHciAPuKZt1hbBJVu52w
eRe7A9h7dWv7cJutQeuzfYazgueIrWwPS0PGSnx2hij7WRQWAw0saMg68F4E7wha
GLiuCsWe1Mlb7erGxvQvXe9y2YmKqeScuIP2wuvLm0IPm7kZRQ2erP9xKmtDLVW9
haMlEf4NBEBdQrnGe6W09j07wvluzPttHHVO97BnR6fICzL46RsPKVItXhhrjkg3
YCLaYu78b1WnHl+iPcFVHL7mEIGn/t8CxpxKw9vmY/fX28W88RRbCYVshMI9/8oQ
GrNQYtePhDZRg72gK9gCnQV3zn1jaklbPYcDU7lvZr4miDlqAB2LIOLTNkeFSNc1
XJa/blLoP8QhQ8/n818CA2QUkaq9rkrCl2sXIwASIsUFWP51CX+k20jVzOTB6Qo5
eoomrB6kozazZZCHfdnaA8yFl5CZkD4kXYhdkFrmdEuvQZx1GfmCeXiUwDcsjWPe
p0SE06X5zmjghIgKjgS28lbnNGzQ9y9Gxc9Bwgrd244P+zvmIFabslMthPoLIZrg
oyW3pMhSvSes/CYdWHqXKF/OhohAO6NvR5hYify6y9pX3PVdzcVHSQ0Xx/K3qGyv
u3MsfQAvIGn1G6Q932Lqlx7e3fh7mmsVvpn7QRJvrPtYAyZsg/9XQf3W4o/aBp73
+x0eJ1+tTXbLahVIzf7B44u5/LHsYku6Jj1TOhbuPk9WT5TJSwDKA7ee3sFN93IM
/Z0qJ43cTZZ8GC7bSq6NxqKomtRGIDkos3XDdUdEFxVdceFMN8DGG/Cj2PPqEEeP
7JsNAav56Qbz19K6qH+VTQ/MmA3s7O1vlNkB+APhVR29lO368f8Zq1RuEStwBiDK
d9QaK3y7Od5nfAJKZggFLOVqsDEPb55sL1Qy+Ovg8vjS7th2iVo4KR8Hjxrbtc9T
jRGYFnfAUdzNoAJ67xNMqrKLIqusZ+2BHexIDmfYIXlplWCJdVYotXajEi9SuoRZ
/2plXfL+IgBSjuOI3mQv1hDWIqs3K213WqBepFpTyS6y6HTxLCq3AX20jPUGJWsX
SXJ9TbcY6sC0NfKnvAMnYRHUgQMbuH3rUanVftgbHfn8ANPkDcU9F2HTCCvZsRX5
uTHNGZptCV100tDo8Q+VkL97O6H5kkZAWsUWJI3Aqtc+Eoj1PyeB+x+yR5KwzFFF
1XeCWHYTY9g9arcv9x03MfrDmxCxq7YctqJRV1FsQuX17kM4hCEObByOqxQir3BJ
RMiUqrrudhmpHhxOiLyJffPuYYGvFNJZieAVx/r9Tnm8PgE/n566WNfRk6Se1X7C
V9vrCrhR+XHvw1m93Yhry8XJbs1t2Gcdg+iL1F507G4ynqAUy2VJffkvTSA0RzNv
dHKqSJP/Vt36Zy5C7ffCOFBY2JvsEzcDPhVRfhtTpmNj5DrsVzQi77NOH9Z5JK/a
heonLDdEpg4RracRH6K2LSYYHB7a018fpWBYO0naEC3ozK1sE903WQ2ICBcsp/Tj
dJR25sDHNwPtEi2hyvV5PXQ6HHpPFLnm7pguF3sjqj6VYlyyjN8LujGc0elwomKe
xJYVT1ilf3zRumG8uRdzLPLhbZfa5jhMbtfl7ZSfVQeLmYdzdDXUu2p1/mb4pF1O
c4bsP0gNjAWq0QWR3T4AfjAcLKdkiBiIaPANgwdMTf3uk2Pr+zPxg5fqdUKzOaK3
sjxEERnPsBPdlBIXiZ6Wf0LlLGlFQsIWlvjOyKxGzzDo0ZcT982Tp1t6XJqQkLSi
D5H1x3tg9oYqEUFSFt5DZ/q0XoI4f1mhgmw72bJ3aKmIIZX9kI3oCVqNDfZENVqA
nAxaQTriBuqXD9INVNYqlXjs4zNTav0msXqGghu8dH4M4zasti1pYFj5uuEafFYb
z1z0JHuNVfHAHAxThjCun3vdkjcVg7elgu/yJKnWct2pPpRbgwmq9O4XVnIGMYgh
vX5P8YM8rlnG2eRbgIiWLcqofF56LrX7SiU6CgiUpWSSsvhWA7CGvBL0oMfSnCUF
rNX5n3WvX4a3IejgnZ/JurCMt9UIbP2hryjMKwSA78BK1R0+epCbTbMTid3CYmRy
6AkHR7ghkfA8BAGroW0Wn+qH1z/3nx7YaOqOz6e3sGpmOQU2tjXwE4jqmcng+PuW
11xl664i0ZBuct0Ge6o8pkcITOOnLv7320cYRDVdT2Qj+a3x5+dt1GUN7ja8jfT3
aJVDJKQhnpvpwpeOOdkKDCSmkqWp4iEH9Ks2j/g2nNI8MlrrtKLA5ja7u+HTduoB
ddNNJo2iY9lMe8Tufw1Q8qupTJm0fMm3koQJjkffNfWbQnLd97cT2Qr2rcpnU0mi
2X8vQB2enpTY9fgbN97YbuEFE07ouEnEMv8lQZjWbLKbfV99KR+/ciwAjLv0igv9
GHiZgLhn2REi0DfasEmjZ77BudoWD9bHBHWBi04/7BdIfwKDRt00Micw3YJzvTSg
KRz/j8BDA+w7laBAGa98enMIT75n2dINKDVth4GTYFnbbKaXHKA/C1Z9izJ42iqd
5V0fmn6PpH+ev94gec0eUFyfHwQreat1D5NbFLV3AUrinkY7EKHC0y47rTFaSgnm
tofPqqfPvi/bEFQ+6mjSCtkAw3AS+r4vsUKERKQQgXww+c1kUPr+IBMs8+I3e6kG
lJEpt1Nu8btt6NVuGOfZ11at6BT64Q1Zvi2+tLQLWUU9e+O3Jd1hWUI0YgESMsKq
JjOyWi5jJ745RZpLjse6k53Z2zOztfOHmn6Yg2awMd/7c1u1cYPtOOTBaAyST/e4
NYD7HmlPC/lKDg5G5ZlejWT/qGO4ZGkepOLniXitn8tPU4W4QnISeDvaDkwp1BbQ
4DApgSD9E7QofuCDo1b49HNQwqm0e8CFTw0TqvY74OSg9PAvqJ8d7JoMlsRTn0m4
g3Yy7qgOwFMV+7WpslrNjJpMZwAMv2zklE67Lj+KugNRAXSAomizJdHMItEYuvT5
twyyE7kSTHoCYa5BjVzw6bD6AT36VvuFbTIUhygr7D/s9n1JOpEIBJZJp7IstJk4
xlMdJEzmpMzdDbCLbiDb3i6pQB84QUdfl71B67G3qrnyeBv8RDxCE0ZjBZzLG/gw
PiOyvbr4Qb9cW50O7IhzORTQgva5+On3vzrC7i1oLsUuRXKt1F/3ogMKfJO1P/mX
AQhM78k9R3HlS25ZRXWBeiWZPjPnb0CDpNT8Yzv8gs4ym5RoULGRHe2YQEqgvjyA
sOtq84o7HdUboDWJB9QevwGoMVJqEQBryDiU4YKWfkX/xVUJNpSUtAYPiqDpfgNh
Ml/3GUiDxamv7fFvjmM/3CfzGPvKgK2Ccj4mEHjwXsibTrjp7KoDY8FFIF32Aho0
C7J1TjwWoiNEIE+PIR/YRNb0veYrBkNf7OpSh/8Xh60nLVBWO1fIt5YSXD6fDtN1
/b5DRcpX3MVCDmnbNiO5OL8iPJt/jncu3ksvo7nMEbmecqDNLLyPkFDPjoQAfUeE
VSBdDKKLi83+cvjGD2+40+aSDnIx8PXumDtxarObM5IXrCUNJPigPavaMeUMZzLV
8WpmBXeoPBhwu7lhzYtLtkdgR8TMJGKfB3cUFY01M01fE9MAoUetHEa5wO02VwlS
SRcuYZKcyyd6835KMRjil8/t57FnQzWVasUYqlPC4TkIA+BDU2nShBWZNpVvmPIY
gE0cdwFRTevbA/l2qgBvIC/3NWJqYBIiGsCySwc2Xu/WKiuXCqpM5JIA6uLOxg94
zJK5bg5HL4EGdqdqbGMPauQ8zhvCJgNIzEftpT65LKv6l3grKpinrHueoBaIqhMe
qF+BbrMUPVdbFn6BSAEy1tf81iILI2/wO08ZrA4+sy23+0M6WY7sq7Pm8AnzJBfo
uOAJMJWF0vnpiZcBWJfopk0PwbfK0ANRkkCgNR3LpCIOD28GLgiZ2Hzw1tqPN9M8
rz2xczv8w99z4GZr2+ZpMCX0yhx/w/JRADMlJpdVUa3xwW0qJlHfmMExQKSLJCyT
JdccsIuxIheyM36x6ssjQPH9z2DhFY6RSVR4OVfcRARMfrxkExFbD30AiQxJjjvL
DpBV5t/mqaKQ5qvOVpfjjkwGvDkBGfJxbJ5rlIrKaaS6Bsx+BvUY93ufVRffICPr
0/GAHfRdOnV1Nb292+9cZJpmDK9lLI3M4FzmkstuAsI2K2UcCqMl6IVzvCkN++1w
ccqNvjJOg/v7fen7YmRmXnipefgkLESJjGDd6VlOylkYQEjvBorMT8vtYY1VyPqF
Kcsg7aKc6CiuYBxOiiLXV8u+MGbwozEm15RAMYjVsd8TvNandVZ7XXVIk3o6RDRr
/bpsgPqGbciR3WssG7CDSBww7qZ6+hsqoCw+2b+75grSVSP3GeLeajiC9qnwfpD7
JRHMmCA6a3ZSOtTAEOMDeGPe0VNdGY+0Wwvxld0E3vzifcAp82UDAHJH2gUYxK9A
4YI7CwVYGrZVze1BAYFJseOdjaGv6ymyVFDC1iGPNEPTeLX8FqLxKwyAV/ojA6dI
JOdp0ySFx54hzlXo3Qul1QSAhZ42t9lYr6ItPb9E8zflL9YI+IJ6Xu+LNNRMcGog
Fkm2GFAb5fZrOTgdGiaa9IN9bk6uVDn0Lsq9EXK/fF8MSAmjujS3TyC/ZDGp/cxM
bvbT0mOZreh+uQUMSgWTqtKAdOQKQLQFMt18+7rX80MhD8h7Febfhsxhkr51n9p9
kLjaLHyR3axkdBUmZFU96H8NHTDpxvc+8vXL4kJP7CGNtx/Wn/2/C/ng1vf+MhUL
PRi/X/CjiVnC2mGKh/OSFhXGEhB4NvSwYPLbtJJ2Iq2k0yZcJMI4CtW8pPvIISGu
GpiGgcs6F+vSPSUQGhsJ2PNr8b+ZZoolEBHuIIxtbODgHbaHLXkEsI551I6OxJeU
xvjQjRvuDsaXuAvKXzE6E6RsLl+k1+jEItsYgHgNetoo4W/ihw6qDkI1prKlvucw
Wn+0mW2aZ1HqxDCWZgFe/hJhWtXbLd2oMois4awWJ9q9TL3LAyoQ3h/JFgXMndaR
AyZ9826CfuZkvaKZuQ/joIak0zevIpMxSnCJ/p7/G4LUKfwEkvrKWssWq66oVQMh
P7pXjhu3iNpp1aa8UKCHmQp15/jAfrnMLncUUUCWY/a0bf6PFHYnArSCauRL3bRo
5xIyJNSJGCP10dF4KkVR8GwWHCfVNzMgJ3QrxDPwbuSNGNMM0U4w2cbUK+IX/DJ9
TjNZmUYCJU/+zowtzWjwFZ5jaOn51/S/V1x5vtSZo6dNJNggaonSYKKbXeBs56t8
K3MHylzavBAh1Zu4iQWrCT3zNJl4MWfb1uiv3bldLtxNksXx8eGp4Es0rv/QpWF1
pOm4b1gIwIJtj4DoIwxoAe1FB8DQjwgE4tsEG2s7y3ql5xO9AXiZEBbVlbGrgG6r
Rx1nDhZxDN/EIZtJx/U789jmvPmHe6L6G8zGy+KlfuQ5zHQTpcvuThKQ2Np853Qf
wYZ1rFt4n5dCRau5T6ZsGErPBrofYS3Dc5jgNTQLlnckRlGQN6milc7yGkzcMQte
MdlC6nBYpcxbdo+7zVaAwz4FKUfKrdBBzNDKIqMpDremt8a3JY23BjTSYRLfCmHs
wwPNHDTiDpCZCnoL102LryCvtsYNsflJfz1bPrSsSnJLa2j0WuFtM7Gr4IcmiDik
n+L1+iSiynmLz16vl+glpKmf6FR2DWjkuixSFqmezT8hebwPVJO6QeMNAdGmgbeM
qpMDUr1uGcAQnV8WC53u8QJgPQG7/+5NiwdLBzBAm/wuC80z3FotPC6QxgfBSdZo
bt0mGMLo6vgnBP+5jVElOYtUcc9/Jc69uvYmXuwEEJ10Yh/PwUj7u2wl0CbcNpxg
hvcfTxu299WYm6qCzMaGGLwBtlhgtlWVdKOFvYo7EA3h1YzL4oFd4GrlWX9SeaA4
C1mr2bPk9ZH/dYDU3VrRkv3v7OSsaZZIJsjX7QoPO9nea5Av8by05lwJkAo7Kmw9
zdX5cvPZWIRPOhHDGQ1X00jzupJ6xbqDFg/h9fERoM/jLAof4i2c7yiSOXTTjItb
n5baZpN+hiZgodX51wPWn8IHikZ5YSY3BzDH90x86SUePi/WvvPnforI7UYZifVl
MttRNKloeftxp3s/KNCqsGsZb4HvhikH0igamzO+UPjIMrqzDHzNeMjyP/dTR7As
x3NsEMIvZCL5sFPcqiDA63YpfBzStVyBoZh4rkteJ1fwLVc0acrpM8iOYois+liA
VYkDfW0FXawcQubihXa3PufavpThyt5+SK18OlOb8/YiQkaLN0UJ0fkU84P8POHW
xPJLuglhKqgZBDHs1+PcymNzsPYrcIlR1nvg/b0e/tM+bgfksaWR83aXyo8MUrqM
cgtUXEwtTTJ91FqEp6yhmonmB+4rZ4AMYUevf33LPZm37gtV0QfF59ax6NQJCkkI
rv9v1P79BDKVcEyuNNT6lRe6NfBhB7gwYfKwsHlZvq2CXTlYAPBj/3JSv+ovIaG5
ka3k+dxI1n+ntOCOl6FJOfIhdWAfF8MWRlfuseX0ntFdrlAi+DrPRhjkNvWSgv4Q
deDGCVrxhtlJTEL48GHB8PaLoiysdeTgtTkr25InRVH4U4NvTotJPrKIyEWSlV+/
Jo8t8p9ogpw5gKvJYW5RFFyXKco3cxrxwU2Ehvg78CpeiwfH+4AuO6wAtqV0s1M2
A2cyPPSGWwChwC2+T3KvoH+UYdwmakeE1PFl+wqsgRWLdrSdi/iYZhwUD8GY4RWR
jZGZjNdV9HJA03CbuOXo13NDy4Q2oXi1DU0TGtYreDn1mlLG7sbv11fVFWkNBfy1
DYh+OxmBmPD2X45P7kz/fOu5EZAtzCIy0RcVNTz6ZRsA8VTknWXr0QVFkXPkaeVx
XQAXUgZWJc4bN7PGiC7uUludHD6EYCC6hqm2G8Il/Zf+uHOrcSVJwW1Q5oHUUBnU
csc7VmjZ0HuONG7caLlLK2uur/EhGn9VGuAxzDOD95gGPVfnwFKQrDV5S2beV+3S
9yQFUpisWkabv6CPvUz8OK8Q1hdKTvOo0OzfCjPRzQvlFaJISezDahr1S+ZQEPCn
Nu9LHPHcKAQmPzRYiQZwkFDl+532g/JfYMbyTYlxbICkwROcTK4YPVfpX/gEvoPM
Pz7/kmciM7znG0BsrHMpRAQVOjLbbcnigFcDR/Y2gUBwXvekIVBNYbFeqMfQqnNf
3IngG9rFDFlXien3fY8LLf/WVzk1qBfbhnIbmliuYBob9muxmWTrdKWITkpsMBy4
c8ybI2oRoyUDxTdjRKl4VvebLt1qOSt1G/geabxvrUY7gLRDSFUSPDCbpTAJBtPG
k4LGVAiK+KvIXXN6JfYVBQH2Nhdu4lUuZyLLXl8DFVN91VXp7EE2UjzoX+Q8Q8LG
g0uT+unyA6J/5apHN2iqzoFvE5eBXvdnOJ05lMs79KXF/9h9H8oQnjKStggfT1S3
+Av7NdKoMn92yapbQIcKcOcefPs1rfHI1RnK99ZCoVhDvz5/WUFrSJacmGxzJoTe
pujDUALgx2jgDj+2cH0iZRxq5XZ1zPBeQBoDawqPigDew54dKDyaKek1a5W9V28o
pR0xki+k1kB9IrwoiPb1QJ1lKIhlVd/JbgBb+Bc54nBkwAhRBUba5haBPxbboGPj
J1P4D2QiRpreuNUShym2AcrAhh64VqhYmoIcIwmp562Vzs0WuTuCmxItVg2PUdh6
Hhtx8+v17A1YiIrb8oc5m2IhJI7Q2yPOJOzUg14M2uKI4hYz9CSiZ6wDLjl6GOI/
Oyd95aQ3X03X/ji4Z7RJAupjCJsrFZPUgimW8G11Pnmv6Ma71Zt5PAgjYWBdDJyL
vflYjPRvn+F1TdAqvpBQl7ujXPfdSwTa5w/lEoHiHRAKQ50BW8iwcrRod+8di5S5
kFXRCAhJ3gqT90MuWOfBVVY02EgPNRytQQV+06624GUmDH1vFjfhW28MFRK/lmF/
WHmmATuw/OAehGTj/kZ9a050DjaNLhCoZUiHCxZXs9M77+X4DeQhBrdOrWfVpIwx
O8IeWeEalC+7X06jDwxIzFEPzYLbYBOkvsmxIA2aWU2EIPCd8buYdy2cvy+5pW0k
OrcLXWADDUDURdpPDRSsYZ0BOftIxd+F6LZFsjXuROMOMfDfKK4fhQZ5kEHEoVWe
lc/3Oi+i9EiI+8DKXKMe/5bHvBmcx7CvofENayBvLhcZyvcJGbhdMKtaNbNA2qx6
OSjyeiRh+eZZ0liDLhlLP54RWRUJGLr59wdc8dAGA4eR7/P8EmZcUjv4TsKWm4yv
2XIhCwlW+SLaWUi5VQlxAY3ZiO5WeCQHjwrNnNhPeKhYFDeJDmYOZh4V5fJG2xD4
0OGQB5+h67fr1Nx8cObLCvbrhQLel7Aia+vqBo94Ag06hQst7wF7X350b10Zx08S
f/VBj/BLzUD+fuG/w7y5jz6IGGtjjkN1kOjdR6DSLZR1uuZLkCnlq6giUNqU9Hcy
qLVWnnVno089SBwSOJHoFiKAnDTUWw6MJ5LD725rd/QHy+/tOGpLNtB9cS1W4ny/
EvEbUHE7x2CrezcTPUd5YNqk2e4YJUJdyq4NA20oICB9Pzql+q3KMcwtDdGT70x+
Bf/RBvmMvOxoUkeA29xQbNJ86K0mknI1TerutJerOOfqyt7yRGKnuhQr56sqi9nr
w5zGCyUYeAEVHm1ha1dUcnCe3hqBQMFBkO5S5rCBPBtNF/NecJ/uDzL5ieVVD1OE
raR6kV9OMUrFH/lHzNKZBIhFH4Hsy1rYu5ZV9IfdWPfDAhEOCKOJI6F0+IX/Br/k
pgHFrc4sjWi7YZwbYi+KIYFM3bDeHwpVuUQ8Lbc8vdeBzVLm1k//R8HBQs8eHIB2
xgRhLpwPpgDico1jCJTKAGItDhjWschI7vvHjIIMmVm/p2edhGYDdbRQg7ZJVJxS
tdSYC49Yx4+1Iy+tNBiNmXePSqYdbVg69I7ZRoePyJeNizQj3QviDxXnegUyRjj1
CJxyrzeOVPTZADrPRG4qZe/wLaN+5ava5pinHoEZU/IKiHVTJPBve3VegAveYR28
vTDfuzZGz8oaf4vg40GL8fHJ4y3HkeLsPz+8TJvu1ozdMOYERN07eaSR0eBTeXdv
w+cMA3sUixAojxIWE1LZmWJYOR4sdS45xgLx0RI3SxCGvyW5HoyPOQfhBJjHwdvf
DUibcKUYSMDy+mv2D4xIVWU3iPmWBcPNPOERJBCQKxvGe1d+jj9vqcT58qR+bD9i
aAwaLaZA9JbGckHOjjy7/jjvAzgkbOrzXucXzfiGb8lGLTrYPnvNRv59Dh6B4jtL
qGNfM+tnbDNyTAx7DgKHYOjLaq5wKH3jHA8iVtDdbUGFZZ9uOuR7zqRzN0FdSt7C
5RmAKT6b4kaHmRKm+gqC3l+pBR4NVhUzb/Yh+HQhpvV+9btiaYerM7anqD7gf2ei
ykQQo4BnUVfHikv53S10TFT2l2s/40j/8jciPPdJpOOIFi9vGuQxeTvWJif0JIqn
2FfeGiTiUNE99eibY8lP1VbqUXS05TucI2DWGyk+MgpGveGnUvxvY8NXof9ELBZB
7iVI6JTFJdNJZKLVBJp4cKMDT3mSKpRNqlp9MVR8HGz9sa5iAgSz9GDzYuk3AP+m
SOtgsdmZsNMbYka0i4AjJ4OTvBYgh4B7yn0+b/CXzKKRz9vldGngyvywDQhNFLsT
5O2J7Ol/YDEgrIrhmCeFiqK3jr6QzWDkzHxpvdoViX6DJhggcC7QDkAAW/Tg/37d
wq3d0UoAg7nF9nRLYDYJ9+GSXDJ1soFhhbBeM5iT23N7eEpbEkUgk0R8snApO6IA
ioVgNnJ/IgbZ3AK4xvnSuXnSiMmoM8twdl3OWRrxezRHi50JOxS6tBnbQ8b7D/YC
t2fvFZyqm1URI6+fzr2aNxjQnLbgOM7IRDxz/hJ9KIFsGNr31ie2IyEmP3iKpTxc
ATvkC15ivaSJsRN1czkFhiztUbaU8tLT3VNSHRWMF2EOPzhb47JKShH9HhWTQPAe
5v5nLmzZm6nqqEYE25fFy4BYb44qDFC8WpiHaIRBwJYofktUkusO5xSv5O2eozbp
xrEX1JHbzQ0b8EWocpihHWkuj1nmlfjJu2Y5rqKGgG2ykun3+s0Ot6VJuO1iDM/S
RH7QLksRPBdWYD0aVK75jzFnOTQgzp6CJCPFsK91zNR7VW5lXwUt/nNLB2tChZ7r
yv9tgV9mGPXiDqR0+JDp2nu016w6DsFYBDr//g2MjP+kMifQfp7S1aYF+rNIPa5d
HlL9uORCYKXtaOhaGizIUKP3SaGrY1Cihjl68QoIvuVOkivwk7kpEc0i0VJ2hIH0
eIX4KHXTS16iZpRAXW4GZ91xFPFjo0cgob2Yg+RXZ0m7l0dK5ynzoJPvzayLxz5e
mBXG8xMN0Xmpar0SWbFyJhGWzOqv85M9HRzw68TAf/bVwcXIw/IZrkKP25eF0VvA
tIJTOtZZwJ0mAWD40+giFI27SPk+m1KhlumN8CW+c5IEa6L/ekFy8MI19KFOwifV
O6KRaRcPqSCj6q5ZDQnPm4OKhkHWwudnuuE1cd0NBVvlC6h/GRw3OCVx9prTFAzi
2imQl+9RRkyDXwEIl4cBWy2DsC9O7dv7wrOFHvGfZH2WlQQQqKICWOTKRWaf3UxM
fhXiE/jIRQ2b4O7uo1T3eexK5ffEZRNE+buoZ5l7VApbxlNIJk7Ai93BkYuuQl1T
fCszbJMJ9ClsAtY4U9lHirSv3Xlq2ElCJSWIVCAURvMjsZJ4Pn+ZvQdr+MAcMQaW
JHj+qtC2f2qatbqBN/YXFOfldrLbYXsf6UPF9dkDIlSG58/IejXK75TjtUuju/SG
vO6vxirAND81jQZaU3x5shVwWEY7nKlT45fnlmmEOqcQkyUKXLD7o3ctCWvH6aiO
DP8vKuFN6b0vDCaTHbNPBvnTM0PWP1Huxs1yLX9neUgy3TIipBUc+/xHE9LSOnlh
0dM94wbYRL5j+SKzUtruYLC+67LnB8uw3bGqah62XtQyODszcviJCx0wrMZnTvS1
BqIRi1LBmc13MYi7iJ/PoKWVijr92agH5+TmErMuwqf5M49gAqYrMHfewkIbMZu5
ER7byTk8TVuNgDd8kgMC4g9ElrYHblHoSu4p9vbjy7EGAIrHOwmiWoyX5UowtPvL
vEJ1ikejCm5MkUm8M9OpNdj1qwGs8HzBR1k6P6Xwbj/zUoKBS8eCXp5d9LJvz6Jb
V868i5IdR9r6gEVCIhGTvjOR2Cgjby8DJTrqLrvV2yO8iQv59MvgNxn3mlA5VkVB
TKqcGtnPGUj4YCskTSw8o1hgmTEewR+maL6veFQ8LYdQBl5IZCum25Y8ZYe7BPEx
KJRppNtxL/dHriC1vpyzrfiU0rqHkgKA7CLLy1oxesgBu+pH/hQEEtUC5pPU8bVx
DnViULI2ESN9cG9gYvRBm/2NolaVqXunL5czVpNMWPoDReMXuUiXaA51kxOPkhqD
dODCIAguZOor8xb4ukT/NIWyLXdX1OkFDGFxr25CAUh3NBt9KYy9YF1qnWWX86fS
CpdF0kvMNe3gmmLUjqff9pT7XNuix30UU/MkHl/aLoiX0X+yB2nI8RcQdHYGGFo2
2pdbHPvcTkpV9Jd0Zv6JcNF7Ei+RY+zvQ1Zm2ulVCNqEmCByhbTuxs/1US8XpJCM
r6HgnVc2p46VX1YjTcqr615Y7JnyXsv4pEWBB1iabDRGiUwGWHW1asWjEFOHu4aB
nqpA0Bn1R6pEpRMiOg1ioA70ATiwkz2QAv1NdU9ZHhQ13Qk0lYTTLY6+6akPrrln
LMM8e0dYm7X9SSG4jerJweUHMb9IbXdd3cpPWtNhQQFC0RBgA9vE7eM9OmFAF2wH
jSQ7t1ybInhHc+jlzKuBLAbVMSD6EXggc6vV2+zDEWrcjbT22AOknXFw/v9Q/IA8
Xwkj+amVcSxkq7XHVVylkmV1XOdRLpYVUPhsSZTNUjHp1sUJ5ngiwJmMw9nzBFWh
qO9GmyeDaO8Dizg86nZwluRig2zW1NWamChh3visNBoVWH7iRlwRuPJRr+iFSwC1
/pE3zNJj5OPF/E2ralH44+tQ7S8HJ6Exx8M0Shv+K57BOfTekR78qmfs2wdWUR10
cUJd9PCLQKnbXhH540yH9Dlwe7QoiwDncIUrNJVO58pr/Qv2WXTgWDLWrm2RC7Sz
zTirqrPr+QkDad8cHBh1nD8lOvfqPfaW2Vb9VWvz6xebbYiww4DFyCjL4lB+rvF3
9IImABBe68vgJR8EbCQ9LXzALBze4zJTgR0FJMxfKrgePu5dVx03hV1m9U9lBktW
xLTM2Bo9tLMp6m5oVxKwgNlEQYzpC2loLjZdDpn/jP6Z5eEZFV9hJ4J3JthR403G
/F00WVGRrZLDigbsWFCucJF/W7dVK4i5f935LYY1740rcAgfIMheRxnSqljMxABd
Z5j0sKSZSRQLIoGlpe/V1N6hRyzL5Sh38T9YNJtmkSLDThsfh8Z9pWotx27WTwuc
i0Z29Tyi0P2QnFK/72Z5c+t1weqLBAOxF6h5c0v+8yE73yJ5NDjBdA+y5lfvznTs
iwBUZG3YCwaCx6jIx/yceu5EVTWUl50KtAFFrFYwjK2XW2B0+iX0iXi2uC5UfVSi
s4tWNJ4lMYd/jugPrSXpaRWbjvOgSasf4C/TRsroqTjOIUTAG5fDQUbIA5nG98Jk
9EnBnz9ZQm5+34b1U0dwyjffDAi1emW6OSPGSd74cNO0064FWtv22m4Zci3+eARh
c2J56uTiNLXvxN2LhT0rK5w5/jT+tJK0dVF2Wdixhxk3ASTyn3sIgoCbtcpy1vXL
gc5oASPSfStG0Cu3DbhV+fNQM9lzaEWU1zM8RLzQob1iNKS/t6tjLm7SK0oZv62m
22sKlMHNLxLAq/vFA5hAsurCE2zWEWvX8kq9zLl+GKGsabS/Gf0ThJ/Hev5iOnP8
j9zPwFqmo92ZSWuN4kEyCKJ+7A90qphA3UJI6/bMcVBIOLgUfUxzuuRx7FvTDpcx
WnHmZt0PoqeimlTaQU9ugEtHF/cKFbrX4ql658lXOEdh/Noz9s61ZRTHi1VXCCVq
IobWDiqbA5QCMAo1lNx/jWElhNoHQgSBopwMevDJ2getmaDMHoVyystec2n6KNN8
9O8mKmyrvE8Zo2iQ6soybyPkGU9bSBoDuM7q1kUUJ13HbFxwBcf54m8DL9LsDj2Y
Aeei9GEjG8uRnMp36IpQv41EcvymS6tiCsdnrcgJ6mQRBwoqe7u/OJeE5e6UMgcX
PI0jX5efZZksOFV33BtQchPZv0NxFA5u+o8gKcWt+LqTd8fqsHhdZOIKfOQTw9gs
8gqynZOfpZ+Plr9N4uYM+BdxxBEV+ESlNeg7a3S7xJl1BYeOQ4LC3Z+B4V18WxkH
LEyo1VdBNRwe5N3C03GRr+nBhe78UHt/30H3l0wmzus/+4afrQO+y+nIijqvvp5a
8U7hFvGbzYNGi21uAZPGlqTZ8iRQ4gJw03om4bcrRn3amd+sE++DlZF84RF20EW4
Rr1b737XN95xCWhLQbBzWkUwmSlKaBOLraNfvGrWE9yLhSF7bKusADs/JJl/a3aH
m5Q0A9l869R0c5ZTgFeygYdZZp7TYPH3wHjkPQbWq78LGSgFGikCF5HyIDObiBao
+TztuKvPq36N7bmZkNi/qiBM5mbORQ1DbhKoE/903FGTMHvSROMqzv9xSoXAX0Yr
FwSft+iRns9LyJuanC2CdVBeHF051/pcH7uRd/OI21VLmvIUjZkuPbbtvzQWsZQx
iMSRzKO5UTzBiUEpGsnS2n4v9qZuZ/e34Zl9o3fqFoxI1dPcUTw1tne7r4B2qIqE
RSYyG5oH7ysIVa0jVTNWPnfkztdcaGShf3dIQEVqJIsflzCXe15521r0R3R/7buC
3xsGzj68eP3XarsQ3ordMWh+AeMrIf7BraqBDDlIBATvKI9wjskGF8K3kQlpW0rj
80DikJ6ET6yilpwSNfmwf1oIGaSZsFiEr8ObWUbDIZvTB7eIOBY5KqBSl3ezNAnC
oO9XowPCNMYOFKo45KpYpdzC1UsfnyDwlB3ZMGYTJbF3DcY6kEQBi2cnjOa7a58C
ax7TidkawgLewkVT/oYSECbjbneB8ZWtPqc4kBXVB0OA86SsQMgj9gYR5VWU/euM
8fJfethw4cB2ZJsn8GmxhR4xwLIZypNrBYTUIK1jq1C1hkYVmKAq13p0F+zcZmYv
I0wjYv/7FsOorhiLC4ihQHRL7/Eq46lc3yitlPr9W53HloJcUFqPhfNCBerzquqh
990c9D8Z3T+GBLh9xcoRvc91oC1/Krv7LCyApVzf8ioPH3UjjzpUvG5D4zDoTsPg
qU0Yb2pxKodzqPAcORCQHYwl8pRlBzfnB1Q+NVWLimEtFKTSybJPCjvXvqDo1AMP
6g+3rvwr+RENdh2peB2ATfITn81cQhgp0RXLJYhMqWbteiUI7/8WTl+t4B5poVOY
djVN1ragclgxtsmkCRU0WV84t4G+BExieANSruuS9ZMnnN4a9RkZS33CpJ8MFxc4
wjntvOPbZ12hhggTZwUg9tdUtIhbNP2sspZqGfPNVP2XTIliJd8B7MQ1nq85Efyl
orZsRwnp7scdfVKSI6C3p+/e/7H9SLuvosoKeWH9RooBPhPdqW8o4FKB3Bl3AO2B
TLhlx8qIBheD7RlxsLBQ34w8a8JE/ANcss6obQKnGwRm72lox+/IBiCOWxriFJFd
fwTRSVEefWeGaMZmaZCyj/SveFeHNAdOv4UwLYQ1HJNCTNIoTG3YYi+CuiyIPoKh
rnCfkmfRZdWNvs+A85gzquqrdiZI6EvbfXAIrvF/Et5g47UVmnrC8yR7vMOFmsgY
wK9HJUxN15p+8AJ5hXLgcWEBX5c53iyzilJAd56oqu4M+Bg1aiBIGqNUSuYKf1cX
BG2U0RmraAMj4PjhmQRfYwKHGCt94T2CDGbqluFzdvTXvEFURif2E8Jpngx3KDZ7
FccGAtruSjtomZszevz5m581fAAEHgyig5Y0DfZb8sUO7J4QfZI3JN2Bp74Pw9vz
oYVdmQWYMCmBWIHn0NewxDRfEd7zND1bPuWBk5AG/4gOw4SN4DsDd2Bf93+f1zJp
OgfpCgel/rN2pnmbINU40EdEMwBjXpTskOlcNiPRM+Onvhxjfs8QlcUNjner2bCP
SylkenYDHdCaPQFw+FdEjIaL8LAwHqJHY1QHe6Y2T0F3bbcempG5Sq9cxEG9pURp
Ue9hyaYDA3xCvBEZEjxAF59WaD3YFMN6da67oiLHbR5ksRE/vMEVMN9yWAQTq2V8
KYB2GITuVvYsh0xjx37X9A6fdZCqrWqlvw5m3VbMow7in5N4UVKZnpFjGEpQHft5
FFgBBO/nbX8zIsjTxZoIn94+l28hyuEMqwdrNUj/BMtvEtnLYehSe9p6NVutJruE
wz7kk5AS59Pu8BZGc0A3xqa3iWz+jBg42LG3Ju1KsE7bH+55fi+7ROYkxxJOnIP8
EkwCWwONHme0k3cJ4c+eLfVNrODCTFn/3b00wN6347PQsBxdk1vWfpYhOgcBh/Cy
90sQ+CR7gdY8c4n2WWV24WJdxSBPvrtcQc76a7gEgwxGf9xkCITWMGLpibHypUOq
jfxmiSB6MOqZ/HrE+Z4yqWe4h9Et5OicOLpGpY+ANhBjxBdHIHetchv3t9JSL2Ur
Dcbu/0hxU42FF2JZMrPlriQt67ljUO7GUjtWYBD0Ltgt7TaryllejAKDnf7tsfmJ
SSUQXNy9QEDXecmhyAiP93fi6VVqT8aqst6Ie1E9fPGkatpcgzcCw7px9XjvhKCx
i0AiX4ezbejkwLE6IcCJ8yui79/tmbmLRXsw+8slCIZ4ivn2xeJ8ctHKleo3BI07
Rst5shytVTTE4/ptbr/M19hcj45XKJ2+5CAyfGRjqJwKnOSpqQvIRJDS7+6LMikk
l21LlnAds5Bfs2eSHr8kBKbRhNfHqBisRycbo44y3Erj7KBBS/Hg9/1AmvD5S7Xl
mHqiJlO+ndrORv63JKK83dZnkH456UVp95IPjFwtcVYkiRnzpdKbHtyhzXb7XgXo
k3D1WpEj5wY4hKU+8EI/MdPwaFWLprYlNNtHoM1+BNIXTUocXnr+QokXPfRSmCnO
LawsmfadlzNG8XriCusB/QQLaCJUvOozPKps8Q4aqAfyQXro8Gf0ntUGmAmBxHVa
/3qqJWti+HU4VrOKS3TCOCuW0kR+AYhfMU2AneeHLIEkfORwO3Bg9YDaIgVYp8vA
etIVXCoGic1m+3oPnoguMWnvHiV9JPlyeVwfnlno9rA2tGqZPHbXvFhYLqMPloAi
fhfz5mL8gHWquGCQzuMj5kAwTDLWwmIV7gGp2uCJAYKu3nlMBklluDz8C4DkxCkq
AhyMWI3xvO3wXi6PNX5N3xZMz9z6nA5rdowftrcFaivlspjDqfjD6onAtnORo2Qn
DA/zdhT1iDDEranEs5y0j4QoVOpBro10CSHJXG8lo2/dVS4fZxBxZ5j5McpdGNid
ztoTB/QP/J3a3yT/G/GM8e/B2mzoaYlq1avWEkN/ampIOGlXGuVGjUoHjWyffP/A
xna0dUh/fCqCfmNKr2Hj/LcQSyJtrtvkqD9X+D2bBQDWZQGiWolANq2UkzG0V6BC
HCThtu5NBOKfzF7EmMErsTV80Qm/EgV/Iz1H3rzMEY0is0UZ0XV0HlSygGsNY2hg
oi1GWSWFhZydTM/g6N8Nq1lFHSIJhEzvS5vHlPEoh2IwYrx6ZMPW9asuvNEqj6vT
A23lqwiNNCMc9+2oO8S+KZLUgjyV1cSRJCQdxDCUwDOslbtkoGe7VsZx6VzyUxEh
0a8gMtuI97U6p8EOJihnDW/PprHhoYxAxm0zLoDimuwXmlU6HbC99FWpJiwop2ab
QuM6mjXahGzKkoChA7kR+dzOs6A8AvfoF0ilVNvpvyHC5DPKMkFc0veUKYkocz+b
wiPUOV4PmVe2qXCif1FDDodjpD9Bn3g0jvUbWOmruUrmNuD4VDgMzITtW+4TXKih
L8GMkv6FsGIO+GAFbFrbyyD4/LXgw3OgsJUtBl6rNTpLcjW3Xs0pJEl6uQfT6BG9
u7SoQ3b/LR4SPTBy7YI5dfKawknB/H8wJARKmp6w7JR97Vv5cl0gGiERVX37zeUf
j4Gh9nedcr+YuCLJp2lBOkfG9u/gPKkrsGs8PzQW8+c6pr8Bd8fcEvJ4m9iE8B5V
rsYtnZ/6KiC/7n9zXguxZi0ZW7mrshf9EQg8gpT9lAExzFzYUop1XXWFE75QhFoF
T/KOBRolDWG2JvtJ5TrwQNq4PFEH9CAltCRhUd12CmyHXcYXwYR4ABjLtjWz/hyA
Y7IRgJtjcV1U8Ind+xzgiQm3a3t+FR8WnlAutlU+hufIgXwLGmJq6nMAwJ0rhUGt
GwB5z4ziZwvhNE2cm6/D0moPeHmEGJCVtGOgqxoEVB7Oj+u/aaqWf7lXNCEMi86R
VP5eI1JQHgjmHkWr9a7xfXYU7zTh6yGBok0qkol1bCFr9Q4LE5rwywYA/I3JG447
5uyYB51upt3EUI6fC2y7E92McTd6etVwrSmtYbZZjwoQfcw+Smk90sj7KBwFDywa
SmSPUPnX9jUvBCH55YEV5QVwS2iPP3gvL21nP0O9N5hKwCLjOxjulFOUpRAKqI6U
HNkXlp30px6hEyUs/xML6CDdTbYtbMa9ruXBpvKAEUtPAl+0jelUNAZupM1TFhfM
B8d4l1rdcxwXm2Y6hMYlVGwZ3EXVtZBcPwKO9aBSTyB7ETaHWyu8PuRSCi7icMIr
vMK9sKnrPp27icMSYdTW/UWmxrjA2mi54BS7b9CDZVkNDN4+i80t3suiCXawsbtw
F15wZ3WbkC99nkXCk3lzHUQ7or0qHhccnq1Q1xp3vTVhE5HEHpUTGIMnWbkboSA8
GCGSEt40Ke8hjLbd2YPopQnhKnLoccVh8zKi6j4l4AZ9Sb56/w8iRE55ickKt/AR
YOtR/+kOWN3Gkd+etR+01r+rTD3dL0yj7cgD7IKkH7STCgcBj9HCqZPRKouQsKj4
pFA/YaZUlY6mERUiABntw22io6Lil7rFoouwWxUgf6VSljYln7exEzyNyaw9LuBF
l/HEuK1+akvOyqpogpbwcmHNk/eQZbN1qe5XU4JcKD2334xe0Xj4LjA2aqaUaO8z
9Oy0jYbtFeVE6C6htFE1a16ipL9oztxTdRGhojm0MzpvXm8H4zUfV2BQbpEdbbCj
5H2ss3PalEtSFRJZwSoDzKEmS6DHZEGPS043tOx0q3e9HCrtgCfHKQDr6Amf6xyY
5tZCMqFftpGP/xEVw70beVnoFYozF3vo+qJQZDHrHtwEAp7vWMismPiZRO/DME2Z
97bG90jjzL3ZUUNOn+6GIR/Dx3AB+VdFi6bZzVRemsrK4P+Svb3/qprEzhC7FN6c
sEr99mK7XXOnjU82cl7hDqxWJKN4geT8UYjkDnjteYUWBYT218qWEiT/Ix4el2Gn
U/piLOuKExT2p85oVJbVYhhd1+x9JJiazGyhoEZN/x6p+7C4TssO4+hHOxW3q+ej
SKPldRDrDCDdTOOq6IAUcDQkjOekLFO9wkJdNaUM+wOTH8cAvWFvwhVj0stskarM
JMLdv1e40FMceyhWl1i07WzLWc/oNEZ+WndCEcesmn6YzmKwQ06YInLgtnHjLzl1
QfNLvX82C9Clyc4Rizs2ppP3gdQbTsbHnA4dNiZl4vOpfLzTbMW/x/mo+hIvw0DM
toawERwIgJ8okPTS8F9liIprbR1vORR6PXtHP38ojhW/KVwwtOWuFtLtS7ux27qc
LLgNNMqmcDerZ7a/tdwkIyHGZQWkC0RW4xS362RXoIoLrjG5Jy9+kqbxyQOVb13Q
3oElehKV4wQecQ092TX2BdXBfeFNh0x30oJEj0z6+Ju8enQ+APLncDJaHlwFpAyE
ij7OJheZbjny9bQr5xByf2DAt4gvhn+THX1xFK8zcpIJWM+qrTrnmWjK3dDoaaQZ
SbeI9jwckeqOWfNvOXi+n24XiVdwl6sIGpixLEiwmxzET+RyLKoKBbivXR9Xb1Po
pUCFMGvlSfrtnsDSuTgayuoi/uuxsvu8gbCYP4BDfmeqVm5yu/2TK1JxSi3xV+w7
L5Ia8pVK+NNIQLQjLLkDjNqC4FCyXx9oz392F9iKo1UEGw9+63otR74vBlk+Cmf7
5KrLkI97CXZIQ9xVYJmGHIGvfoHhlhaYb6eUn35VqIIe8vQb8TNwlO/twd6d4E2K
4bmHzAfhNAfURtGE//0w7couV5T4dEWhMaNfmWCLQker1rKvBdSqNI7NPi0i7RjW
kWyL2VgTFrxN+V2cYo9FFvnJav5IBle9hOu360lnHRFITT48RalUWTVIgq7BSIQM
Zuh5ZOTVAb1bLIEevMuEVJeKMKQgZLXKMB/UXPepMscXob0Qu1DAA+2ddfHuSIUJ
99wQ7n/aORi7AGQtOjatm4EkFkv6tFw2F5WCLYoIMN1W6Wr5Ptmm+l/Y3F/X6QRp
s8IHIao8hw0Og/M5NBh52LD3NLFczrHgfZ/0qLAorAiAW0kpmI9fxWl+GrV2isuj
TnEcvuZssE64qQD1GKte6XStToT3GxCFQ0dps8MKvFzQQDPSTF9sx+n5eUr/6qMo
9PsJuTGCXpzYPkmFL3OJL5HJfPP7VlsTk+olNI4b0OGygdcHVeOZr1u1yLNBxO8j
aJIblkGBIQBW9HjLaa9lu1Oyd5grlgSF66M5gIME2mFPk1YFZVn/4ngrv/e1+zbb
sU6VFu2/V7JFUZ6BimIy8iPqMkaPl51vdnKfOumFHSdokt187GS1PkJlwGJc9gPa
dRrMf5HRGkmaYansCTX2Gaa2I8Eqlc0ayVULOhc2rk2yS02proz3ndiFJw7BkGYP
ud0nZ79o3C7Sx9zOd5MLW5rYl/tEgccoGEQLCh2qoIDsXQp5ORyIAS2aNLHouBEk
Yliyb28jTepzAchp7aSI35Ht9JkzCfqnWDS5dMgPYWyKeHVs/VNp/5xokFhd8HGx
0ysc3fzqFrxUWVx0ZneG5TykfCMWcMlHLL6WIEAigGj1jA/QbFkoTiNJHODdtsGJ
BvHe5h6YKLQHGX5QsvFwlNkbhyhHOaq8/Fm3SKAkMeLEhFzLythDneKPDaSd5p6D
OVaU1EzC544BQhFsl/RVtDFd83t3DCJs2lW5gUGDVmwgBv8jBciFCXMnQtAG+5Og
lEdxw7jM2DJcu0KrghWo1z4UiMuAUNgn+WC0pucsPow80eK3H2FA5O1uJffJ2Lw9
tF3flQ4NyQm/RL+m/7KaJEfBXkv9sFdICE3CSXIO+4ogjg4yCsgFqAZoNoyoN3FW
7WJA4XwLDIMcOtPtd3EY2gFndAWKPFeFftL8P2rmP4TrvjdPdnk8qNsJR9RkGq+b
3dEKqstM7DgowYLZpYldpt+40eswOg5kQ1mudlBObAipy6ABXnLAekc/qmE1utTp
U/JzScVqZgO1v5NBK8l0SnhYT08sGygZd2KJ3Q3E5dZGF2/58zBluZheeS9K21X+
1uTLCysi1cXyygPdR2EYoDwWYYV5tVM+OrWquapT16Z4SXc0EaUJkKFEqRMIME5N
ziTHn6mmz0gXGZMFnGDc5XAQb0ecfqfuy1G318nGeHMCu36mtg2fBlgBtws9M0z4
ZA8Z5BpvjEo4KtEcg0ODoMhb2FdtR68SAYmi8qMxeuZUs/Y60WFzkKiE/gQQ5u34
PgUONeltr/v4jTJN1RkTwb0m2T4Dvkb57RB6ChsHqTud8mf9DaSlz8w0LNOkJwc2
GXOGgZ9mYlI7iY6RNs120FDc1b7qAYISQtNGIgZK0SWUZF3ZFqqLoLFLQT/JnQ/V
5+pdt/dz8syTNBagP423X3Lvtt/aVzu67TeFdLJqDQyf9Wl1nopHKnRveUiFWM9/
zjnB9mY7UJ3X2dg7A5ZmhpSMCSSUjJX/otf8YJqI5z4DdtCPJvyzBezZ0a2wsGd7
ZVy6zOK0oFzc3dzxCjcVc7MobxOX88S4hjHT9/aRIpD4AOIaV9yzIPU/Z6GYJrDB
poe4VTU/VKV4dpwvh7cnLop51adwaX52meDm6CRDDlKg4jX2VhGOFWuPpu/lO02c
ZmR6PK5yDUN4C5Ad2NvTKSDl7B4BFizJPq7fiPBPOOsaCjlxwxc2Fx42yHbUvdw4
bIztfShOPFG2rhkwyO69zI1mD8cjnkfZgrxecxkGmA/+xK5GkrJ5crZ6opzts/4A
qvfihLLDm1CmczfO5r8wQiDc5U9UW5J+x9dQyj74lRpyM2GKKhPsKsRqioHycAu6
xLbUdOGahjY9SmrnuBPwwV15RfierSq2REgNCYyM1lG+eZ0ViKVxzOGmIYd7skGQ
o7vpifCnEocgpjgkqZ9hqZwqCnEA3B0tapNBW0X4DG1cfKup5lpEN1PyRLfg84l2
b3SVfNkp8+VU2y0U1/rVr3lnVSL/KCOX+0ca8mCbI0tZTcpGtZDPPHVIX38I8w4H
Rmk510veF0pC6U1y8iy+6uZzLwsZbvHAhso8NdJqmNTDeHFPZdgMfpV5QAh6Kq6b
7vlrKkjN/Rw+wmXz/uBLtFkAWBLhjdPOa+EF2RtSxhEMCHtkqDATSnMTSKC01qzA
6jkCvOmb4I8LgEbRqI3u297VxhfYX26bsnpLJHCIER1IXDUcwDQ1RaeGSdw3lE6n
L2XXjbygAbJFAdJ8HjWnqJss7Mguy3mMZYV585rY4wbUE6a1N02Ms0pBMf0Q4upk
9OjvivP4XMjDyliWczOldYB4/Hx0shZtP+hYRg1zIFsCd9UOTthlAK5zxcDtxf6Y
07bPg9M/ayHZ0iroaIf53eun/lvgx6BFOQGSBwnhnrTWN124FKzgmMjti6SIdbpR
Q7JC2mnANpaEoI5cra4F6kC8YlzVvyZqwS761grjCb+OCqXjGEoEXn/tjiQtApwV
OeXpb42cSH9laS7tyS794hbJMrysIJqC83h+B1kBAO2nk5CG/APsv553/kKX/DsW
VGaaZc2Cqw55BG86Hxq+Q4Mlnl/3Omank0ZVvALZc/Jqmc8pzqlQgHR8umdG2G8J
4HBvr4OepU8hdlMnrr/y93AtoAI0iHwPj4b0OCNmdTu0XYZacNVRSIEEQGEUyHIY
Y8wJehtdkYNqXnZ0RbjjsFKSJwdEA2DB0Up64aDAliHwMSa1BDTx2al7LLI9H2DF
aSbWkQhx6YRnHDCdvIkIPfpYtSTSI549auVdxJPQXj3l2ZwGU13Wzon5H967iOD8
0pig1aKqgz/ZSBmZKCa565qlk2K/hEKl8JI6cO6JXyGZV6yy2e4nMPPKWaLZNrce
cePbkh2VZDnoLZRebQ7mP3ua85n+BejN45qDpc2QRhd66cLr6AtOfGFa27bfON8Y
lcsCtRjE8Eibcg1tckVpRany1JNcKymHQRoruZHRDqQ4RMj/0VU43q2WogyWL77Y
0lfoIgvm6gIdt81FFgobNq+U6duNGUoMX4QzkRkrw1UaODh5g1pw2Fq+hoN+ilVD
+fHdmnluIDB7r5Tt4LI24DGyODY/iWSXb+EHrU3OrA2a7UYXAqT3f57uqoQJsuXA
xmng8m+jiUq19I0HLZY64cP7JaHnc7AJlQRncQ1Rj34R+y5MbHLEhMc4gESt9rRk
g0sqrtVhiFTKkGT3UnOCynEyu7lndKvBDG3mB28AcQMXuJ3Uf1Hq9GqCG55DZVnT
CohpaHwA9EOZT7bjBuwQ8yAuLivl2QvdyhcBSlTHY7UGKUr105TMUet/rBIGVP3x
AUDuql8kmeGRKu/uf+aDiuaIp72FXZzeDLlT+AvKlFeApyNYCTVOq2XPNNm7LmIn
oaJxwH74Ktiu9H/TgDWg4Bdjp7/bdAPSJ2HHhy10KJzf+iqpR6mc70AvHI8orLyQ
iG5Ojd90Q/uaDgj1XRWwHFuryDnuMujTlz+NDULjrWGad+XR/l9oSCX3/2u0hG1g
Jr+JIEocPcmXcpJEISXd/9AIGraNPm8uQ6J6cZex9s8gYRp5YfI/KQsk7cNhfo9M
c6GiRgpyR6qA17NWVOFX9TH6WBWkDX8zyAOTfPJTJV4YvbnYX9gjBjL2dcUVbqTL
gHta8iwmhNVkkPqB8RaboMT470m5eUcNYbIjUPH20SeWof9rLKuqjEmjCkTxEu/G
dhzqzfztCWvZb2HVaDOmgWBcjlOB95ifkuJk9FaOk2tkiMSzYyfcMLhGv3OjXcG4
QDKuoOuO8Sn9I/BRikIxoT+wDBJRE4RrBOifKYN5RAVoMnQ9VOge8WCkdtBBFx47
gPL5QKX70w+LJywvMvNZbfQDBL8GhcsU1IefVfEfX73W58FZk59qwQdopiOD+gGG
Zn7zi+dz0yNxwKR/HF6WOA+cczxileGWx8HKImgdRvDiadB9scQfcZGyt8WNYmtX
xp8WnaLnhwAlm4Sda5ZlOMDeMY+PfC6TcSEiTP/hXwJHYbMDcOC0fvKGIjTiouni
u+q+tzS/tHO+5VPZpxEnAHTKX788auPP1eUZERuZAaly3FoBuzMpFdRnYEFtJ6qz
o4VxJOPLPHLUqHSpmuekXEyzAbcODUhpZ3KTD2JquTWLbRuLe5zqWVDuNOeg75PH
Ui5tuPgAenWcCyjcF38cFRkgF0HbnJbyCaMq+3DCG0t2jvZ2yO8yyNcvcxRRDFb1
he/rAAHzE+UJ4seGz1s2KBgQbhSZ58a48qEHw2rP3xl/3DQa2K6nbyNgPOCYlaYp
RcEXq6UR9/hPFTh/dKyu8jvlBBawwweN1Vbtxy1RlPFH6izanqHE9IL+cWfbwt3x
UysFogsq48phkAP2w9AB5rrDNO9PTfvNcI2CJP4Z1yGwtd1owe/qF3MGWR7OPD93
xp4Z3DDlcSsQHeFEqAHjTlgTs2VPhpIS2eIFVVucWg89LBK5W9HZHllGjmCHvRES
wmWm5Bl6LfpccgC8BLPbLgNDrxJpD5DBv6XqQyhp+2ePNz8dZjQ9UrKb8bGipTns
Sc7WGUpebakmxmqKzu6jII153FCQEy1eWpemFoveqmTcnPBBBD4zWwWHPHeqm+Zw
vW6iHnq+twpBqvZqYlPa1eBUo6HOWFw0al2yCRLIlP26KxMYKFVvMpPDtSYl5Ucs
B0WiErE//ziG40Esa7IiTFZ6rnVkSd83LYJONxVEL35YSQdgeL8We7ornO7BB1yV
eTvFghXWOeVPf811LIT4+cPlFglMTMAbPuEEUEI7Bz5ZFaVdk8kro7P0eueojJek
ukQ0N6srzThXXvdJc89KldZirXg8Gkl2yWznIBgkT5b6uKKLnr/cPtFNfoCQZcGC
ObBdHnm33lz/D2Z0ue3cq6rCZJ94I2NN6NVphIfRoAnM/7l9tApuKy66xRjFOO6t
QroAdk7WvOJAUcXL2SqyyqYbUufz4AUtgl7822xyLntoeeXI0RBPKaurQDLm4Fxb
xoXEstpGt3dK3dFQQjhFNl1JCK5ow+hbDZjqR8eQUDZEsYbsUwBZpHje7OresF2q
nXKYbKEUcq6brlfTxPbRTQaarWmf3T5P5hOKbGcBGu9Gvo2GUstSE5bNmMYjboZ/
M8ud+2tftyqtyCWR1yn7vOY7CT4S0fArPn+ybltu7QBLtoEOLRIksrjrBBaBq9BD
3oTBQqlrr1kA4714WntGtm4eEigUnuY3GyhEURkaWnX58GhoVDeokEK33W6UheMS
Lv1yc6/hcbmv3XTUPXemKm/JqYnph5F71n9DbuWh85GAuxDOnAKjoSvKeP6oXU+Z
K6m6wKTe6Nq3oE68DwjKrbWfVA0Gju4FbMMSgMn0w7CXRc9W5Lhw/RhFSrpjlNW4
rCnG0ghAGS7f86Y4PIoKhdFoQDMoNeFoV4yTsAwm7cN5DMKn7bY4iPZ4pGBdTyh7
75M2ohX+rnMbdB1VE+HV0R9q4uQKBeyxfdfO70p4gfXkMCQ8lNywsyBoKEZmuKtm
eeLm8+mQPfOmHlN7IjqTIGQpho8YjfE/Fc3w6uY63JA7NtBbiMAPRO0gRTmf54MR
/u1Q1e7uIFB43x27LA/Gxda+Lm4Rf29hd0p2DHKiCUkCgfwrgMoFXl6U1ZJfbjXY
Jnk1z4SHCsx7FAJSGhknYCv9Ed1YdaTDjhOhyrzkVIjfvDZWetme8u+W93gevt7Y
HNtBCIi72ZmlrxmuNsVeWMJSjiIGLhHgr+m8Opic1HBdxFAlQZtx5BeEk0tms9f4
i9xy5luFWGb5WiIINHwTdRc02SQ3D87q5vvh9/tQy94hnD0C7iXo0thtnjpQZTLJ
WdlogsKglQOXzK2dBDj8OknW/wiANqAT4uElt2NupjWPtXgiTEXbDZgF5icSfzfG
J04X2KRbO/hDctQVHfvUEcdE6NyMSZ4idJPkcbB+Iw7VJxdNzbsnontyvmkH92rx
fLbOqz+tO0YDbc3GwJ8cKFNhWn/xJZcVNTDTpgUd2kygUrbtfHAGX0hkrPWf8cdF
WCsBjR0I4ZtfGnGZYiFmkcf3PfYCWuG1RaFKEg095fiOUW0lSwjWX4c0Iy0LneJR
QzPv7xmUEoDL8a0C7PJsaBG4MllOcGyJU0JR7QOxOgbwiBfJlpdrywUfx8xsjULr
k7J+n/yf8117z88+qF4Cxw557TPXjOnAoMO/mQ0Ez0e6ZHp7mNEmbbZ7J7RizjtQ
Ou6J+nro+pyZDPSNIUPgcPWSlbOXgMbj+TyzW9onzZ/vvOBhfNiiWH2+/Js7knoz
sxB4XWXTT1/KALJ8HgHqUz1t7eAjgk0hGs8TNC2a3wVJx7WggaGw07IvJ6oOHnjG
WljsCP3rToKRg2LC64+wdhOAKMZtNAENz3bhcwt1ROJ/XSyS8sa36/SShzn54ufV
Ohuqca9ntm/4mFYjo2ClQQpXCCNk2ytJflIw+2hXC4V+6fgNqgSjSLE1EmaszIAx
m5XCpfedc5cIjhCOtlEBDGkuwU05vwjksVJQ4pydht0nWo6d0IKZIK7NwtYOo06Y
1MOkbQss0QEd8GE5H2A2v5+jntol6xkhEMDKpXwVArg5fd8fxDemmENcCLLrRN68
JuDR14OHGc6To5KfaHFGnv3Vr2mByi9P1Jy+wpFufAKyDo7g325BldLloaduQgHo
aA7QFnf5iGG9vBdBHTCBJ7Lf5Q0zyrMsn/QKAXiaa2HcHRWUswziCL/6p1OFQnAl
rXnF3YiogL/r+odSI1a4zkkPLh+laFc2WNyOE7vxQ8Us3MT/uxUpzvrHo73u0q+V
WLCTEHutmIlI33e23J5GXpA4Y1TbM8oHzi32Ug17BZPODtsXcHO4KNLW1Oww7oxA
oAguqZAA3A4wJjsgFgPlkltnMDDKTMTOQS4LCfZuO8mg40ATAYQWaqNh9qWfXdDr
VgsGouiQZV2ybJbXU/19Tw8pJ6SbhaqBu7PtgaEgSkmg2P+0kxJIDG20tVjwfM3Z
Scd59TvZ354kP7bvLN7yn+0s7zEZCdOxPfTcOCoNJJenECHMl6ClDxIkURQcFgly
PD5d0YfbyES3TgSlQgv846r5A/L9TyStCS+5KMUzfHiKL8Ps8K76o2CrgVS+KNPJ
pdH5bY9GsV5jAYYT/r7rFBODMht0O7sEtiUfpLdqm9AwdddQ4W/HYJz5lIfUxSLo
tQ/JW+3UsJHwABbbvhE4kmBbUdeEUQ11AAi8Umu1fHsV4hV6wBvuw1w6tS8FjvLO
+rz1B6SXwMA6z0Urv9NA9mHM+RRMB2wsZCRu7ZNma6ntH8PGxsyBGQtuqh6L52SH
tDg1TgyIv5dZTlfxK6ucXUj9XWzvZYhXfjyh9GGJqGlJ3M1Wks1cqyW3hd41SueH
1l5VRnJTqObOBRLIw2Zu8M4QxgomfLAVWOP3oHBFqhtO/yvD/JChCznI1+aV09fo
Gho9gXrX4VBB7XwFy0rysG6iEyPu77l2xZYR/ob6xzT+zJuraUPbcv7nAXypRJQV
C4FGZGwUBQhtI+8HxvesNHfk/XbnIZk/aPXzdtaOLD9M01MGgImGh/2IPYM0vSdp
30OzW6TObUf9iujTMR0hX/dS6T3GQBFc6ZTu17hMvq3Q/8zBnCZiOlNGdSoncv9h
/hoSS27LMMS1fXhPrSsercM0YFTn2TGXoxfu8H1jA64IM5LH+eQdpdf+XHlOmpkA
7yXZT606IQ8yRMMq97bhuYIayawjcn2r+nH6nc4tQn7EmEbyz8M2Z1S7hNMuzmzH
M3FP4FDQ5tKRKEuWkWV/ht6Qu8mjSKBfYm7nkvu+gmoY7f9UUzlatwNMYfIh0zGC
5OMo7sNhLUcD/XlokpgoKcQD6c+q1a4dfcQF6BuSJjfkJ8FVOoc6xelNGEONu7RM
WiQc1HxIZj0isclXbRRSCb6CUFgTYk288HZ0yk1QnMbZqWvnY6oGcc52SjJEkLGR
RSHvqyeKEKtGFGrTDV02MhvN3vaf5femwh3WHtfMmEtXU9iXwgCd1v4DXDXWUB0E
3OXg3eXPNWTy9sh3/4qhcvNOQeS5aN/WUzD8acAtoaXrNCGWxKXPV+qWQzx1HUQJ
FgZBMjcMNGUtiPu6AL3ZN9EP3/lh5l2RjcGnFj2OH6QLTQmt39xzqqDKNsdTqJw6
uzQDXV+iLoWmB7Z8/R2surZNge18hYwhOUHFBx3Shf5Ara6R5q3ZI9NjBwjkQEmX
ExK1rCIMLLEJx7znUYsbNgPOVpUuTE6L1JKzI4UjuAaUdIh8PSZTa+TQyS135ajB
vvM0TGk4XcuDa4V6jB1MyTCaEDFfMe/0Z9lFzfx5vVT1kUF686rUg1bkZ1ThQ+Ld
DXKmWufl/CjzH/XU+wCPO5MkzDRNrtTtu3Qe4iIm8It1/cz3i/TZlzMTCf8WPPbX
FxQCxqbKITpfZMWlLpNIQPBTMxjnTzRydzNe0/6M3cL1BRFuUCK/iiJcBv7GUDYb
1OYU2L65UjXS+KSs/MS6AH9UVwZvFISYNMlFPC6XJbAtH1yBKHTBYueSJcbEzphN
Wu6hQm0KzZQtp+i0u/q4qaR7/qO2FsOdWpGyWoa6ZNEJ2lePtEfn1SMMykuRcGDj
Pmv4TkA3iecbHTasU8f2Mq1jirmjUxQRUTPuvQiDDmuhNskBwnl9XtbFj3jzQMey
/t0xf1WxhWyQLWN1Bb49RkVDUwxXsIILDTQk8I5n0i340YPat6FZm1kE+VWpW/8/
0CABCiSXbCQSA7jAX0V+47XjMNuNMJvyE6BNHwfOuj4Q8MrBGQQugf5rV7OePsc5
msQsn7xpd1n1wuPyoqyvExj3ld9v+cSyqYOUi76y+SAGhXI/urqr7dmOWQong544
mSbvUe5S2F1P5cqf1UEHHLGYrrCK80qzkENx9gqfWLU3tLb2j2awv9km3k787Cqf
mHpBGqT+ydupIhGyBLBwUchRXAMbhAd9DumBxmU94BrdZnG7ZDe4+ui3rPft3ee8
i/ENnaGw5XZMDtrvN4ujjxnnyqZgxlsd3JfB69/5TelYiFYKsiocb8R74pmbs0z5
oX1ZrssavFhnt54DDqLa7zEGQUZvD7W8QJjM0Bg9S47YOluQY5eVsiCyWRSyb2Wj
CHUjGCavPCq5OdqFOGSAcDhMnYZ1DtK+xrFczJaXZsezCT5tu50yaTlFaCzswbkS
6vnBE2zzMZrNo2h6iQh3vcee9MfE2xE49qOHOcoYkNOCcQI0YgkwFIwJ3YKA2rwZ
wfN1y2WvnK5WoljmNvy6fIlHYeqksW7pDCaRio0ESFv0Wr4taWh3kPxo5ZHJLu4q
y688u75qDpPWx/T2eav6mKQLrA32VWulowFuhiMq5gMr497pPNVcZKW6fuBy5HW9
71YRxRdKLvQ+yKG0UrAKDkMLeHFDySzL9QbCE9knPj9+ZCdDXSWZ7xb4Yz/p0qa8
zw3pNpR3RfLsFXNZfLpi5cqmkpxLmxiGTfAuhmLaPJXgNmblpL1PXxEpNh3LsVSG
USVOZVhtdMF6na0jGq3wuSnNkQPfME3SA1+TpipRdY0GN5Bf6UioZh20s7C7jnYH
VHkESTG6SJ0qGYthuZckNLqjxL16LHV2GrS+r6j+wx4GlcGF5CzgzWSk1jINsJLE
OmwqM8gIDalAcvVaKrao65EnPeSlWRBA8VFDtXiBM+lg1LdeMRDlzNnRaDXVQdxp
tj41ihaUGezg6hO4oqx/+cnTcUjJXLOuku6G32A7RCqCKGdEmkk59hliqoYtC8DX
wHLAErMv2GhATx3pViwZnTl2zdsCSHlJ6BskFXFfpkGzN2xrzJuTylX5ngDrZRjd
BfnI4Mz/0VxhtfplsTBOeiDev+X36rS2bk2162najz2xHSzC6v2LnF/ZB97xQYA/
C9AF7iebcWGTqWc4sy8mTcz7xjfUmKkXe3hkMcDDpLWVpOiuF2qW4PrDp++RWca+
9JXRBFXEAsjaFWLS4XavJmianzr/vRjgEtfeQOtwANonm/HbXdSF3MiESsa3j4Ud
g7FpgP8Jdv2WUxdJGGi5RC1mpPHUP2/jUC4oPWSLWKPsyxbyXsch360jyGux7M9/
Ar6VpH5JzLHYDKoM7P86hCMSls9DxnkBd3BLmdj+Erfqt8rb8sSDdkDNDu9MyZv7
Ox02FMLs08rko5Dio++iLGD7QES5v0wiVPWm3PXtWTwoqdr4kXl+UlcJ2X6wGPTH
gGznWS9RMFFS2yxsivhKPkBt6B5MWxQeJmLT1MXJnCbmhOOG9GCKW1vFxXF+rHWb
UyfpF6yQVmurVIV2ddovtNCYQHMTcmRqDA3oC3L0U//1Qra+Ghp2g12dkOKF5Qms
WKC5fQ1Kh7DzaQPTlURpGKzBFEJzjRgMauD+Fh/RzdIpcNO277ph10tWQyUwtse9
wKr7AHwbSuHDevJTUcIQ9qaJWgxDt0+7nQWl/TmPpHTSb3jK7c+H0gPwgSKX4RsH
g05fT+Idd8hWYw1YtDOra6hDGgswwLfGOMunDW4GWAD74jhphgFR+8EBKC30M87B
oqR7iQKhqnpT9MjXN5CUoH39eq4Ck8cwZpASQcRZ31svqa/o+cLoGZo+eHDm9YWV
XG52mCdnJcalmae4Caxj4MuLtgqTQJPcQVGxhJX1NGqQ0KeFoXqlsFuAqk3icmSu
pwTwLhe5mklzNe6CySK4+5eWrBlBLnqjmSx4HX/JefnvmjZXySEsHK+9vLcrAU2Q
pseNh/pkcLQaYFFNgpKYETafqBlzncFgrVD4GwrnYgQH0y86gsXW6V3JhfbDfMBy
ABqxypAjj/n3uGBAVSdJFLH58f1rI8MchXYbqSWo5SxPJuKkoTT4UJtqzHWXr20U
rNc2mfC/cmCy69vz8Isb9Y7z7Jjv9nFMnKmfEXTdzVU9Yg/GBJAXqiq0IO4JHnX1
PsdNMd6mnXgxXB+4PUbuLVKA97LW3jiXeyYO1JN1LhEAoMhwt7zmt1sGHitISssT
FKegvuD/I1b9h/MIOVKqKT4t5fx3y1/1j/n6gsSVb98CseGDTpNYpuLO7xa9zJpC
7U/yR/eIJssoSmFwjOFLOVmyEvKfDKO6n3EW6IpFcChySWJG4wOVyRCYpoWgpuvV
HFVqTkqWSd3b+9VkRXFhRLzKLL2kpTqRaVVNrILaKRQMuob+VKWfCTtLnh9yLsy6
XVTYv4Qc71V9DuBzX3+HDzOTij1S+0S957IO7EmiMAAqKBFmVzEX80FT1V1OtEx1
bt55d5UWHfk2rmHws2rs/9j1mYOFXsRMGeZ0ckPPc3yUiFzG3gAlZFOrph3Czex1
Z6c9HiuVoGiulvAqsGpbDjc/ldeZ9aYjCjbQUnbl+F1mlzW8/YDRxCEd3dSxAkJw
ggZ5wy0Rroqytq4x3qKxzM4tWOn6lP9JJyl1Ny3rgufY5UMZ1y9d9PlQjoBBWjqm
iLtaHXnt768TS8WAdYb+6tZZLVu2Nex8MDgT1K1IrcgXg3NA/nIr0MiHes52QgZw
yc8M5WyCRGGvkW6ONBEjHzr1sRtKRFj12tMjk9M9SD1An5JPT6UfKaaV9FM6PP1W
FeRoi9BrO+YSBHqpH2exlnkGN9oQljT7AtSa90cMhk2sXq1oMjXoco/G8cxTTU34
g/EWPcuJHFHh9ohNrOcQWz+XP3vrkXqLVae3z+4IDjvpbRqZ0lxcf0tZA9jyTwJU
2TRuNG94kj/8xgUwKev1b7bDODXYIVjDtUttJwwSiKtwAgdgSEl6JlWrO4kn+Mn8
G9p+5uLqOjtTzlZECctHYWVjG97WzH5OAjZDtbdd1fR09jw3h+AysL5bNzKpzYGJ
z+Z1YKznhcEdZhNDqDYGzw/wtnoR6rVXnNBEY1pP+kmJbl67BjjpXK4t39Lgcawg
1HTSLbBRPC1n7/jOMb3GEj37ArcVZbsQ0N9W5h3ioBw/Y1ilw8v6p4BC30lrmN8L
mvF67nQRG1JSV5feI6Fb6mo0sQ/i4BenH9UjuYdnW5meuQMcJPBybVVmUXskBYnm
IPrg2xEG08mp0k59IxxSJU7DF6JvAHiL5TwysXTjW+Fw2tKn02ZnburcESJPA0QZ
R4KZOXeSyjW6TzsPJPU3JIqOeORhnld1lvzMSGvXNIAvTO0p/9Pi6/wlWpEoCC5+
BD8n80eghLONu6CkN21nZBt6rifqTJsKugIzkhaDIMSwo/GDDYXogjzXSLcixSIk
v3QSel+eSUxif/z2JJvExrFUoXSFZ5ETt3jt3jEiTAPgNDi+DNRBWIN89z6hrD4X
6KSbhUbDR0nstQyL6Pc9lgvWmUHs79BMJ0ikR7apWnUg+UHP2zrTHdlKPy8tgPtk
M1NxtByLp7sHIoCzANmpBSH1T8NRmkg9SdZ7bFKk9tGcXCS6vvXPgGAWur4//r2b
8tFrCE8f1jMbELv9SlcLjTSrO1tQ1mb++kggF2bd2fPJ+UXDMbyijrKzsnDijrLC
htjTtageCMumFUyPzb/k3IRZDTQjP68KCph3ZMgW2CjZ+bWYsd5NnjlmhtTJHMSY
6FUcq0KFZulR0ROvT/7X0PjVHab94148PGz1yxWrLAZ9Wkt3XkdkMP0GwvlKFHKl
beVTRMP6j6tQIiQcDtVaT0o/UnG0VxVa84utdfdABBMRerY1ykEaLwIXDmCJ4PZE
ZoGI41iVHq1JWG0d0qZHJ/yrc7KvwruA8sOFUKYhc0kCGD4dcFp+xFyztX4ulQPm
mfogIHb1d2SQk+Vameoae/zkxyzMYyPacedSsyHLv/+8qJ8WRLk/qR5HMNTUKJFM
6HGfZw3FE0JOocld3BF1C+MorSShMGJDqqdNZTR9lx3nFa0oQyDsWmNh+/dvlB+o
//M/kzz5Fa4avIWEaodZWauca6EuOI/7GM6S2JVNj9dLHmQeSJGz9jya3n2olGRw
tlzG+SRubESCcQJ9llu8cZ1ZemFKaIWitJNYsCRIei4SJNZQ+vPJWXjN+U2/duSW
yiWTGh3q8+ukjcPVYlqQMykXukbaqHinNfFwBIL6QDtvFTtClCKmmZlccm+jinuj
/lDns/RoAfStyefsdMboSQXdGbu9ZFfcJIZanwDleJ8a1zb1HXUIekOSohxPkYUx
nU6GoTCFWxgektvYbshkEA1rGfMOvlyzmNpd8yepRvLQAThiwjuaI0nf3crRKrN/
3GtvcBxFDD8ddEMhMtszg+8N8J1xS/Kea2WDwZWZfNm2oJShHTRSqAcNbW1TzOeK
WuVqlp3PyVtPU/e/mZ1OI/ZONAnI324nlQ0JhRmYwnqVxag+3RReozyloCDnyPLh
phLHLKuiI6TmzaGvi5/BwxUeUJxONZWyweVN9rb5YBtgZ9F+9CCKx4cccQaWwvEU
Zv+jYC/GSxQZ7QoaSkN5B8V3xTXMyXZBuo8nnRyz2GIQltBnDBM4yvW8WpBJRzKw
NOsNRR72lhqk/O108tnmr9MgOG6bwDJgEDfXf45X2eIjjXMsKTeVl/a9P6CezNGu
n4M6TWAJ99RMrUGpIUnHCRFgyiN1mpR+nRklOdFTcwLX3RZQy7TuvUmPHOaIDx2V
bUod9Lvv1jBAfjXXmy9Kh/ZQAKv3oQwzu8riiI+6MeM9JeTb1XP2ZKVb/Yw0zZKH
dKqDB9ieX/iWgZHK7EoNa0XRqpxw1dj4midlK+8dp0G40YA6W8R5fUiwe198ERLQ
hX6VUXmW7TGE0b1685whbLItXfTGVFgC/am2noMydqe1iVuazZ9kNqRGtvuSJso6
gO9h8JlH4EwB2T5kxB3Ej4PIGA4pIydvEdU114qxkHmMQ9UFGJgjzHEOknGBru7C
GZmhxpxIK2BK0qA0IUIk/sPQiiIlyAM9k075yxm1ebU7J2nL65CJQdMl1BSZdtco
M2jxXtVQqmD1e8M1QvQUqCYFrunlhzDkEVqv+OgWUbSWwFv0GsaHFGvBEP97pIsh
cqiYUDZmXpxxu+UWDAUjbAY5ZEtZ9ndcJLHbPC259yPqo8PmfxftZdf2pbVVhqKK
/jpbLOZfNfOa8X/2N8RGamsbPXN5XGvgs5bbHZw+aVfBUQBnUux5oHsfXXMNNuVV
+Qsi+s9cQVPr2PLa7+5IAqk5nsI3pWxyMM33YruLuePRwEcV7uY7YTcHRngek4R9
OM1ltAHe8ey2lltCNfmOYOuYqlEkHgLc/I0io43oEY4LjckePKDG/zdiq0xEnaWz
WY3XKlFGs04RoMY85LRzj8PefycolPXfuxXGsCuifcwSKWlGn2GYz/0YiTgOBe1A
GgL2zEwKlAe2ub+seHwFBE3SxFkqaSEsvBnJZzAZQV+CxSE2gHp1uxcbkldlnn8w
CQObVcxDE919mUczQfdGqV0V6EvJSbjBVJHnUg1wBmpTTtekhHmdx8keTa8vthSZ
thAKcSZSsALrltM56m3vxrYHd3uS5tdl+6z0Nbt3ZCaNst/nVY/i4pAlqEk2j4ez
vilpqGoBO1Y04zN7Qvfc3FHsV6hUux0IjTux+OkelCHd8ym8bSXRN+WpJizLL0UZ
WPmXrnWONEI/ybInIgD9fcUlbA5PzJQYUmRpe3K/0NbyseM1orU7W6Xh4IYiCtxc
bSEGGXV7beq5ne7Yq8mNY5fvD5njcVECPUgotHge3JHz30mgpANPpL162KnorQ5F
f+5lS2hNiGjF/U2ZXSc3asnRByJ+Q/UbhOKG/96QiN19ThWKPz6v6rnfIO9RlCmm
jyo6thpG3HwisnATfYzAs1ehNLpXuDyEPWBmNnfcvieAgVSjBZsVtza4668dEGAR
iiX2a+/UWagVOa7qSPZ4Plx0BmILkIGeRNHstUELgs9AjEscjz+afOLaYfd24/IC
j/+I1HWaDz0yzZ6xRORfEM8lZUJC0QwK8rMxGNpliSD0MTd396g0F6ysgORGAdTj
e/pv5NS+zVtvK3/nWwkxmeFo9Z929y4CCKFqtDhcecLszDDoBe0XuvHk8Ch4U7T9
Be68hoi4yjRndn3mnv7XDfRJrxinAEkfUiaSnh2FJ+mhz8eGsM8Yrats3hDi7Tys
3pSVVxLHjNms3XIB8MVfW0hCweSH8b8ooewybv6wU93Dwqf/7fVcA/78y1XI/iKz
LQaR/7BrETknr7LrdsT6YGvNXaun2phGmETJW6b1PjGC9WHAtnW93hkbUdRBrmUc
j7V63iC9fUreawZkGuSok5VokWT78TOl5i5Q93DJ6TzaLXZj7EreR6U/Pz/SaaQz
cTBtRUkOHjiRpemMLCTgO0QKFHukHeLup9T8C2q5GCbZoEY7j38DltOQ02zDi/mw
74Hc6adzCAQx63DtfPECpKWl5FjOKIt4hg9dazVoNdh5ncKtPifzR8hUCz+67xZz
HmwrCo0z4wTmkfieuFj03jME4I5r69ZG8DKTZ9djj17LQ0/xajVpbo6Aqy//FAv7
m56YMP3vGAwqriawy7hbjsxD22PY4oJjCN4ccn+vyK2c6PB4VMxTaU4xNn249VHg
rhiu4tCloMFTwyFMmMMmAL/nJTgw45vMLCYRhjBx9yT05TgkE0IKAB0yoPC2ax8C
CUBP5zyZuRxd2IQrhBHpT0Uq+l43DFVB+YbmnaqwHIgKWpv8TCTf6rGfIvS8fdJT
p1mYk4fbQWggFjXghjAFTZErWH6ljVXQfpPu8ldZTTD5M3BXt04QOF8f6g7lRGUm
/SD0AMJQ5scmdoBh6SHpPVLM8W7RvWfY2H4yCx9gZWo74Rwmmnz7XT0IkkKog3jC
7AwQkGL+yd1nFx+NQwByRde+l/9wMfLx1BKKT3qKUU++/v3Lw/9sf8U8PWrJh18c
wqchxv1Y4VmaicxODw5xvbfpBKbo4WzN4aw6qMF4SsauiT/YUTQb0wI5y50qhfY+
VyOWwMPEGL4DtuCPmMnC06stQE/G52qUIcz4GxX4cgzQQYQqk+dRVrrYHXCAeY5p
vuLZSdtxPhWMEF2Qw0rIQPwkK2/0XKzByLW6QDwW3ieDIAHFounZPZ/I1j/flI+/
DfWzDlYZFH2+4Q0mblDtMN3WFzhXrqXxvp41yPOC4ec27OTPECmil7BB7lL8do7K
yAoP7R3MCb91q13p1rL0hGsP9PlV2h3V84ZoVyoREPH7325WBv7/KRewBGsSZ2G+
Uufo+nc5Cd3Fzg3S4NSwABxOVotz4MRCvfiZ9WSqXRu9VAwW8p7IIi5TsP+rF9qM
X/dAK0NsXDQUKi9yVoeiiw7BOIE5Peb7/kJV5Lhiu6IowTBWOg+nQuQoqAMMWQYz
WWlQF2k/ZkNifjkQ8HU8NPrw0O7RmXg0JJ6g34uBOGLDkqJR8ElUPetxOh8wzWIK
OGgxmaVBZGGaS0v0S6VZ+CmEs2VRHjEu+7cV9J9wOvrjkbICfipehgQ9mDUS4+Qf
oAwj1uJWcRwZbPXAqpIYKrDjBlX7RgOkEY3hgBqfC50iq7V9Hkc3KJq5uFXmMT4m
UTKYzOloBCdbuGKcDWQCu6oQph8mKl53RxPAh03Z5024T78OnYTXQHn0N82QpUAW
YfFpV8yeF7i0Qbd98ecWic1toB7yzHBoKh7c8SJvUZ0DIe/8fwf09KLQ+msnLrcJ
WOSIOCy9KHpHLPmFClT7zeHQBb/cDdB6YWHKqAwQiauk83fnzQs3EOFKxE1+G8zI
Pyqb5IPSza5CUlurL3ZDo7khE42+yViI4ncv0Z5poRl9/5NZb5US9Vgj2m1N5x9I
6Pyl6szJJCj2GWz5ul4ks0xnou9WX7e5Pzz7+bmfoOFH1HMz0Dzb9pAmrzIAL/u6
xQeosnbieEJWQk/y8RppWiWhOBeRZRHHru5W9h6hr4paRoI++2HabODeYebEui/6
48dM5a5h/RH57oIM2mpGMeUQ0+hdS64scxqojEt6F+9LZWoF25CZxoR5loung+Md
18LNR032l9xu7v9nA+FWzrQjXVvjhTI9Ky4qh6aLDjiwwOrI4suwdwNhwVXMtClb
xfQw4arMB+K565vy8xCRx6nMg6TtKrKEMLNMVC8vwhkjLIObOGTS6W+WFwCZPUt8
u4+c8EU8RHC4CuQM5+LYq6GPCFe0IroAoth5ssuz48P5X8SC1GmF1bIp77KRTAkP
+NYAZ712Pdol8hASOdKWS2ohYAjsmSvPmZ9YsBkI0dTb+Sx37iClaKTy3wd4qXCi
fOgk+U0GFyQAA8nW6TBpg+SdDr08uhjAWvgOVjDWxbHbA5y/i+0w1UCDxD7pGM8v
0ymsPe2rgBUNqru6KoXRsF9kQnHpfNKN5nI1Iwug/tea6lOrP6WnnNt5HDqklGw5
MqX+90LknkHYyCWD9IegUwVllXHxhRWQ6amKnK+wsQGxtFU+5vgr5BDmSCWw69Ua
9o+dpOViN4nRSe0T3b0bvPiH86RD2Q9eTp1IRJtWFm3OwSzXgSlDJNZ4ZwyvEj2Z
vUm8iHE8NlRr8YUDK6+1KBteGwNT/EExY3NFylDiCPFMzeM70DTi62SAAB//KguU
I181LHYP6XbxVZxc74BTzdqgNpXn04tYhFbQZLm0Lu/kcqvd/2/jE2U3XxwGjVH2
iTq0gL4rSru9z/Fd0S0LRzd1sPBFCu3Kakt+BN4+QZkHRizFnwfevGiYf6MJ1J2V
tnba+hPNSGeeZO8ThTCmrtMAwPrW1gTkWPr8pNpTsIjMyjD0jvGJ1I81645nrqUK
EcgXJ8Lf4BZ/blvWSmZdpMao/PcLZrudEW+np2ff+816GMU0fMmoD6oAigEd7oi/
tBK4lp8HRiqmGKgqKIHlYPlyycrUdULLiClgf4ZDf+V4FKbw211zn2mPf4D38xfQ
EIpPHwWpjeWU5MhvbrhGJ1DFjlwMjhSDPYPhOEyDmnS4BmdyhbrzfohpSu1oAtxR
QbQ6RpX9nu12h8ugSb/jJojae9Od9TPd0MhvO6Ecwmnie0+yagM3t2v8kn7osCvb
/wKrMhtSUklvWZeWjL1aJPjI0HguiGaXx34W9qVeR7UYeCIMjwONUWul3xSwXlrt
O6wtel6OsMAd/lBBHXjuhAIqQJ2RWfh5laxifETtHA4h7+3j/Vn2O8Do5aLd5NMK
z9AIssKZ5idwWBiLMsjDgJAzilsDn2Tzkxih6989FMY3WGVa0rPJ0tQ/ORl5b1P7
6hXutoEkg72BQz6lc6g0WKVwzb3YoIlqxP7Ez8ZEPUhwa/nGysTu5QjGWwN7tqnX
aZTDVsxyyj53ywO7gBLESMlOsdWrNn1suPmwiwHjMLa4WjIIkwH+/b5ipfsU/irr
ZvzA0m0iSDDK8cLb3DVlHTmL4mTSsHibA4Qoqju58kfVRyRzFz3MFP5/9reeNEP8
2nICppu35zfpAFtamLaqGo3EHy6N9iEyne5qv7VNeh873HcCQ2+9ho6ioBADkMfy
NatEEW5vJcMs4JhrjcGeElSkYX+8pwVxAkGbyC02FUIUjJloZtlKjdogfooRCXY3
C2ca12m0hS4fMxYzDR2dVKlFLx4r02wDy2xU+LNl606+UP81cWVwhh87KV+Rr87H
2fda3VDw9rOgsdQJV84I1kryuVIGFXWLrch67C04Y1AlptwAILm4S6DMg9Mxb+Mq
HUNyyR7NjRQgaLtFee61tGbbvWlt5eutHGlvWyuX9qTGKMsuqgk6xF4R3vNpRrfH
Tg5HtwDXKRx68UlQFLq13qlwSv6jNSTccUS8s5z2z9ROzGH+NLXs1YnVTM0KVAAg
kSP2XURgQ2Gv0h1eqh1MWOuh9VRS1GcybtTdmECZhNFZqexqHarYvf+zSU9zUGax
2T6lQD9nU8BudDjT8sIA04CiWyNFIB1lEFB8kENuRVYx9HDDEVFja52Htw5QYXeO
HdvJYXDUt+9JurFAXYdKpNBDTpohPa04sjYc5kKFQ/Os64NCowuNETBP1ELsovoU
jAPnBwVZLK2Iphzx7dWd1OkZ4elY3HZ69B1x0p1+T+1HpQuf1J1VTjBZoFA/sOqK
6T9s4n66ULgS7Pn5pxvZe+IQniTAteOhFqLu/rMxPeB1U2PMjArz3IP5wgKPpk5K
TWnXjHBMzW2g7qiu2d7AqS6MvcuCpP/SmKsniLR5BnYdARrKR5/09D266JH0HuT5
X3Za6/7CQokEfrz/paL83l3L30HRp80HhgIPmvbnzhF2yYbOwsND9mtoTf/nrnyQ
7qLyWKwAoogByN/1xZf8AEXMYluEx79bfJyagm1AG8DxFmuYkVjPRk+onG/1b2eo
t1797BtdYSEF6GSuSgOH9Eaya5XbRU0P7IKBKKKI6+jczqQ5X9NL9h2Pi6rTzTIa
85PLX3ASgTHf3D0ChOPAWkDeFutgB8jcJeLvsuIqMHUtMjPQQeVFU2e/n1L9U4m7
DSkeDZ/fWrZQOLabaFIp3Sq3zUWqpFRYmKTjPiAWctN2547RCUMseLcLqnLRhIRU
DLH0B7IC3M0voo6BL3RUormJaR+cY/u1AUiuPp/OFi/iKc/yi1GaiY8f4xDatHo/
RLNRkYGyTCMkJfsYQTPsOlPVJnBr6zH9qEjsmiZwFi53v2kQWK7dcPIlXO2NBsg4
hDC49h3bDWAAZS1C10Z5Xpcem/W+RkZHpDnVUPs9ng/B7aHk7fKXZ1A82qXKG7qT
ZuymJg96+1L00yU5KdJmHsgGL6hdSE3MAyEEqmVDuds69DkkWUf57BlBDxZd2SUT
lo/bj3q0xWUA3+sAbl3XUFyIlhbgP3ZjwGC4iV2tibeWQtn5KxE8Tx+AIAfPJa7X
CEU4iQ72Iz/I4taMQpiqlIHTPuLTcFpXkkj+eDltSrRonibvdQqXvgE255FqJFhj
CqiN6C20zAHipQScrb41CGcDPdn4ya7jNsNPBzOT9W6rilaiGlXhxuXTlqp6ByTJ
wNMR6FyxOmCwlDVAEQe825ntdKV0EwqFnHsoUhgWhfwHID8JwO4cqW0g8ayvLPLr
WlplH1S+E8zhbfvlqVMUW9IBr95fLrkjg78T66j6lATBQoW5Rx3MbMJSdLby38dk
O87+7/W3qPhHkVMR872oR9ymWOmGQpIi2uwlj2LBYgGY89fUlmpBhW6552FCZhWY
zeNtowumV57Tctq3exKFWLzTosfnejMqMrGQXy8szXnG5AZ1MGj/8d/Q+8xeXI6M
vjeyzKpyAxOd/XBZ+EVTQk4YuCcyU6+AU+zOF7vT1HWjf9sinMA6EYm4A4tILEnl
r/dvUQkfmzzR2OPxdfbWtQz9qrYpnz/CPag7alCxiAHcNNrxXdirDW0xPXVgSIZS
jpetpdoL0VgXS+HrQZcGzUyVE0S5kXmRG2snYH8bdhRAu/+S7qIdQubalHABnHJC
upvFRiAVV/YCWSC6HZIi8TJPn9oq0drVd3kbhi+MhLlGCzEYkTwcnjRRmGMDo7ZU
6bmJCVBm4Kl8akf0WkY5uXr6+n/Ee/eVySnDM1WCXfC2m2B3KMqWySsgZydVJXkr
9+oZHO6kU1+5yLa8zJcg5pY7DRvHe6h8UQqWp9yQE3hHnAeLG6CbE47Nw/PDIUNX
if7YSJ088/dvFKh99K9We8U1TZW7MixFcTAUlJmk+SBHY8nM0GjqpDUBHv3OjSpi
K7WcLlN7zQdKzn3gTkR17yTUek76fLOFaFgi/2iT6S18BM+cnmrWN9BsAdWflYXp
TopGq/YfZ5/NpumaXl6+zdrpmnrZiWtTKF3O2MVZW2HdHms1Lu34BlgWVny8gJDg
YA15Tj0bzsO9e5uV2v2iJo0/n+9QJJrRdJXdvw+q2gh6x53ugTVJdPNOPrLox6p9
CO7EfQuQ3sLEcrFLvr3T9gedu4TTZQ5yMN+7xRTUSI6VeeHvjeaV6Nn3TGYqTmHv
8FGXdVmpZByfu9aDKYJg7Z4NTLehA5VkbMG8MqzmmRGMYQiAiQQF1hFM47lIf/TR
ZJFEE6i1LXVW5To4HjxDEYt8yipY6d+rfurkyyAGNGmuy6qYqBFE84Hl4KgC6Tkp
T2drfKreRw0aMkh1NLRxIZIYoJ8FeuMYIVSjG0HtbcfLJCsb3RogdMQbeS8El2um
THcJF4rKbpiDt21oltDzwn7DphBKupBpYptDuZflwrXTduw/qinZPaatOA0wa2Mx
GJlGEe7LxZAjFcuidT2XqrAmS4F1pxWqifkWGUqVtXMfg58lOOPNkYratbPPOUxh
1uZ8Qc2qwVZRWgy1cfWEFvWsReBUDv9DpgBnaK/hWEaEyRUePiPx74ETSyIrW9+f
JNT2k2gvfz6+/aUPob5RfArXRzFWQwnSgSk3mn5zld5YYmRVgOI9UIVtyxE/MG1c
FPAsdH/0LDPblRgFXg+EzlM1jmZU4AHps2E7DlAKjeAoeYm4o2AwpjjJtr9nwYaB
HVY3ROBxVTzCLjxVm16RG6i7uQxhxszCQ+ZyZ6y2xlfcUnw9SchFBb9OKqvbUDEY
F9bVaNql5MpSxndoa2uzynzCs50NKazbTes93cMGnXML5407+kgXWEPci/RL77Pm
Z3VlJ3yREFetueF9S+nMGkPxlDQ4OB3Xx+fG4rknmMBCbcVT0FcKUBDoW7UxAnKK
LslpgE7nXVCA7IDcNduZV4Dba3NMLmdRYxrwHcJRT7KP4PfDiNuNLFGtsiodWmE8
NhzMqWynJizconGukVRDRt901WK19eRs8kYjjowrdJRorVlwA6M5WoNAjsHRUdda
jNb/4PMwrWTbmSAauCADtZWDUMu2VGxTM9WKjXVdQidDIzy2L8Y5GvXgJBx76sm8
u0iFtttWROtqMmTmBLe9+k/3K96zRyds9PYIK44+qdByfhoz3RXC89vCpeSHK8dT
yeNsGep/+HXtWEwSc/lUxnXCneV7oE6pJuqSGz6FoJXLKS4/c/82GjWIYqlT7SWM
iriax1JRV45bHUFoGvpGwE86IOQbyMpKve7ahZHpFsHZCDgmuZBUw5piuN3HBdeV
GyrG6eVG0ZSVaEr5YirSMVEoSi96OhtMmTwVL6LBDTq5G1of2AxBSDMP5HeMcxe3
1w0hp/3QaT6n+84MwQ2/lGHEYjzZrMuCZsNIJh8Xe/71/7dIzLBOeM8q4mgCpx5/
8z0ZBNcJaJOsMek5wcfv0Un8zuGytf5/lHDkrf31hvGuw6fhP4Nlwf3ICxTJP7Z8
yDYcak2uXh6+8F+oHHo4ig2tcvtPMFSxS/cY2TBKquF76TJR6YwdpGIW6qhN81nt
Kr9gsjodQh9YC8D8thnDT8RqTFiQEyWZAQh7wi30udQa6rvqRi28oRoj1NT2Y7hw
+EBavV7L6JSvJW16La+9+KPRvACMhvvUH0YS8ou6moeFtaBIZ4dyYaR1q5zVmMh9
pGMsk4PQlCcfl7zyK66cfRTniO9MKnsttzEPD6GDDymFdVSLAvauTjh3a9f1WmhU
dsvwzhKEJH/fAw5DRC/Oa7jFfClVT6l/8aj/sqhB0tiQDccFj2D5Wyq4hpx8mcNL
jz3LFpMT4M6Svf9VnRr7TOY2mOXRCRZaOe0Mc7e0PDT+qd4A1WUQwSndSWiPfFdv
xjuYgW8oO7pjvRgGdEYuYoduufKm2QEG+eAZfSuOvbWqlUhX3lzeoQR7zUI47dEM
cQchaWZUI5CCRz0rXDfK5wyNjXyELVaIKgGkA0ePhMpzR9Pl8PKHrGgg0eW7W4Gm
puM8JFSj31YxQI0OfBg+hf4ifXg9p3VuW9eN21IixomjYWyBgf8LsmInj0UhY3i1
MkhfNJEz4myByuJXpQ8AXmilpZ/C2mgmzJ/kKCkEKkt7w0HQVklaeQK4D9OSjv/g
g2krj2oRsMn/dbR00OYf1NqHaslVEZNkg8UHlM7WdZ3x5i7Qs9UIsH2OZmzhoteP
yDqB2fCXNCyk4b+kANuyoUtAUKtarRcPP8PhLXURWkiaMVc8ydrPdWkXxMREJkDs
XCGoTx7UmSflN7XfblYhqajOx+4rymjK0QYGIZSpFUi+odGbBcdTHg2u7ytw+lWp
d6INgPfWw9/TPMw50hlKCDcIz/oPIH4RnU0LgE972kGareK3WaBWSV2XcVV8tDoB
5Qij6fU6vmwKfX+ugYa54XXVqpXcu3y0WRnENq6Qt+nG/sVUex/92EKiuAcoawOG
orkjauO3EyTJmetug9Rah3GSuH2iNQHjKVETrKFRT5TsW7E3ohRwUZ07mNv3OEV9
+7mLVdqq1EbUNjssFn4HLZInjUuK5/kYrWw35E1F5S/IBw6bxPOEgpAkl//srC+k
Di+WodAiz3QKykAYoT89n/ic9oFT1aNGyxRnnWDX2dGfBFKi6vZ1WfulUdg9Q5sb
wwQh6JKhsOZlUlcIGxPZYQRPlgvyZD0aHr9xf6e9HSGsxus6L+DQ9f1Ajjf8PqwB
6XtMgBwUqYT+0VvMUTmM4FHqc+tXVVPSGjdpIzNbstmQQ3cZd28oSRGp36luk5AO
2HBNEvFmVfTRYboAqFKMZG2/rA0x4V7HdK2Eaut+4cCfqJJ/dly1zjrHyl3LZSOq
yJhO3KoCtiMl0qnMgmNWTmQjLUj1Yai2EChYZh6zEVCWfMMuyafFBCGokGKlTPSd
QtW6+q42dJSU/T7IIj8wwGDXcmpb54O7i1kKzQUDWvZsYlQmH/LVBbQlHXHKlFef
rXyKT5z9nr9id6A6s7huGV08e0Fb0vxx/4FqWLxRXILVt+hIspEjCUr6eAJk8Axn
X8bU4SpqJTGyXeBoeMMwfOzoTswwGr3lzYtBSauXHojYSlUH0PoMjHIwOJE1lBNb
qXqtOdSpOS0ZRWvxXTZsWkRjhTNWIPyEMn4DpJ9hmOHsla1KTzzZrInXvMPxBe+m
V3xsDh5r/x2GlfGRL18FsTBJ8mYH9xW5pru7itPzjl8icY6N4gyxsm/j3eDakDiO
XJuQmTHP6ZYVgy0639gUdoePOWuMml0I0y+3QaR6KEjT/J/1lPAuMZBZF012fwPj
3yLp23d826JfZwScfoeEQSYFrVH77hHvhZ00i0DIq158iU2ZYm9GudDyGLUSJ1NV
nxOJhppsa4oV1H01151jQC2RmSssijmMaG9iO1T8SiCFt6XSNrWO7l2Esavnlp3o
9NDnJ81Zze/fbZ6zydwwCsLtjVpGm3PjHu64MFHIYfWWZtENSVDdwk/BBtTIK8l/
bSsR9u//pjiw2opRMQqTnjjhtYRk/nXwUDzkvEd3ToFcEZaqe4ljODh2dxZpKUgG
9SIEO/eMu9tLhoPIORuUgkD97oDCmSV2OTjSb8BMvced78ThXMoXdxlC9yyk1xwZ
EHC/NcxMbDdjA9RIEPaUxa+EBDuE3x/yBHSOQD3pYqOsyzfx46bOIbgiwoAWTzb1
SKli/LNVqAmRUesG0cLvdhvxim7fIqu4TGb3OVk4x1nlTyg0JC3tucNXsWKTRg5G
sUsbIuF1bPiwZeuO5gyJ12WyJAIO2mj9Pi5TV0Lsp8OxOprwJNexTusAnV23+w4B
MH862lSmhsdfn0R4kCQ23ohW1QCVdjjyssBtaWwZpHyMov3423S79q3iNKT27Rbo
7dlgfVpS9GTPZGCfK6dNL1sTBXcHbuwYwynMOIdAyoEK4jBbcyzfJzHOtEFh4Ke/
y0691rRQeqie7EBXL/Gm9CQ46p82mzqXps2px7zMc0BoVVQ12NUE5wAlWX0tG5oh
cam1JxSS5XyHA5ldzqXdDLAUm2Ig+thHKFXTmv7r/XFWj0Sqh1ZvSezX1juuIwzP
qiLa/jTHm2yuWBTLY01up3faORubNeEkPkepXmaZPfWxziiLRYg6MHAQgDYbnF99
4igNdfh4ZWV2myI8ztqfDfcGExsm+XeKd4RLa4nRnZ06KmI5JRvyPw+WWrwRL+mB
Pb9IeN0QTlXqIffgPQ9Gvfsi0zaau7G1tCAMEBgEqnF7Dyu38LGIy5M0KY1ftzcC
JuODlBQ5I3GrQv2rajxzw46S/2hoxqMhdbaEZJHzkYRozE1W+ZmMjgcao2geOuQB
4aVS1Qvk92NnHNd8Civj9K+M5NgYCAmfQMsJIqAwDq1sJUE0L0NNcGMCn723dsUO
8QQVzGRwNeB6kF+awxMdNJpCYa4r5NP8VF7Hv/EVXvTeIfy+ibwsTn26cPqTYGOI
//O4kNJOdckIGx5OQrIDObx/lv+H0h4kAlXzikWYobSaopBMxpjSLuAwT3NGwWVr
sJZjKvv4NFosrWErQk/CwkH+B9OcdAhB7TT4piu4R7wxyGfm20jvxNc1CNPCxoSh
DW3JoU4+6/Z2CBrGGB7eCvTDyDkhl9QD2igxoF35Zp8/wAAAZxJfxCCcDwQ1xyAt
hHErfGSPLhVD8L+s9vhR1vAvC9d/AoSz2/GobwMmE0VwYJCjubj1UcV7olp6ulx/
Q64fLzCUYlslZOxdlk2CU7cCAORe8qluWlK7G0vnrujkEDgkPrtCYDrjldHgV7Mo
1Agmpda3Vvd59+Mer3NUx5xzeISdYmrjuWGCYgY9P5I8H6cHza9jm+zU5egC138t
0/lXIL5Rnd1WaM/NncruOk+GaWGC6gRYcbGlcI4/Y6UEhlrl1BVLGHuPSz6cPSnq
j5qUfLDZ5FNhDCL1oC3KgAhOkhtWd8n2bhQvb68hopaV63oIKiqdZTOxfrwFB/If
AfLNyGPhX+vafaVB9fNITimHH/TYw1lT+4K6tWQl1nmSqjG/PXdZSfSFDvClSzE/
pA9s+Es0446VVWnaH5iSfCv8KN3E0beVGh46pH+9fcA0NqH5nbmpif/iJ3uc+B37
5iqp+Z4lYNjA9R5rKB1JTdLIwvUQpIQfpozCAS82LcFPh4x49erGko4UIlAuqFWg
+t7nGbwI3ia7C+2p8pRy9b8VbeAOEZmyHjIJwgDt3TEPwHZnBWd/c5ocbxiph0Af
G+hiR6/3t6A67+dpBBjiFkwkghEjk67zJQ67i26GZPyUNq75+QiDKda0RXdpQ0ko
t7J8OawCIXMNLV0zfRGxZgT0WyYB2vvusg6N7KO6S1Rk6HKvUhqNWNITquIiswPM
TZ+F1ChGPcoaYZSIZO7szUgpbyVWjYnUM9FAiMi3l+Ma/oF8uSBKdETAEHD32yPY
voYdw57QhlSWQiRDkwN3PjzGRMclKuJBXrvEJTgRQCESetbNdl54a3xroxKtKiTB
8PnxYO+IcqQ5RsxR1cJ8CXv8faCZDhyDrP2+nB9cGWmZAdhLfAyd1JvlUz06cyyA
Ec2fv/5wvb71TgnLtvq2PjvpccPZBqy6l4rZsWlT5z92VLt1/vCEPz6VaYpsnIDc
I8u+cCU9jI2FHr6ROdCv0IfJHyDm4OBIJiM+xNWA2lNe867b0tSTihaVhNtiXWMj
//U43bAXQTGRWnlLezi7CrTumgZutxLIts9YXb8goFy2PUjFrJbqkABkEE+LGwhf
a+dGkEKW9PQ4SA16/pPJo435XFe8I9JLr3MQ1lAa0n2gLSI4qkRi9SLBw2pNTggx
355MgW0M6dfzMe8iTPS44YyFLRpjgOGg3gff0GGZnb9DaPJwb1km6f86r5fUH5+q
0okWbe0UfcgGjnXiL86typzG9deTOKYOVFX8RWYYXipIoC17o76gbWQ4e9PrEFqy
iitWTaIioFRj3bMolGX+EIADTySOc8C0bn9/Y5dtRoCqrahezG6LyVbyhgus6zTr
bNy6kPHAoQGvZYFqC2RvFkSjitxEQYmu1Bl9PIDcm5GzL4k78rSzsts5ZrfKKxKB
iRrqaTUMHB+UA0jBAuBAqh83+DRzuAGpZwBdjXPnZyku6Sv3wIS11ejA+GejCpsT
KRDJudSyG5XkHJKMCXTygqvBN2HXWuuO9AynobOr5CUyLsaTkgNj5/FKee+whY7n
mrJV9ysBqSDpF/d6cwAQUbInFx6lheIL1aZUmDbwVR1VpyezGF/ECDbZSVPWsGek
vTrxn352wXBUJE//2fhGp4JHrbed8MRZQv9ekDwXJ9jO6ZuAVBHTlkJY2DAoyMKN
NoyLMunanrexUIxIjL/JPYVKrroa4rzIXw5ZYEyKGIA/uQzcDmwh4ZlVuUC3Nwar
6IVVoSdxbLBq+t3xtkAFxPUctKUSXandPWtkeyWuDYDyMSVQEVkWuLnXbK/NIsVY
WKb2fKzcvsY0b1JslbMwOkNDOswgaPr5xnq99B1YalTx5tiqyAgKsKpaNoDvUguC
bYQjLpOydTs501MguyvI8U/3GPnLExbndEkYT90CsGM+jKgf2nwjQo+nsD3PfpBf
BSheqWwC3mCAikcxJGOT6JTDIwttBHbVP0okhCbhHyBjNXpDgubbSv/sKBCg8Ju9
UG0osZznVxNXpdmAh5jg1l1sKYZN/C1WEwEiDlybZ5FnAO7islLkJW1N80n+kAjN
rd38xjHr5lAi/GX6bDbNM3nY9bIxt82qH1t/Aw809iVBGEQsaMey972xd7xHA1iD
gu8k6HG1VaRAPekUXsHhC9FnsVlDk+8/VKHXm7D5uUf7pXuAVAkMEk7he+zIj6Zn
w2j4zHynolYW0Kus+upxXISohEfZ4EvYjbYa0+kClRcUg+ti93WtgVcN3t5aJZDT
0w20FLVGszMlE7C1zYZ6O2NF+DpOGxz12ZS54Dsr7fLpEqXK1BMibC2KwuQk33zu
rj1vy0XQFqv4DIvF9lu8Bjzzcj6QyHJO85AjiMobL/bh5LK5c/RGVxDPxs/36g76
IG102f2SCMbQHqLV0MalKc8nlQw0j2zwqqMJr6gs5KHLp7CZlh2WscFTg8BWsWK+
kJUkd9Ah5719t0v2lkR2mLosmz+xfVwDkKcxCeTenWSdqGiYVsJ/4L5YJxcisTAD
eNgIZCDQF5hB0gN2rx7mZzGz11ydvbH00BHdB6Lib8s8/lW+htZo9Dmkugqmfk/N
TumjEwyLIMalV6aSvqfpLLD9A/eD5jvaQ14ZCna0ZdMjrklGoquwMTPL8YGC16Ow
9SrlGyzaWbi+N6v/5qcpDJzytRWgNUjK77ejir39w7XO6krWZyr8p44GUVDQqtjk
7f09aC/tyiw597kDhJoiYnP2l07t0W4DwS9zGnvPGJZyoO74NkUpSh6cOWadYbw5
NVdoFNVPAFSnO2snY2zTdexyvjqLobHnr1hdPC3mSL6YoypRxxcjvWcJpDukhzIA
JkuwhZ9lDxJgiTC+I0KsBMz15uRMI49BQmPjE8dHQ53ET6d5BqzAWtBp1nA0SryR
tK5Jg5v6dwg/d3xDSIYaB+R74PsTOaA/lWJAqef86y1MlB1vmclOslF++wnsJCIS
AriJ/cooGa9AQzyh47i8A9ZEuupeQaFbbVLiLd4dH7AgKrbbPUsGx01wK8urEPg5
B5pyTDOo7J3463cQtuLZfjMZ+yfUDLlnezNiXVMI6FVqCCA72H7+VGQClUFpcHj9
jS4slMcvWbO8EdnDlX8XDphFdZpZMaIN5JnoC6WoEUTXzzNSLQcQgUG0VvMDVTMH
SGdb9lrTQLbJwJzeV2HmP17AYe4mvyRPONRMB+JqEGle0t0L56VDw82O+5UrHjew
sFquLL62yHaIgWXRHKm9T76f9OfdmtRP6Nva5PsHHWIKA1lITonSk3Mf1+oremoB
D5DBish9agYMG8VkbGTaL9NV8jNappE1cwhaqCTF3Az0+hv5Fdrg0EECMO1qnFFi
omqkipEwrqvJpgRox215Oez8FGR6ZPAOfq3ZAQh21ydAK+mM9rduPsRjhrgDFQvT
zP5IgCQhlCmF9G2JPxr0/vTJbIhpk3HHPXmQV/VO0XYpeSt6sK53Dcvqi8hDKnrL
sIwqeZe6jgumVDZ1/NMFW4DaskTz6Ag0P4FBT9gNbglyUAQvss/xflP9agWCWHmW
ormAP8xcS7l5oJeYB0HrvvO3M/11+hs5q5zhTy/T7Az9vfOfdMhhMu6UDPAoL7s7
9kIvjP5q6ZlNpDigkiGMy2kH6ALIpjM3ZJoX/FO+umO12m8BHdh+JCtAJGvj58R2
/piBN2GIB1Up2pbtzwoROg2obs2y1460Vej0LBWaYY21JUWYyhDAdzvwT1SVpJ4t
NFgGP1XDaCkT4WtzlM3ombDDzV9TsTasn55/jZ5fKHsipaE11PCzb1YiC4ov3CGz
Wr2AQS1omrqqlJ4l9km1b1ICDQECEVDnfjK5xFDowX5T6t6M2A9LpmfbD/mfVyIX
itpt41pp+RUM4EVlmJuvCxGbtFRB3w+y5e7br9GbUP4LVEDXBF3alHoMCvxvyk+Q
c64zn9zFnhscTVnZeyyPGDSsxZFTbl+DfNHqseXBiyTEbKy2kN5VJ+x5+2MAeUTb
F0ntgUpFDw+wtQRp9kEZ/hu5EXaFUHpI4kvyQmFM5RBFIV0nhw8ssLA+qpQtvroG
DBCmcTJ537GNLaL4nvjkfHqMcnl5b0315BL25VnO3mnPynITEWHsCU555hix5Ysz
U0tOkyd+Azh0gCGw8T85ivMiBy5zI2Fi2vsq9zB/Sm4Bnu3tNoigkARe33YrN7Kj
OJo1bA9z3yZUTs6zEQYgalOgMIppfDrY3g3eAexDjo9ocSveDiXQ2g/RkC7SmyUk
wbOSaEew0WHHhxhzFL/i7IXDkbnFK9O3ntnvvJO0OG9nQfLGMjPBkNxaAj77FHQW
xA4yCarbMs2ZQJ4PNnD66vTGZHgrlZwPSO93BmD1KTi5R15IgOTQf2zIzYZvGE99
V2aOUjcNpMDoGRVnwsYJscqECNVbhU6Z5e5O2OyW54m4Hu9TVvlboQHWCkavXldr
9pGaVrJFeyDJYEX7zlLecMTvwMWEcI0emJPUEGAqeXR4VPsOCPiCmI4vuOaSVoXC
f/vMI2XORNbixbk5+QPr8C41vJf1509ati5Q+w6LndGipsfwlq5+tcPOvaaSfh4Z
ukwdhh6rD/b0gNgQWch8HF+TfoTqzsAa7/7cXjP62IQkfE4WIh616S8TjvxZS3kF
NmCcoLPwWr/riffCnbkGku33L/yqfd5W53Y5lNtMs8jcq4JywkvuHrxzlntcccpC
hVqtGz03YprSBi3XxL54cfTi4suCQxAC4FaX7yJSdhdamo+nBozI+9+24/qFfyVp
GPp6u8T6UGsIrCH2NuDmY8AWCw84o5NOa7XH1J8F/PATUpzKn27OX1Q+M8262XX4
DZ//x+rCTD8fg0hP9PWBCSyhDbeuvpcbdj6vC3XblSPauKTENBjOn4JEs0WUucoN
R4Se0327smwR4FtbqWM1tIhv8lKb32++HdpVTMMQ2qwgdYSdHer629bL6c5JIz7x
vgGFHfN8SR4FIXzqqhwgkgB5vyLAiUGkyCyqZC51I08PuJ+3kDlezSCNxTSZuGdU
zBTeGf95CYvmh5Woi8PCqh6ViJngxFvp4PO2syCQMiZbZDZkYxsUgCecVyVzRQQh
QHR0csYtW9YHxXQg+tA6+xOVAIVRfDGpVNK4DdhjozPNUP//dHbuoFi5+zIeASsh
7HP1hWwBSmuz0oLGjzGtcbt6r5WOzjwUJHa1kmr8x26RTKQh5y39qt3flo61PTxf
9ATPwymUDs/yZF0/EJux7L0KFhWyV81y6ag7Z6Pd5J5buIb/10gbR3y5h6Pgni3E
PtICADx2Eg4hFtOLNz++Cbhpkve3X3ZgMXub95EutFKNG/u9Evz3FFWg1yt5+xMv
S8+/2pyc8Ama/Pzk6oBwIjwlucTO9scnYdmyz5WiW5/Qe9pKXqz4qRM2ldUrzscE
UbWWZWhQZGr/hQispIyLCSSjwtVR9jwU+xgWl8KaH8VivxiCd7WoVvoluFJKj/tU
PiMRgvIo4hchI98fbXyswFhSM5j/X8iTRU0wzyg9XjFGRmRmDyVK/yzsqrbX9PC0
2UsJLSRUxW0au9wdVDZo1loSn3ju06zCLBpk7FdZpcoco9em25+0gycQWZYDp4Js
o44TQB7lkocYB9SPG6BKJxzFmOHzzM47mHokT2pVO1yq1br1EiKDR+o0DSO3knvY
VQtI3kVsdAe5P1KujjMxBmopl0jcc4ssvhG2ymXxK+VX0QMZRWKzi56O9zm57lAR
YJv4efemoJ+LavijKXqZgxHgFy9VH/FbCEyfJqtYmfPOTpeHtC1o/o2t7Jv41ZZW
z8juiVGQcsdHYfdtrFrv30jyKtmTlCyjh5zEmod0SJ4+kXtUEusXJ+T897/VsRaQ
eRH77DjT50oPvduBlPtRGkqypfKduC5bhg5DtBBdQasju8TFPg+YmbBKAUp1ICyt
sQdim0iMiskDmRnSGpzYrGEXOSts0MvcC0Wfz/rJkCizAqu4DD1w6MwbaHs9LPQZ
ZNNFKOQP0ukmMMdTuds4gN0ny10tSqX7dcXbbny2aPSfDVLzjOIxPN96Wz+QVoeC
dEZ5uoLFd7YK5b24YHMxjEDRuc3Zfqo5+Z9gvk+tD7vUuhwcZpxqE9EntNLgfXZu
g/JAgptQZD5NR0Q7DLKnVpsr1PbS+JEPyUpbr31iYV44eLvLLNucSk29/ngpno3Q
eZMjUWHkye2NhPofA02rv163uUXlHsCUQM9DBv9jSYRmZw27JLxh2bD1kz7rDGna
DhG05QBBRxu3beXboIT8mTQ5anU3V3q5iBqjBBurfuO31TClw0LRSCMOuhrOfNlQ
boKvL1sef09pkoMh0uYuS9jeJ+8PzQR7EIxWwNDHRjC32lczTP3f5d94S59v/VgJ
wiueZWb8rgLc8BWchcqz8ljbiXzAfVaNPxd1m+cYUg9zRpj2Ljw6V0sAgXScd1qf
akC7kfh5B1HlveSU5wV65jfswBojTE1iRj7E4QroA419elze6LV20na+/JMQOM8c
Y/Ys+qlYjxmb4RoANl6GdC9ia5rxYAkU80GPbulEswYWKv0sso20BnTUiIRV+Sb8
ItRyBu0TvyaVT1/Y8mPrOBjxMxx3f5HqCj1Deeop66sRsfp1nnWi7AVEFSisAd2r
ob+tq3zPtikcgqbKL3Ho7Hj/ekSapbmq36BsdlD8dzJrlkPi+y7xQ+NbOBSRMkAc
wmzRp8hojd3ifYTTXBr42AOHlDbqaYXw0zYk42ITJhCL2xWDY/MynwKrORNy/fAk
ZC7Pyusne3iJaUEJJWMGJEYP4G1U9/88PRyiYmS529p244yP1WkbXrttJG5QbeD9
IPImtw97L2J1C9NouXH1s5/hnzZLGFzuETY47Jn4xwZPXL6fFiBkgimdz+MGp1ps
kYfMH9Bee4Onz4tul/k7ir8k2VBLzcFHFIakpvv3YCmoU1cNUdU7YiLcxV/jpR2Q
gZxN1um6BIWcXrrDtdLNzVF01vuPtdnCHfRplk2mwDB3qMK6gP4G72QTiTqw0EBh
qDUNUpfPQfgcX5hvg5xeRztbz4ESyF75UPW6aw7ToNS+F64eJIflZXmB8lvjtcRP
eLJEwfJMEE4zT2ifglQ50PRbrkXCkDU4GDucqHRrZsyqjce7litCor+E2WR+n9xN
wvryFyPgexbWOqySppp5xPu/84/Wnvha2dvQN/WqBNmkATNc6VvGkK8/5u2Hb5fy
+fZ2seQUkCWpTzjKitZeoUVp4fYrivbCkypYMYn6yVcDbrYUTzh8QGKpIA19wz1w
AwJBymQb39a0WXY1cUTw7TL3EeopttA4zLcT+6aZgB9uBWLL9AM8An6CfGfajKRb
alfpsoQNM9Q6fk+7GWlUQJ6Syi+s3B+DjrKLrkZy7agTPZdxKUyZvYj1qnR2fGDd
H6lIFx7nCFHsS8E4L+WGu99UQ+MDOOLn9BWdn5yxJ6eOMMAIPEVWnWAuMdIGdk/4
D/LNEs8yV44l4NnVpIQhPtZNGnUE7bF+AlIUmqcuCX3QTB7YTPVhS1EejcOLoMrd
vcvvdmfGEpc9p6WTZ1ct5DmMHvuoNb1NNIVJfKa44BPZPbEObP8YxQ9LmWGYw/Og
xW7aT32czibAaO0RmWfknWBLViffMKRjeOwCowwdeC4nqSLxFVqZuQNBSkJZd0oj
baYEpzF3ogFXZ1UBTT3+GFU91JioaqFKG0EycVi/rY2Rqj/9UMKKTHmsUcPNMffT
9U//ifhU2vb9R/RFeDAoyPKTylRFNq1AbEaBREuYxPHVq0+vffZ8OJGhYXiUndkd
aXLlgu2cNv8h4joAxTg2fO/p+luraCZM40l7zrbpw+N9ePnwZIDzOKpIKfKYQnac
Z0u6w7ThrHeH44TDJahCBa6IozD5s03KEP5b2uCm3SGtJkwI/osmjRgBKkMigiW7
ddGfJp23uCJo3vcIdOqZQLiQwBpYYTTGlhl5IaacSkgzEaAjS6p1aO0QlP/S9sl3
8s3HgQ+Z7koeVybxzBqzWqazbaMs+amLqa3xip/MiPInuMjlRnlWVXEJGd0tFiHQ
GGFD5utzHvxBUTzKPUm2oC1Ht2BHlYiewcy1hzvrEZjdgnl3uV+dqVidQONxyQ3s
qdkvw/fs5wRJOwnceZ+hpcOKjI8EX5kdFECqkD3Ye3uh1EOV/UmxKF904ND5FsWZ
V8yHc4AkvKOw2ADjN4oC6KAAo8yX0A/XxQRPlVlsRFRLn7lyWiXW8WugxqBp4rLe
BEiGBBlkcXzOW1CAzcNVW8i/+arYc1vmkna/XWZ9ezIuFagh7BiRcu5NZD8CESNc
Dk3EKyKc3XTEdas6EmK966GZjL8hDEVS0Cp5GWoXt/sEon08efKf3AIv8jrghNCi
FU7tnD9sWrL/400BJlLQwPUyjqJNIOiQCNn9A5nWSwSAkK9jz4bPwipSC2+s1Kyh
xFhB7KBqc1Bsvoman5zh/0Jl91iqnLPXIWpgpc+9rxnphP6YMN7pi/1H8xX8DWAt
oEdRFrkT41JTBpUcM23+nTXOhQibk/9zmcfDinJR5SLrvDOnIrlZSnBMggK5W/yr
fS0JyBa9DZ62mCH9njfiln9d/0pzyd15Fazd/vtMhcTI7ql9A0apmU3geyP/8pGr
oAqSx/geFdkb0msnlCsV6jzsp5FMYUaN49ESfw3w/NGdv/VnJML2pkbw5rUH7nRH
4+QGLvAT54kU5T4fTGd6JkYX3czGzAdAvVnY3H7+yzpPxU6hJ55t+L/KokMH3FUt
aMtR8fB2h1AbXFtwi3Fs9Kz48noen0hkw4UoFqTYgQyq2KXWYrQgtn4ezj0Uy34N
u++QGjwTepP6GCvF81n8Halj+VU62KnpEJDDwGa8SZaWEF/kNIcgd/Bd3K52ES3X
KeUdHWYWLf35GScn2ECm3PAAueEtbNo0PIn4FWzjqc9MmWJwfcH6X7vdiLCyMiHo
5e0MkKTR4qwJ/X5UmzwNOC4Bl/JNOuerEJg8ZDHsY547ppTeqvYZ9bLelARayogH
tzheUBI1zokfLN3GYgfsuNrn1dTavJz51e3xvPCO/m9bxftmbvVEGpdSboLQ0imA
+t65eN/rjVANwVCaquITpI1Joaa70p9ujhssNAgH9Cft+BYRtxdl0mooBlBlVeLs
WSOInZVvQ399PP0FmTerAnMxamm4+XWa/slfD2Vmx+VCPh5vOAal3haBWqtldFLd
Vg+SJ7kYGNaO1D+gLGkmORacrBNjAeDmNTce5KwOkmGD8aJJxMJMVQMaYgXFdyxb
StZD98EFX5sVOz0O/FM8ATa0LXhW7zf8Wqgw36tumDZhdGfaNfDD5VfBaOGWmQUt
HdVE0Tegz/DEX9Vbc4EDs4c0qW/5Ip+F3LnQN6zYumfGuZ+5wwkefuRQncYRXakF
YbYzYmLC2XaI8T5XnJhuTDMhuM9piiayLqXinMiqnKe2ppx4fq4hvpS9zTC0GV/8
aMhsOkbH6N7O5WLR+CAAJyRKo0OG3fMV5QjCbGYDUj4wMMj91QTM8YBZRQrMcucq
61CrLUYfTtD9th3JT5iz3K0Q/A5IY0Pi+25kcyeDD8OhSlKF51GLUU3B2SmcehoI
J5OYZKNNEEiQlhgHTYRiagEykIpjBTVy8YtHlqMUB3atniUdo1Eao+IET/hP4nCK
VwteJwxieKeh4OsFaowf1Y6W2n11UrlyS/99HKkMVdAMrpjD9n0Kp60jJUDG/IJF
KTUIrbyPVAcH92spOTV/92HnWG5weisRaD/D4HPACuHCxx2dJsne5i28ZayL72zo
CD1LAOD7Btbsi/b6hk0b7o/OY0b/TMN2r9REi70GQxCLxMBwjOZh6iwnGCyql734
/+HC8dgclJRGv1QWncvfNT9PzYGq1l+ZWdsyonjH0LW5k+Sq0E66SnFiPdeC6bIo
NzN6GKS201O/qQjLXjJH1MIHGDHymyARSe8klo5dGMGkZZ86QHQRtMi2SilcOOl2
CgrY+eiKehOWKcU94+GO527UW4Qdb6OxLH/oL3xWpngVdEhplrLDzObV86LPbQF/
/Ohwh5V9ECu54aF2/HAHseSnDCWidMAfkiXA1GQtx6V0raD3VuIjkTvqHjv+d8rz
uJ0ligwKDsnreYo7HE8vbluWdo9QNxV3wG/daOz5xA5cSSggiEvvpCtBJixRJ5Cg
4eibXREwEgHgpHdFngx50dx9tMH2ljS6EVAs4dsl5xSVtWS+8c01jhhQnVIa2RMy
G6Hla/7bXbWSizpXeBJ7XNBNIuNjAlideMjvxniRQfiZoLuoLmffkw51YZZnTNJE
Be4NwW0LYwKftu/I+sCoHoKrSDxDrxYHcj7ZBP3qegAoNAmIEjZ7JfVubOyJ3ueV
X5dLBQQ+GE+FG1DyXV8QLGjq4WIIqiK5Pd8GbcAZuoGrEVe+t22zduPd+s4hekXv
zQfEeWWsTO9gSxghdeiMXearzRMqiPomJyuiff0fVdWQ849VXTcKgqL7PF27lQGF
M3T159CODxUUkUsmYpJHyLyTWjYIPj3xdXBJ3iyYMSVXXV2vcRhWTJ2A82yI4J5H
IQ0665YBe9tpBhiH3N/lJv/v6a0iCU5Jq4uHoyxDGWjTst2iY3FBZHsGFUJiVsYm
aLwwQeR5MgxkGuA1/1jNw0IKrWZpUW8q4clfrRpb4NC/XoenB7YPAVUr7wlf/cC8
fdMhIioEcFFswUCPmQGOxXDOTAE/ZaxjDDAs+Fs6KHjGMW7WG/5Qh1/8h325syQM
jYKUAtTPzVWi43dQS9pgSAbnosGUMEj6PpcbVIsts3YeQTbjUULICAvnOuAcL51z
2Tvf0/dfFSgbtBeWVNtKwYfINU6OYMSFAlZRGzrVDLysBacZQPrB7dhDzEXEy56u
aighHXe2LyhuBgMWXuq/XWoCJJgvFGw1cuvJ1mMp+XN0KK7hSu87HkhePuWoc9kU
drA2EnJCOHKcexzCEgBu5od8FJ2GgOWTMjXkxAbPi7HziJr5SrmZ36LGMkMLHErk
TfIVVaLQ6ShLRaq2GnNIi4utfdNHFrNi5x9hMCsvXCseiNvEwxZXd+uI1Pg7yoOB
kf7d7yw11XE4k6YMMzBBVsXV4nuv6YEof2M2sPwH6N9RjRoFF8HmF+mHVPg8qpWF
gXY60+VFwefcuiUOhWQQs34qq5tdmQhTwI1W6Z3AnnqGbBnyxTE5648K/u70kjgA
u0wFAMYB91syqwgGjrzT0VeNhsen51adHPemZE6pb+F2kXeMpbF3Ny5mPeHPEJ0S
HfE/xJjTh1LUn7YKzpEfiQJkLMDIq51yU0AkoNAa415OEEzWrPvhuNXpO8NZ9Cbx
qp0HGTK7sAd4IcxTAM+LEu9oSPI/QnS3X0MOpyaY2naHe8jdOrF3iRrrvsN2+BXH
irvchLPIeFg0ZGK2KyTJDB4+gHK+V8C4mNMN12s0NOlNerfNQtwZzmpHU8n1R4oB
XuMrkNU011YHlUYubLBkcboKB6EiPhG0DBgmhMedaJcEX3tcZE5NVsxxlunFMe44
8hUYUK4G7Zr7eCDvqlVvDWfWiUKmh0jc50aqQ1LuR4rjUSIv8Tblb42Fw/voG2W5
tWnEGAIRQO6DOcXbLZcn/O+nFEHNLhM5OvQnMzuf5FTDhIF1I1SCgNFxD23468kf
gwzGBQ17rTFBjbI1CdlwHZ1HW8hoeAOUTBHx4pKxIZe5TZQuiv3zrV6eQdmYDkIC
MIkgZCSfTqxgXtFqifKzDhKQPMHz5/mF8W15RQKZeZHUG187ajjJ3UP6IRbcEsul
WYQWcV99Ywjy/VCQJmRa41xgNhIxVdGQMhHwuPD+pDzdnQoX/JoNKzAQhpFT1nOa
ZfJ1AkMcxKEJQEu/gf2XgJn8ei3w4xd5x0SgSAQ2NsCEnbAg6mxY+kZx1a8/7OyL
meaIcA7bwivOZYlYhPi031m2dEKloh9IQbzXkcK4N/hnuVbEXec4pj6xMrjZs/SD
b0YKRjxudVdRj7UG9ObMnGCghvU3N8Aw4kjHx9GwVjCKlH+zEfFD2nVYsXj5Yn73
iuAAWTPHsVoeZDO2JcMt3iB/nRmlT725ACKvqpstgmEpPqUU+TJ1DFhEz/o58Jlq
CXCVfHn+5Fd61WT5OlVXJ0uGmiPInCHb9IR/mfgWTGEM/kzOotM3ie23CKIIwLXP
TtcYpVUb+QWlO/syT+lGstf3kNP9Od94yAjohhXHPgnB4bF5mHAaYh906nheYvKb
8d5bRNQiz0Hx/rJg+RRgxmOACyqCe9zWQJxZ/cIPqx+pvmsNLalt89Um5pBPWfSD
+nimYTKs+qxpiELySoO7Ckrf2UBkzKX9DscyYVodhdLW21jWQmxItsjGiWZWVRq2
g8VkXq+hJaspI0EGhuLUag4mDAuJ/ssrUHH/4XU+mNiUf9u5MISpRdEPw9LHLFVV
F2xcTLHMVb0DVB0fa479XlaADOYJzPlvUwgCcfoM+dQnY71aVpRDr4THAcI/jbq9
i9+HPQd+qpg7sUiP+Ry3ODO2EzJt+ZNwtYZYGBN3TjxxyUzqkkz9mLXJ7Z78Ab0i
1jdPmleqAXQRH3HsdiEIDmJz/1dI7vCXp+z+kd5H8umBsBOiLzMNMsid0sTsH0yu
b0PuVwPUwi5I729WKsNkbJ/QNH1qobMj3LPI6hbuqyvFj/FZY62+nlxoMiXFJBn7
AG3uwAUB3Cs19avHCG40zG6pw80d0U5MwrY5E1uFkP0NRecJL4H8gBWB3+U5AVu9
fK/GL0urXFLmpNSZGL1UxhF15kQfW7zEKA30d6k3i19MY2tmlbSCEPklRKFowpbj
Yhy9rF19UEU6CUrWOfAQwN4bni9DJ6jKNwjxyy6JAk5V0+vCWmh6RjiY6l8n3yjM
BMQLTpHRGulyiGthUZ4hwJSk5ESgdF+9F1hXM4d8wi5qb+B/32au443wWMFJR72J
R0Jwp0XZoOmIyb5Yt+Qn3srECLlsBykH1XSRfklW/BONVk8Vip++a6teqx0d0wpS
v06GIIYUoz/ijN6MpuqN+/LMrUbtQuMVa7TTpJHlLetd8N2AGXvzdh+78AOgWxaJ
4PrlefYGd0p+q8ZYKPDZ98Oc5nQdtC0eio5dYal+gZeGYHUicYrZm3T5L4I7GJLA
IGgb2Km8zsbBjrySsBmKGkUMlGmEv57iXGRWlnBn3odDJ01xjpXIbL6bHNsZa85e
vxQ8H1Q19tthUAFFrDPG1an3EUAP3mUQanJEE0FluOKzRbZMGq5mpWsUDAC048yJ
njX9FesDmDRQYlo+k2dt7d9RQMkctcJdgf2DTmW2umqvnBHFOR7A/ItQVDjkndiw
ctMHTPowJ/rukGv/13YdA9iiqooHFbKGF25tkCE7D8hvMxtBZKY5H/piUBvrz6t3
e1Mx9UzsYEKVUVEx66p5fLiCwO6HvPETxBw4KhfiOOn2zCpwjRv8bXFpcVSJx8MN
NmnkrLYZVVWtrihwMMfKPTPq8bAm6lEUY4ORRGHGFB1X3LbnBeKCwynzX+qQsiT+
bUcHLpWRKnWbOwRiZDhxXRYceiWokfoaw++CKvPLSro96x19xC6TO+TC0j+OLVrB
jkZ5Sd0p3DRqm17MO+20oRiv6ii8s6k2tw1zxsSpIq6qsULyVHVtmgQ8bWtMAst0
tXhEB0u8T4FSKCKcL/adKYIkerLcOPrOZyYLd4OH6of6Wve3SR3tTa9FkKmPhIAJ
LV9y5q/RbK/oC8B+njSr61yKhakYvNwjVKzHPdbPJKsujsTqpKEqiXbIuC9OUWvq
S568dU3eiTbRao8U+GYiL3N2UKAEUNG9eXfAidF59QPxAqsSo00eb768+gSIYC26
LGVZgJ0N9QRKy+9JEnPFuiIaFjJ0q4vDeHzrw0HNE/5cpIwjfNNNL1qfn6N4gWqi
3b8cAS4uhuJR65+1SAp0ne866PNdPm4OSwJAwCLUScYB0kRJpjzFBe5H0pasJ4P8
RB8qnhYHfo5aBu3MFvbx1eZKOXmRh9KE/vuxefll8gqOv4jdX6KFRQZDBvr9BEgt
bipFjW+siYzeHnfuacZ7g5gEcLRS2AjftkH0kYQNORZmIs9cOA+QaAn7p/Ak5yLN
54vXWwq0VUVYz6rAKqBuNeK6UKEu2GT7MIBk55pJuSRyhpJfCCxR5afGjVXkPAew
saZ92WuemTqzXHIJUoFRjuVDQ1Z1Yuj+d5AEvudCv4D2esU1J8NBIdfGI9+bgXDC
5TFIWBbNJH0F8lnxF2AkYtwGK/HCJIqXX2pVB6g8ULR1QxGhbpuGqjxFNxQAefES
NbsHTCCz64VI/eEQw/GDC2cF/McXnkpTaXE24GJ73TAg2wg6XqYAhBPR9fai/zTG
ubmZ7aJ3WIaFgYJBzbxrfLkstzvL8/21otgnSBcE/zwp9rf3sB1rQQ4KImka5MBb
6s3SdfqrxnT5hanAUJuHrRpfZfVAtIPjswwsf/tbAmza9Aq8QOEjOswG0TXWg2aL
qkiJ8iutlnWs2P1MBONTLD2TxxbN0e+SyQqUWkEJX6Wq/n7RAsVVy1azi64VMnwU
QPNmCFQ4igNwDDtkgICOWNNMBBRrWuU91PA+PbVoKevxnbHLEZLsb806P3NuSJnf
4//gsmQQv9hlOgU82kduTPLcyBaKjwgKDDysc+/YnAbSg6QwBJWTSa+OJvtBFBeU
/lcoDNtqhtgGriHJBgOTrp5M95lzcpF+t+sykyo1xHUtVGzvVB6+6MxKNQy0AXQ/
QV6HTlTYAPgNWPTYyWNBJP/10DoOJ8GufyKpqmG5vItcqTwup59GGj0wDCepbXx4
lWN0HyKfct1uSlcnyRd/aCARD8XKFvRP4rWGvHt6NNPtDocqqEqLkVnmGJRFRcjG
0Vw8W7DPhDTtNNuFvybtiPKMywMMTm2tYREtL6H2TPPtIYhGfwv7BU0VQZXLrUZQ
70NFrCxPa8L9jbQb3dgThs21J6rDV6ZSAKbBemHIXlsX0F0PNry1KsE377gTpvJD
dDaMeuFd5NOUtfSR2sqkrdLJ8/d/hvYtCKB/RV2HdysKA2O0CmN+gv/ypL3sRmsA
lyTknkRuDk9motwzCem2T4F39sDkhsXKjFqVytSb3Zp/f8Xq48cR6L0kjEGD3liF
F2DhLGhR8h7HHaao+9+KVg3E0KQiT+KHbQFf9WiVJZ1UzS76iyp3eLiNrgnb1T1K
IPfao0WSh1nkivqIyQFz8d9WFerAQOVCYbpb+EeSeoqhllZ0CvYi7R+Cy9Ne8ae2
HQfP3NF+LI39wn2nSo09CIdeIj0CnKkKnlG2MquJBcV/Gqs7ycpCmIHBFmzf9Ib3
rtE3ug4k0OQvyCqMYgdV4XG7VsmtWQmKdhDd81oJkmjSiaJpqvX589pGkOqfPwi+
JKXr58BQiarpMRzquMtodoazEqpXW3r/jYU8xWN3UBqbPcsIgriOYAg3DN+4SLG6
RGT9vI5/qqpJJy5+hdhQEC+GjARe3O1mkSisLFFDA9cXlAH5oqRVh++q2YgX1Egg
bb7b88oJamJCKAhwUaearPyyH2UV/UVKsbMiXIfTG/+dgKxxf/pxbHnXA50KpBKa
yyY3jUCiglOq27HF6MZ7h56hL49/N1gK58FnkFHJB0KZyYlPhWx1TlPH87pNKJCz
MmZtUSDAdCG7SibDyMKIk06GKZhD2JMCygekc3Opw5ztsmWn+VlMhODegirjjtWx
z8x9J0EGKgnU8TgGCVwbrnxFNT00uNIffNO80ALj4KEgRm18ExvcTQ+UL2FU1LC+
JBNV6BUMFkV52TImHHX6v+Z7PU7g4XY2K75d66iQ+RZ2AP3LAOtfigla38LiOsRa
A2wMZEhpka7Q4takKFpth5d7C7UNM0qYobyQ03drLqUAh6fvQ0TL52ZzzPsOA/Qh
0RWTuKiDwJbq7gIIe4xMRl+DNTT5IbnkkmQllCYqxDrI1we2Cp/oE0vXmXbiRoI2
PL02iwJLOT2CPuXHLdkGEC9Rp0VY5igafC+Bn076sO7grLcnaVNpZ/bs4qRJDqqY
xqanwWgXZ/PW3bLCb79S0BeDrdknMc3zQqiZ6hO4Tzn8PM/BYUpB2i/VfHKET2Eq
N4yZSl/1W/DIaZmg0Ylta6qC7Y3jmXb7FWuB1osJkZFFO1Fcgb4m1KM2n776l3o0
Cmahf2k3id9CeP5ErsxLeS8U3ArKbTJjio/1R/YkGTXUXtutuSaOxq41j+H1PORD
qKd5GaOrPqy3fz9bg4IAc7hkRXR/xbidwNK63ZqMPVLd/LUljF50KHKAGYXvQxnF
wvMgfXPStp9x/xCmstb5ab8kQrlYqaXsjxTIb33NLPawvebUpjv9R7c6nezjWbCS
tvIomZ805bl5CpqFFZ7+iWWEQbWze1Sr0NLkGLFu3zs5K/8YDsfC/23YkIRP6jmc
9O1Sz1tLbJ19IV5BRg1QCWvBb5OC9HchcXrMKywvzqx2RFK35j3QINpy4xIsE/gV
K29I1l+wQOp+gCGgCisuMRmkXyp97qv/dCEhYViRX8C5YNt0iq7G9KvUTOcPaxCy
Kw2mPZV1wf1D8KMAAw/Qasw9fCjnALudn8Yj9FuwVJAttHLLVD76fsH/oobtc3QT
9j+bnbKnujd7hwfYxtCAzgtHbXReFq38WKRFf627sQ8qVsf03IHWrDx+dsLou1xq
So4ZrWl4It3MAPA+F0fOn66mdjDyypGWJEWiQSBF7mgGUxyG+V8+J9tKMVpxfOQ7
rl6bpczdePhjuQhLx0+2+HG0H71/7XOia8IRag7xqRop1aRBEkjFFYNUhnqd5Cvy
1NFCygh5XHD/Kv+UR0aI14PevDEHasaRFHUL5FXbjeRWlI4x9Q5sLge536+FLcyq
jyZbYMftKdnIiQrq2eqKID9o6R0BuoZ+NuAf2qW+K54RcChvZJOfo+agXiRt3DMF
VNoto+zGw8Lqsy4rvUGFLoWub3k+70YfUU9qe6GaS1X6M4NYruq7V6oET7tfFkWD
ZxP9HqkO+Obt458BARTTKDK6R1xE2rtSj7r1HToWiMraFgGEjQ4IbmE2UXnK/OpD
ZzIH2mIeR/ZGZ5/Jt5Yqzo02QYxIIm5jlxgBcPDsId1/avZZVpjWqWzW7OzlW48Y
VRwapbjVlnxnaYyljOKDlGQD9fJHg2y2qc/WPZU9AR3LR5oa3qQ5soG22F4ZvNXw
7O6S2IE23+dAR+H0vGJW5syfVDGLC9o1zyNiBJ5enfV+9QiOu8/dNxnzltki5eOw
Q3REMfADrEgY24ogMIwd+T1FdnBCcikxRMOUmDdCeNzrrqdtZwhj9dlR21IX5EyN
FNWV9a6WrmwH1W0XOqI4JjWkq7r26ctmzQhzL5jREiPUIyRvMsju40NHGezDj4HB
VDhqPBx8hwl/sVY4qxXwNwP5Oj6UPQVU2p1nqjduC7CDujopLCHuxdyicob9TDjC
dTwnrjhA/oFWPBi5X8TSbcxe9QQq9b5TvZDlEbYnvdmTzdF3z9CK0xi2/XpE1pbH
/aBtxblZiwEMen8MjwMe+2PhgpS3jsk++MRtlXPmECWA/T0pBQDUErRjVJCWHd+N
ze0ewVARtPzm25tm1k3BZwcZXx32gq9wzpntWaEKdX4kLbeyZay2dczzCd9wZc7r
5xRFbCUXl4vQCQOTjzv5sMEpTrvIhChVumebDqMGJwA/lTMnx/40fBrVj0Euk9IA
bJwhuK9NsUgPglo6pZ7t4OIEnqYmlaoMT23twg47x3n9VDZOuoFTBhNlbIFNbt8D
aJj0xU2z0LA/ISVWhD2dXMzff0ee/nSJG3HnYM9vYnweNNW9biIDzWOUzsC8qsxA
Dxyq8UstU3v7Td0rfGWRjGgJqbE/LRufnkpIuilia3xabN9MNCF/LEhmg1HYooKE
7tqfyRntFD85fq+SoSF8CqRLk4JqU9oFEDhpBNWKQvg0ona8xcJVnOtTINl4jI5K
T4O8vYMMrWRD8n7+ByOCMLN7Z61NCz45E0IXjKPiemU6DxOYakS+Fp7XdTLCcQzB
YPthfibOYDEM4dgxI+YLtrLhNWWbY4JSSRgwUSTpMdHFR43yBrek6aJEZFRu9MKr
pSsDUTpL4wRzsO10D4vvqW3FbNDJDecRMHUkk4jW0LMMOe1+t5PuefOE8n0hyZ0v
XSyCCaYisLdmMgmZtQIAUlRX3GuOxJGneApc8kt0GRDUoge86ZBNoNqblR2PVgDw
CFD9ogxJxtOK/Wc4Gma1fmz1VbUxc1qWTiZQsuhxDfIFGXaa62Mjsi66TwZ5Bfz7
mI2i0IGN/jnm9WL15j11mob1zeoVzo8GKCZXjFLDF/E8cALTyZro4ZZ+3ZEdFPON
wXfB+yMt0B2NyMVSG3bkBMMjiwjCkBfpx3Y8mG7Eor/ZOp7jXMyrdgVMD+6F6QSb
Wb3TBTeJ2vso59Is2P641JJSzEthDmNrHc86WM1Eo9o9VBYfqhiJtu7m/kQYA8h1
FUy5iaBxPBI9K95Mzt0q5uh427cO7XcvDsJ+xlc8kLuU4Qx+5cPcdGQrjDtcNcMD
FW79y/gJ2hb0vvtSO2dEOTSjWEeYVLo3E7/Mv8+24aHc6JC6iomvQzMKhH0Svl1U
QHThFYoUezq2BBKirNY5MmfQGOPKP+oHRq94ZH+v5X+1fzHkBOhf0CsFHn4hThhC
+70MsGQWSJzWxiJqIGrtT9B6ObdcPOYY/6k7iB96neWihPu4WSCvevQD+arA9Aw1
+tbDJ0o5cVtBauYruu6RFLzpFaDJpGPjsQ0GYHg+kV+MUDbcPik3z4Kpnyf9slJK
VnAsDcYgqX9sDgF7sTBhvDR17a89hpmILb7cmXBrzDAnYulP5aowb5CmvzujVLfd
DT1Mah9y+Mt2wbw4vMEk/UAqbsQI+v6DYE9Ib30p4hedsYVC2ZnjjxrBWgzK5i4Y
2iv4qhucYRv0TnVnqQUGyhVVrxNJkOLHGcmYqqsPf4in8nNt0FhQNudYJfOAWXYv
33s1eSIGP1K0WDojsSWQ78lakwYMKcS4NlSSRbbI3lGFZBA2rYxl+ES5UDyYcZFM
V5RMsWXR/vFgjkOajQ1PyWTI0PBlZDFfLDrJzHArEV6mdTjm8PHVrVOkeedLq5hM
U/OkT8Lx96Je0JHNJUDZxdtU4BkBExzRyTtq+CMWl+/ptIxCulfH+XmWJWa468Qe
8A4t+qaI/A2ZuBzWdBTgRm6ClhQZ74I8jAXH/LpcTGY3ZYzsuuFyqp0zBeD1F+GK
HmWJXIbJxYvVH3tRXt3rBaV/t0xRjXBTJK/Grn703DOFO2bjZ7z/0coP+aBVYMGF
h5BRo1pcf09tPUYcWZJ+YSIXJ1jzrWiIgZk9zBsE3hwPOJeirSdwwyrx6nZaM9Ic
+UsqjzuGpvBG7L2G/WuCAKjla+5nRX7zuLfOM0iAT0OPHvifDE3XvImbQ/l4OeKk
LMiFX8xLQmf5l5odI2rNrAwSIlAITvMhzO3fEJW6aAS0NBEGFvU1DN2Ytq0b7/d4
A92JWQBuWCxB6trMXHESkENwVh9AtnzLUzMW3tLDMM2PutKiqprbuAz8N5UofE6+
bPBQL8HMyi779oGHjYMVau9BdbKzEeoRP3Mffll+nFgo7LlNMqwZSzniE54GLO7A
jdjAFUyE/NvpVjwpF9qE6JHWC7vRnnzbVyTFt4FULhuV7RoMVSnEeiEsjexjbPXO
yN/rvoZGUmMzf41+3rOkNnoQXbqYF8IEHOt0UVJvUSRDlq20+fqYqWU8NLr2nFuX
O8raR2dB/JDLWzQV7Kku/ZfYG7Hkbtr2FehByWJjEW/KbFCluSBZrMb5zu53+JRS
1HPeRbebyDC3DaXYTx5t6T1sOkKFTByrEMtB3L8CO70313AAnsTGsmuacG9zDl//
1cuYUUKFMXzln1Zf6KeZTyUVFBOQ8fG6JQIPcnqjlKbYkfyQOal7iHmz6+BoYfCH
IHWyHxfsVlaW7BQoUtlpUDv/KMp23MuuHKSPxCqJV1Q0jWfqpEbFukRbEZiIB0G1
NuM4Mq3zZqYL7WGfuZg6cncCXp0XuV41VW6J5BQEFiWEBwEvZbCHOt7BTKrYc/Cs
ea7dAokQLLVsqIZqLiRD7BpaTudNo5ttv649Hn4w9q/pdxzzYLJhv4NWGvQxoHow
+DrYnxPRyHbayguM54KWxjWx6tXfAgFznfP2qHfdltL8Siq5ED0rez1JVlxkk0x0
1XM5zXIfjn747TQVCV7qBFkQxC/sJuC/jKhGUMWV1J4TiTEhe/6is8jeZPAX3CGA
HHzDmoqIis37tFKJodd0cUf4ApmI7p+QWos2nPvGnGFafGfTz1HF/0WeribcGHtz
vTYPMFdv5XaXXD0YCd+B8Im+mzdZIzf1Ur1nVw5M8wJtumtrRZAh/iVCOsx2XaHJ
Aa7C5HADhAWeDC2uwWHCIyrXJfOWrMilVa3Z4CVET8FEyVwRVDKkwrihkV3VtcpI
kbVw/6fv6u6ElyFnYqmag/n2nyDVhCGq4P3SwV9CflYhkpfWCgOQCgJyTvLUJIc0
vto9qgBF4Ym3JRNywbassZFAMTm7tnEzHIxBibkv1otFxix9PdDXh7UYmGsr7Zei
7dNrFZ8CUQsl+VJDGpmQ8T8EPm/f9Q/wPS/I+Yq+nOqx6m9AhSUBYcxmNE+7/daC
gkEBUiGylexFkgDOSd+ec3k17PjNfWLvSlnf/PH4c6ivUM8ZUuesWLg9mG+Pp3c+
eFyztR64LM9g7zP5YYdciPRcp4vitWlb3X6Z/kOBnseEv77WSqRkwvFI2WpPoM9s
jWNXn3VXvQgZdTP4pVCP7ooPnzRLMHdUM//i90ukPHSMpxD569huvJ/o+27htMB7
tXQpIeyF3QecYQm1Qk2MIQigzuL6w1tLNYphOjxv0ckA4YGqJU02BPr1U+C53iVp
PD/+PF0vlR7PfzqbZeTdcSatqG8/4p1i9/F+Jmp/phx+HhlKdn4sXSOlbbhaYRde
1/QtWhsfzDSNH4ddViyhUtMOwQetLc25Gea63B67ukLYSAhCggwjMnemqrlP2X5g
Bt+Os2qTNRbJFJfb3faa06LG6OQueuS03Qe7pwesDF4AytpdE7Yrjud/OOuws6YX
Ks1IuHUK4yuT/E+Ke4/g+ywtTmKMyMmBBwAmZ46tZ49e5ohmNWI5y7UQ3oaYccVw
dffxRLKaR9SwAVluqovVI5Y4XntHJspskA21+zf1fSU6JkaGRNR6vtrUqgzbcBfE
OUwcZIpFGDN9nrBXkjQ4ab59ihXa28A/nTfSYUaBmatghjPJWeTvgaiMYH8fm/ie
hIP+AcI2WM1bQTmVaoAgCJEhDm8L129mTu2p5IjHlN5EBF3z8+gEqOqBO8bWyRFS
SwUQCQ5BCRsOLuXxGf1lS5suOLzyVK8rhKtBi94iBN8JcFOa7CI1Rr/A/SyBXRqW
2TjC5qRe4KmAeHAQzRxaoz2UAzokQ3FvVUU2Mb02r31SNh7Xtnh9GaLRcLt4++U4
RqTvk4aa3oJMaXA38kk2/0JztwKs/mI/ELJjaRwzx3yivhkoAw8b0Z9TQgRERrah
cqH11Sw0HxJzM/KYqIp6Og6O23IXGvp2kpAMmVpe+akWZjzMa+oCS4GVTGX6D3Sk
bzL78JEtcBcPbzh45oesJ5BwkkGx/Y4TWdd9r6vrD6xr2t5JEcMlYcdgbGwYaxBz
BC9rXK6TK/w6o4EncZVKW7hYn32nG2FrCvq2NGr9MAuwsWGSZT3AVqKWxTzIdrvl
FGZ1RdFaxN2HiD/1RKb1FX1qKIS14y1jv8P3mws9zp8dDGkDYKz9zmC4a1JI95Ls
dRmTqBWIZ2pSi0Lt6JQ99omCG0jHG3Vp7ewyU/YDajcAXOcksLQNT5fldkWh0Ij6
Z+bgM+3Il6Ud9NYKBi6zu/7p4rLK59o5lkPGQQaXlKIobYOdwf1mq39KW1XcLEKm
fSWAChsKWhs9+49DOhrev8UYfi0wy2Wc06DTjQPLFCLl3cYDO9e6Lzp6Gzfjpr8V
d5gkb/1dMTd98yD6p4N/CuE5xYA97TonzQcaVZNIhoBgLmHDhDu91McZX/hZDIQP
EZhSoadiArE2GKZsrgegyc6K/Evak1wKamLRde506ZQB1G7dqUJAzEtLesDDB/NO
pKfKgBevHTe8HROh+s5dweza3qbT0iUVE6myl2GuFgWmCz675s+B2xIiDo4tWtP4
Z+j6H6o+BXgKlfpDGoM3QXDRabsAfnXZYl5cWuJ2IbARXX05wv0T+MIGKV7Zx2Os
MN8fSTN6DkDQ69tcqGMX95Il6yx1siRWuQwseBzGqDylsToqERmTzCaCtjyMm638
CfmVYry7SUoYVczWhH16R4vm4akvi3JeK5Ijw1EQnHOS0Yh+6mYzIcL+blAiAhIj
/+KsmH51eFqylfNtsQTbexWTyxz6hhr9vO4kcgKRES6OFsTAb6VZR04ZtKVOEOCb
6UwEYSI+67lKgl4+jJBzGeQosSvmDUiUbvSNjtsjcnrScML0RvqQck1o1DU3o2ZY
Rtj/hCMKx5F8VrESOtRUCiyzXxNJx3Q9vnayB536fLwEtApYuiutl5KRnj3acN5r
llsDFBWPmQ3ejLwABkWAW2nZCsP2sa3D1FrRFi2q35L/ithqwxmH+14mIu7uO3oi
6Pv0vKO2cyoZLu4sXaNlmg7DtSMl3wo6KIvIIdJ/FtUk9ugu7qngvcKzRh8aUG/Y
1+lkrMvpUsrPSWCVNu6fCfMOiRNHCjwA37R8GX0A8NHl9cpZefHlyGm3T4qN4AE8
++eq545s8+MlqRPVsUsuEvQtU2Jf9bMpEy+BkX1hqme6oGrMuaBObrljvKlgbfI/
+9Vatm+qIWjz1+INXFY6QjDYgK5Gx9St+hrPwQwt6jEPBYtr6M0Rw955v/nG9V/J
zrdLubqglyQGOthft9FKFcmuaQ+EHtCYqNgPEoCZfbJxrxrrKfd6194DwBPohWp9
RCRa6PP1Iih7DO7PKYgo2Akuq2+A1vJ9UHZs7+EOao8xuv7Tt4NGOZ1t9Z9o44pn
8qIhfhrGkvJPU1M6hwk2mJiprcxXraypIC/9pr1rPCwvKqey33SHBtIwvAMuiQ5V
QAyDWH5zsIcmszCSR1ZMzuzU0/6PLmAn5jJWREqDiKe63TIGScRZiqh7H5UhqH7R
dliTbB5z59uRB0m6jmiTlzt/DjFCsOIjWM2uoIcDuCg89zFV161TJ9JHCrLrgUHc
igErGlzKqNh82SmqIF6PiVne09dVIq8tqkW1anTmpxA3VAZEk56KxS4cuUxNbSMj
7iaG5L+CXo8fGnyC4hZ6g+4RwC9fXGx/mzabUPjlAK4BWRLQbCepud7hQqqUcJ9T
0R7Z3kieXgQZz76xFZc31YZXCtLsiWRbl5ayk4CqYY15ASNVF6cVFpEOr34tIPCB
kV8P6NGA79MjJdfIRKbUfn/H+dVTCFWvqGmI7yS+ObGaLZsOkhzM/mJq18+wHd2P
4K65LS5E+CdgeXghxJowmh1VKCefn87HaLCg4bE9SM+KsBJntGnfnPLe7jXHDjfC
PYQ+tXPUW3Q0a9cbaM9e916corV5J8d3zkB/0bwefwYtnBMmTE+8VreTmK3iMXqG
f1P9TnA0V3AcZ4jRn89zhsW6QjI5NYPGeVXv/EVMnAW/QNb5SqrcvrL0iJlTXElg
xAROTDaPWJMZCkzrN5HHNyMFU+fMvNwauXbC7y+3cVGPMQPopfezhRjvsvk9gVZa
F6a7oy0mOMXWVXTvEznsOLV85dz7ORY+GX6GAUXiScjONiOL6FISjCKyA4TsjP4F
9JXHUNUUP4Xw2zmGtEhZvRosTuZSzWNvvJwpiOG4mXBI6kI0UPVoQ52wCceNLZNH
Gs0Mc1nQ7jC2s/t02vS/T5dy7+WLSN/ow9n7o0buMcz3/5yzq9PqI88woODbSjQl
kbM20UERCHrYy55nhLcYBgJYxR+zstdOzhsylhBu31b5CRWcGUmehO8fr9dNZXyw
R05lCruMX8BGOqmikKokrKAOUNVzRljff9I1NqhXg9C4mNT8kJvo/4akFjiKwoHU
rj3N1nMEV/9OIEM6xG9R8njB1tcOaN83u4bmXKQT7RxHTkfbTLEK2/taK33fakV0
P7vOragwL6LOuWZ6l2Q4YfBTHrzH4AU2z4NlQnfZy5MO9ofjhEZbFJ0P5idUJ4Td
uRZeTFmktZSPKCJz02d5SWCPzNPn0oYc9K7OU0YKn2hH/Ttbu0gNnWwV/XYFWjzg
nTvYwvc9JejKfj374Rc/8yJuaNn2Ie8KaQt+QdLQpIqVtmYRkUiddIXqNMIMC/H1
CAOJeimIwaNO75W3R/sKXzLK0TXD/qCw29Ddpm+7gHZ3U/MyzsNP5E9utjTwTUNj
TjDtcd8NKO8m44LNVqih5ECICMm+uCELxRYL46eV0W+JpmMQPuHayM+bDx+EgLYp
5nnvfC5fPGZlXYLEr/srLMvzIY99t4DUk+/VyZLNFl79qORQJIlvBlj0rGGI8XPa
nqYUFFUOSxDmJQkvqxEK6DZPOaQ7R6G+UmiZ9JTzA27w5Am3V6RqBaehU/U8NcS/
zjeCZQVHf4X0NOD+1ZqAb9qClvrhHvNOsLuMvjVfCyHJhMXeZSdvZ97m90/UY6KN
qvIkSphoFJBMW0QgkzGInhmLrS8DBUntWyJAys+5IzwoR+WKb/qS/Bk8aHSFXJto
aQq5wZNUhCOU5EitoUX70UQAkfUn5ZlmW/YtxOy8AfISpjJkEsw1KwawQoF1rGD0
X9RjIFp3FeSYo+IqbAJknJsIv0u3YxpPCRixZyhgJxcC4ro7lkSXqD9h292htjMh
QtNb0lFDqXTlbLQLzcnPoEmflAic4ByjP3sBIJEVPjRviqHV5qjXTSsQYkKarb5T
3ok1PL+zTXOkT3Mjy2+kFoG/BkyQv0ZkAe7N7E1GfokctRkHaagLHeh6DWCr3Tw2
BwnDY3lNI0G9+rIFv2f0PiAfh3KAMMrQZuHXQ/YbXdacEnOYMgUSs8YvERGycX/W
SlV/7/5voBaWjbZNzezfZ9u1aydDq8Pm/tswLPzN+K3p8d+1rMdBt5lTihH3ELy9
r4r+PUz9GGapgzv82TDTvuVX+8Z9rZPymhYQz7fTglHtbQ1vqH5f4SuWbnyXHkib
a/ukXkguTw4TfgcrcNxxRD1No9QA+aPgATKQqfektRyK6agPbbnjvawJPmWHwJyS
3p9Nk3EG36P7CA5WqNIQxP8ol0M410LLMauPUYPaI7RUZtlEawDfGETN5+SYq0wp
yiBWPt/vF6vzdfU8A0Ckz6zQ+o5xTjWI6OWORxJuDOy7wkJxo/oAitmLzdzQ4bds
qQiq3WtUvMFwkOVolDQa/BI353bMralMrI5XvyXPDmewqcJVq8hndHspEBt+xDta
vVbZZ4rCMnlDPncdXgzYjjroDME7nQpViyksniklTLkPdTdpPpjN93GCYMFLSqPZ
FuKCV/6gOLGpZtNDWRl7Q4aC39v0b0+1aX4ZGlRvonmO2n2NDrTAHBDrmG6JNgT7
31CL+4c/ynonIOg2PKCVYrkdxQv0fDqwlUOXbiAQeFpygxDnp3FKVaQy6SOBEQmM
ERLY5xkkRS7zAR9qhom5FTejvHSRYHU+bItEv8jJog/pXbTVYsnyAc4PQL4e65zL
vlA3HjWXymfn1Ny43t/oyJAgYRQsuKKHiwfvlBuAlYM1hhTDC82PUfqY9nLf/Ogt
OvZ9Z4HE6oxZmL+HFTIiuPGLtxzwymitFin24p4XgufldHtv/8mQ9EISf8A38BAS
34z1THEXAZvxFGc6DzPvjkdYaIyU0OLNhcyrnWQFTN40HUWt5wmu3shgEqz4ICUj
30BQ3WwU6aMMCgq02Mq2OzBOu1Y46hoG9FGLFQL5erZkBuGTSzLcwOtAQndKCyLI
rJn9tGr9dzHm8kKPLf3IKmOAmH61dJ6wGKvJdMxfI29radeDi2IR+XgZ/mU9mfBY
uRGKLA3MGWa5Zxg7DS/UqomIQ8iyVP01HHByD9jNvrshEp4lRJ/+MkF373gsqWtI
FvF/vWd6pZh0LMOc9eRk5qrsHjCxI652C6Ub+oikPmrdnWCgfQ2EcFU7gbcEvOHC
uA4TuPmI0PfeuJ02395qpGHABva1bVLO5v/Ws3bQwbzFSwCcOCLDqDMZ15eHJvEX
vB6lo8hjixN3z4MZsFIMRZjCaI1KCVIexKYQCiJGPUQZNDoCaAYJjJuWwGloRjA+
DwJOdL7aDcBR2izrMjKOiWg4euh+DAUWXvlXbZ27elh/m3KXA2m4jEWtpjde8PrH
6Q1E+7jiKXrcQf+Uso4lMS5+E27rDmYROQhktCOXggXGbg0wlTzRt9lpJn6vxqgr
Il84YXmq2fH/6mFbhS/kRKW9oQ48JYBuouHsYjRa9Md50dF5sZIwj6KIrhPjn4up
8ttjldCcuUhbdmOgHmp1BOdmbIprFWL7HLq4KwTzpFeYXVcFYxSfGf8GsrvzryEC
EYSCta7bRDWgqzBLRlauyE0RSPSb3/Ft+iEMHE0E6j5lwAybZRp+i0QgfnMT22hE
MYvojgh/hCmnBzTE/sm44OjJFnYAvtZwRW/N6sLn46HwNCtYhSbvUDATYCVVneSf
RQqGt/YFyHti4hcI9P6bEU4NPUUxrF4bzVDuMol3Ie8Mxs7lquOQk9SSidY9f2iG
D6es3OjGPHB8gBSla60zDRONmHXtlE7PbUIC1QXG3rKcFzjlG3gGogrknBoUz/3i
AwR/h+qr4DPF40/yireYnOzWYwjsIeACRZvJ9mEe6KpCRzsUxUP2a7a0+Uj88ggD
KkGL850XC91Rjinzw9n5eLa+LN/3PrbRd2ElkcW0Mv5YFq+X6Uo0nZNLqpq/gp64
tEFA5YntPclZIcRS8Bzndj6aOKYpgzN/6Cn1XuIMr/ZhN3raI9bRmnVhLCx1+tzy
gFi1nSZenvtYSxKUDolM4HcDbZ9kV4mhgjBUYtpgtd/4nfYfkwSOltaVDlY+90F0
8aXsm2K6fJ5l93OP20GgACdLEqy/fzCBe7fpQt2ZgkyzYswHiVSx6feYTY7K61KK
aSJHrPVGnZRuhqegsXzimHKX0tOWof5tr+xlqseXgAWqfrYgzKLqldXEL6xV4B3L
t+TcCr9UnuovgoiGpBSODf4wskqifwTCrDLfK5dVuKVJEXE6gA8Y19tnYTpnf0+/
GUhanmzLvd3Cs5bQ/Mxv97t0yL+N1FEYHs1K9+Cdsgp3Q8bR1wI8AzFJ73N1pR5C
JP41FerkQrlamWcqvKvKH+qYjCnKCJ2lTkKbjUA8IDtv3hv+57qzsVQlVWjsOZK7
WmNYH3hLX5ojt3BX2xWTOL+Y9hSMorNpQTfABsuY+2DEVAqkF/api7slxIA38XAr
m5scBHqYkLfANFvx6kJ3uxqpfurTOp+5Tymx4mZrcAKF0XkTizJTBEZCTDi0eI8f
dry3PItr5W9t6OnkofZ3+24PVelLb4l09AbUvQWSAmt/+uCGvIrBeUc9MR3KU7rJ
2IdcdZP5LiPlH3ypurhLUd5C0/5+29jvvFC5isazxFGl3Ia1EYp7SXGedqeqq/2Y
nJfX8XCGomziBmRpWroI85lnU0WfW1eMlVHijqKJ3H55+xKNIbRbWpItsnki03gO
F8xvqwUG79NjYVaFGRm6ACGbXt6fICW73tMt28B9e+m36ehtkwVFXPPUhKnd7xUd
Fmqks4+0MAa+migNUfCH2nB9XuIaDD/CRY14kTTUWvB2zcVv+TwLVnZbEgU4Cdab
U1X0AvtQ5coKNeYGche26jCNVnPZic5KB4qvN4ti/YvKcfhzqw+9lRQ1U1o3rnro
N4wk2gnq9fTYzzCMapAL0xpnMishjYlkkFPspiLQDtVILz1XGv1oEyw6oRCPFMi1
C5gucapGt8KQHmd7kRsdY6ykKQt+YfcoatAnfv2fZSOpsIS/di6TSGPIatlOZK+z
qyVCqbvzKrX44JkJDJxLpgh2zJEjjw0QRy268aLY+4a/Peu1gIo0xFecQwPr7RsE
UhFbvpvktwA/w4NnjpjhHk9S+nCV5X7eGebxR4XnKk1ad//QRw92Y8ZY7vXyUUAY
4zvcSoOXtibwQUG+G1KYufDxu3MEKCFiosI6BQSpbvLcNHP2iA1G4lO6TKlJnXvN
3e35m5L3YZjvgkpxf16zZkG9xDK1QjTHmd+8bz4KYN7H2iLeVNXMRxLdK0efZRja
ezB7dTaivCnLNcByC9IfcOj8/xjn0+QfVg0vi6MP28Z6NmiaiAjW8iA+oPkI6O/b
HK2EvF/IOJR6R3rSbA1nAmXdGgaGplJi030+0lm7zY63Z7FkxTa94z0HgXczNYyG
LPBivgcA5xqSYxt1fnqLEoLdpi1JYtWlWKDi90lPvtwigL7Peo24fH9+WSfU5oFP
F0I7xlNxOCJ7WnBNDVLibboJ/UH3LiByTdDv1mWvE+lpuqZXIB2ANcqjLM5/cxCO
KhGOTfpzU9wF3p5NCNkzyer44Q3pZZkSpy6WkuLaSqfuHfAJ0KLP7Ddfe1cjbgbi
7sS8uXTZKbDg5MbIJlyhwaMPCoFZSSuMFtsh1bNyo0OBoYCO7SOmXoVP/jIqejQ2
KYHGy1NmpH52mM6dYnNnsAEyB4HEKQEP8lgcYOPxF33VURIOJQEV1Cr/EnbanJeE
WW7ItO0yTDfmZZAjdnfS9+gcRa3lPa9NY0J5KgC5lPhU2lmBoKjpOHOC8dskm5NF
mTrP+oi3WJZPUbvYGJ20S5c35EcCMI6HDI8VhVcLHJosiEjz3whNlIiE1Xd+J7C/
c0e71rz0fGzXgQCD3ygsD0jaCAWa1BzHx3OqHsBF3Hq3yRv9W/8T17AgGbhZaVDg
7R90ib46DTKM45YLYkVwl/Dq4eo9A7yeKDKNvz/02Wi3v7cOmW8uodaGvMLHkLG0
cUe7yXWv3WVfXlvKRCcvxV/osV4z3M3Pv1Tz8XYAqLVkQCGNFtdij/h6vZLgcMVy
mo3ZzmwT+5rjoABzNL3qQKXve4dEWF9K4rU3jk1A6gqrhvqjhc5XjGzTaxX3aWyp
erjJ3xdm1PkSuqNRQp44mUvaNHVW7HU/dFkiNENulvcdrHIZpQ8NQhXe++V9tnAm
9Uu2r/5bNjbw4MReMKIG7CIX2iC/agAXgf/EOnk6Rt0OYVeCcTGv4iF88fXhChba
OihBqrRk6/HIbusu9Rtx0T2M1bK5XHAlpR88h21+I7kv7222KAQuXApvCBtLdiqG
t8ad/6LtDXmtcuAeAK/VkMLbrzoOBICgOSB1zI2Zn+tjRH/VvVXJVyqEdkZk1PMX
QrUwvkT0mWJ8GVH9HylY/boV2lMleYVKAqV06LkKfJHvVmABSjm0s6AZcqmTD2ed
nlpQ5D/8h4BooIoyaNYwjzIYA4sgNsvju0sjeEWsKvV8epKuW0t9WBqYXUTJwIRc
tk8/Bxm/jTYpqtPdWXvE3K7op/vNgZKfIyug72CNUBjz4QvjTr+9DUMAhqfM/BPQ
ll4gls2ZAonCGQFpNiPiDL8cL1sW2AMSS95v++iGB+BZe31uu6zsuFZ5cDzTUH81
FCAzufdY4hYwWD2k5/+17/BORrX20JWSDW6fQPpxB/OS2N1ZIYDQjBMJKG1djdGC
WRSqKFH/FkYGwWkwaNdjDe7InRmM8jSHPxdZsby3Usuvole9o8KyagAL48HJdrf8
dTODb1rQE4v+4yZaIYZOpnDn9MTKFDr70xBEJNR1qnOrVT7d5ai9azz1KFxSp7Gf
HDUfaCNcDZc8dKrMqjEimDltI0uNhHa3sMbx+WzbSD5mmXZeN7+gYGruNRxoUZlB
HcsEFe39dcRrmv9HAnqoOceOCSe5sZF3+YqEik9XB5aTO0tYhWV4pVz96yPudMxe
uoVaWQ3VS9sGD9Rd4UG+lY+DOb4HgxogXz1HGFhS5SODx6YyRS85O5ILrtICNvQX
fuiuUEQkbx9e5ZdaKUwJrUlKGz7K7jAOTjO5QYgzdWoyuB1Az1QiTOLCsdhCX0aE
SpTwXIeFJjn6IrvBSuQyEAChPLYPuMvmyy2nU83dt8HEVjN9NxAvAXnDYAAypCzD
7UzkiwWVRsOuQ7BR7HGL7dP+AZB+5Sj/jiEF3Pwd6QVCZediIJuamgPVT3PNF2xm
Wi2os0tnkFdU1z6B4rYyU1RtYwRxNMR8Rrd6OIJgHmybmF2AGpnhHC7aZJO8TJrA
X5tiNgSeFTp2Pm5Xq3Am0bXObx77gbsE4WGPSTcrbqNqQoEiPiZZsj6H7QwLKX7c
cPrRZtxf+afO2uSQQn+fDKEB+c9NMRllkvlywFUWxvw/2G5GgjlA1ok5S3L8Df97
ZsHwJdeWgTi16rGnIbMH3m1MZJ5W1rMYJs6Uu9T/NwQzb5bO2dJ2ej1+uKH7LcCs
n3L8Epv9mhuXO/Y3EEBgPwk820ntzl3NKQ2yD5GyeRupEQHDgyvGmIQ+RWDmnw1Z
7zjDKNgoj/Wyw3tJMf4YiCvjyzpC5I1BUnB7wK0Utp59mHwm/AbNueytp95Te99e
LDnxemi/Gu9gWvapaXZlVkYQ43Jldt/tQG9YGnJOQI8Sy5UhHPjpTAd1FHEfZtKK
VXdcRbBchD6KuzQmocQCsB5ZBqjXhsnuW9sbYWFGyDAjEkfsFu5cPGlnpwpqKRbA
bUu7sQyexBjR6XMpZrCK0mc/ZUnYdCxkgOWyGixlEtFvGY8cAyoFiATK5yfBNlfK
pDkd+J8V/2bT7e4GHgwkX6FY4q559rQpo43lX4OHY/vVTO2cUJZq9tgfYnXbiJg+
jEACctMSnQaYBB6xPnXLeqESr48eO1kmsdRtgsPuOi5LTb5ETa/35GHLkYIwc17k
Dk751i21oI6V4kOGwldQDZQdljxBAmbr5sfG+rvI4nBNcdNCZGexKjbqoDcMyHEU
+3KWrX2E/SUgRTNLrTrCeFSYHMLkLUKcffwJXaFLYJ18e2ARMImWEAtXCjsr5wtB
kST+n+tR6XvgspvCP3nk+Vi9lQEj/zD10lJNkRHmgnKlvyYoskXDt60ORfwUcQDh
BBQYGqzfA7hrUfTZkRaHnHb1JUXDrF51f5CHezR8HEg4VcoOO8N3C8vDWwfsmwxg
xYCog0xFBOgLGcfKSDd/jN9J/oLS0a8OADitgfyNMAGIzWsvuCzLxAvR0xLTkT0j
IDe1mpE3+j1G09QGDs/RZ/emZH/Y/cp2RO8AGBBg24p8PsRKXlhuKyDB2PbJoMXp
5ERff9wiClEBdzLd6LsWg+cV9nNzSSb90ZFeP79NVmU++b2hl3NH518P3+GrallK
GMNPAffsRQ0AtRaSWpjnP/7+Nh8+X3M47p8YBU7o/p7rh8kF6hHD/sOEhW/VIdTm
Rga3xBHEng/iAI5xwOSHpv8ipC6rEtp+q0Zy1PcngxuGxvayhhrGdYzrJJdMQHS6
fe1e9Q7vLCIgmKpQLYVEbdCHghn9eWbudr5PkQqFw2mDCPNhzZBk8lawfLn06u0q
J2wACTrFCx9+Z5+WASHKvz/yFhdoj1/HomYWahKAdGyKnvI5bzEZhI7RYG27HRu0
mn2L0HxAcAqW2dxh+3z+MZfwiSuXChy014n2+qpf1gPrMujSnIzTQZrX5X/ffbjy
hN6Rc50/WnPrHC3kjvz87pf0DrJrez0Fm3vFB05pMmeEIs+iijSRPaQuwLY5PsIb
5avgSijyA5SJrL4G+QNsQiQ5WOGMnjM/RNAzzRn9V6a2RYcaSAm7DC02pQViH2cZ
2Jzt+5VHDtpq4SdZCJ7TdU6ztmMFValhunyYvVwXvg7S9FPi2co13czy6c6rAocs
mTLsygLej26+t7qLlx0Jo5p2VdxeSaGMAJJG/5BSGzsYAu1rUPMbFI+zEnsBNyiU
oFe86cbpY1fgoevht3479rHz/s3QkHbufsXA5KP2TxU1tYJCVM4ewhFsXENyinc7
BOqqPKuGZrWOuDE+pyu8R0ye/HRIBq5ByE+yKi5Y2lvWIi6EW+f6Eua2qij7Apmv
wPBVvBw/1EP/OAxDZUPAonV0Z6ESeA0ALE7UbEp57HFv8GVVeA54SyYgkmPru6nx
SwMJ8nqmPN7mTJ2H3eInGT9yeRLfTo8Z3VPIrNLQKxQF96rPy9QsxutREjKlfcCY
ELrLqCEmhmp0CxDKS4G9rO7DRsDN1Im69Ab0zBuKc7HGghJC38QFNTvMp07oIDEu
00KSiLV61TpABv/fMyrZnK8fssF6IxU66MOP4AERI1snBNV8rTqe3BwZ4OlLYOJq
50Wwcd9Hj+MTr8OCdshvltWOAu1pKci4Wpolrb4QG9Eo3tt1UgIRSchC5QAlwkPz
sQRDmtPUYyMWYNDZSfy/1/luSyzh8fl1s3pH+UZEYEJkkfQCAjM/TirTSmciH2HV
e4Xkgg9SmUMk+QuNb2t6h6GRz51BcPR2kIKgsqBlsmWMB2HYimU5Go55XtwWsfHk
7py9m/cTzq+oBQKvQqqjDeMP1lSxFO7J8XByUgz8Pf6itn6O3CiC1doVPipSEJTt
wMBDZJZOaXWT2ZVbeme0eOveZW/AhQsPTnLI3JWIRFvVwwjKH62aC1Mp4zLnDLCK
pjGtWVlirontojnHz2uFiplVCYXgfwcydaDaN1QSJxnmmPD7nDpFj8QctB1CnJqN
fSFH6H7mr+iO3goq5iSD+UdRToAgyLdoRh+VwHm2tza+d5DZM7Bs5Tj9FiMPxZFH
r/61O4+zx/+xLrvRvlh+1AQJ8xFUMX3sbH/FMvdUfe/6Bjee4E7TWO4gW5i6VHi/
JIouXPH4rjEMNxK6MrBTvAcckOhXFoAwtmGVOxqyDhNsAUDvW+I5GP7+kpC9LHFD
cpdsKIiA0vk8Tfo71u2bdFOirquZB3AgsjMFyKzVQvwatgopjIaC4AC1Fc+/nLWj
hMLqOC8CV1hE4rGkhts5o9Cdsp2K2hxslRXwmBgMKms+8KnFoxcNrYCntYRku8eB
dAfi6lhfsX6yODkh9AiE9Tu5hGxxtdG+q5a4b5LQN7WsrQjn8pwAaJSKvZ6cYFDu
aFzUK9/wQs8xcG22TjQTMuEeKnLc9vO1HBURp3ZI4+DHgRxDKYHWPhTLM+vi49jW
3KYmq6ZCyofoMTsk7H9C1MV/urUDrkpbODC5VieBltOhS3BDKjagMe+wAPznAuh+
4/VF2mu9uS3W5KeIVTn9m2x8+3lQhusfTkaxrb8htjqr9sj8BDE2Jl0PYoMXGfbL
zu/Syn28f5VkfkXD3pMW69LcWvlPcJOR6IiDvGLG556Upg62orn539NX7Ytef5wx
LLr7eBfYDZBXnGiWEZFVmeLuBJdNQ8gOGZnwcDS6VkZ8pKiokwEIrArivi3jvr72
rxjsms9fffFQhMceeX278iVMMc9ycMfh4W9zpaS/M8fEwnatUuOs4rG+dTsdugOT
F3nIEGy+zKO202EEFX49Js05zr9A17N7zkgBQ8CFYnTqzyTBRgJQpSNj4CGNh821
Iy/ofZzkhdh41uxS6EBlcJsQm9R0iTCkr8ylc175myUDut6E8XXAJxFVTkKQq4y1
UZ8JHL+WPJQC1r91nAdNgVxzXUVcDd+MpTb+WftVFwWtOWanewSe1KdsL/VKhhHz
g//lu9QbdeKA9PIEpLKzoKxBvxWDuzPLU2lrZMR6hnlR7RIprwqGH8eRamldIK/t
qVwkB6kTG7MkCm3GDiUGNYWqEFDU1SfMExhNtPZjZWFnuDgN8I2jmeVxYFhVYTLO
VCgB110J9iVedDoxNUFnOtdHPerBSuGIKXK95UTEkwW76vF71iCAbMVNxCGftTKq
0J+WMaaGYSQ5iJILmswAy42ONxEPV5VvuSnPjX7KXskmBdUrKxOgwH8UOBAjTn1W
1r+E8WNfboQLf2hxngEZOMz2awBSm0TwB2v7fHWSshGc67E44rAOD3V8gwI07Gkv
XGrtloeeznqBxnyRgNOwy1IvorblyjHOWGApQMZh6Cpk3tmyuBN++/hCHoHl3CCW
cA7tAbSagMfNpPSS53VAriO+9tgc56Xo6swHmlsUrBSHYntmz2qgoxXXQI9vNdfc
c2f9lR7A0dl4DTrNOXpvcOHR1Jt8vGg+NjqKmrhZLtkNqn3cYhwuVZFTQ0/bDk/8
o19GPa+EgpqJv3ZUbHkfRU1jSGp88uMFD2CMwaq/ukPtblX3Eszi0PjChDzTvKP1
DeUEUSFc8u6Bfsf0Q62TeD2MEUiZWcAzyH+qj8ajPbZavN761hth2+Gus95IFlUT
mMrHeJi4gc98Tb2Pht63T5uQMJIWiQ/50qGtffFSI0h8XX5WZQWuTNSo4G1/+jOg
32OsiFTQnkJXq1VGyHtbqCSR+I7dDs4fAGxxz1bJsjNI5kfF++kmTdweOfZwEtYs
HIwdRANVxJbwhxC1nsIGh0IVjF97mDJ2G2cSRhx35Lp0o/1msW5geHuoZQivPNXK
jMl5j8mQf5mcA3r/SzTMaQl+xOkJVCEyAOqUqtKbKKH/TafkBAVMIhxUHG8JJgpM
cnhJhsfBDyM3CSVBYXSu7xtV9OI1haPydb4/BUk+61ev5QfTzyv8M9wZ0lT7QBW8
7FCTl5Vpg+16xSzKP8pIj6n/w0cG0l8QqFHKhT4N4o+POP9LrTvSbYLTnCTlLRCz
ixgZvUbljnGeocFkeIMVANKfMInWZNHaGusCL24eP/Ld951IT7RgNpqNN0n5jRky
8buhQdSnOCqeuvEsGwVEExWvRO/OnRzByMm/6U4oSBPVg2uPFur5pr68bIqZgvGL
9cDzuGW64D8NT7KGkTYq47XZ0zxOH59141mwr1zoX6dxUNiASwa3/yTab9bd2SqA
zHJmoFcwDasF3ko8AlY/EFFiWw/oCmclrs0BSUcNjHTb51o0TvxO4QWwoR8Adyea
O1jtKu/D5DbSD3dL8dELf2yifz5uqvMdPQYMWsLQrytAdmXI1slqwQP6hLo/kvya
XhiN11AOXX0aCbokADxBW4H8AwjDsYDixITSZCLBo1EJeFUD8p3Lljb5+hyrLE4J
rn/iun0/jgXBY5lGz0L9HoV0qwWdAHDvci/48EhrH2tmdjpJ+no7MzwHgpD7tQXe
Wxzly2hg2PsRcDeeA6hZrtFuJya78e1/cWd1dJYoBmQEJIFLWh8ohXnf7WSaCNzd
/0NTludjgaKer5+ivXBfT4/5322JLa9aW+VntHsywlPQdECZugX2eEkP/hVCxlYS
A9+7Ow4LiP5X9PHg3Kg8gkmISbliiA//Vn/D3/09CRvYbvfgy6Gz76vMV8WiKH5k
iex+qbVDHfxetGstKN8nzsRuUtEQ/17DRXGHCGMVmnEG2Rze/UiNY/j+Dtu2YmdA
1TXEi6XGWVngazQDCzC9PWljbP5mfI42DDAnxd9K/3EEhddGWGm6Peu5nsaF8Pio
8OuilU697qogOscH3pesBLMukf/E63UBNUTJ4VKAenaol0GJ99h83H0VhQXT18Q0
H1roSswEJCWvZTyBV4aaOAupO6DKjtielKqgp1ugk0XHRO+ulT/KrO58U0Mp0Vyj
SvzYDwHZPqtv3vVdD5+EKd4DjItR6Xd7yxUTKyBzH9vwkM7TD9fnOjy189zFMhpS
LFk6iqBs2unth352XOnMIrgd4x2ciVfSF1iy3iEKHDi2kQO7WlEntJA41hfAeVJy
bRkOcr000+Cvrtx0MlZopPME2xq6dxMjl+Sm0u79+9zcRcanKWLgcvPUHUz7S7Ir
g3uLZSys3dgSLN7MRhMpOvDnhqpw+3cGc46CV6sGzxDKyv1Ny5LPX9UC+6HAi3rM
4mQ0rWYKFLJopoBY5MCoxJuyYxZrAmv2ZguhojtXMhjjomXoJv0FiDXXWM5KeSy8
M3X0FVW22eVTuXJ+gS6qq4SOK9K5m9Lz0g89xcHZqKaVV42WFOFeGbe5pjEQ0Hew
De0XTDW10dEpy2av5EqIX+0x/55taRAkRq2xAjbjubgdEyUyrtSa1t6VgxbInvwF
nojYyEFl4pjuFZ/gUJr9YB0xX0qaEH34WzRILv7hmvcdwWxTlO0ZvOtT/bXojwnT
zbRlqVD4kQLFMtNXrzpDrUKNAdwmXW8NBj7adIhZJB/W0DKX9H0THGhmCUduRCyM
IpzJxriUBSBD6YSPWfPU/MEIJ4RYXt2YhB+uFA4BXJ6bEShDhQPTKz/1DGJijylJ
uMqdwBVFzTRTj4/lZ6ifEz+ipCLruWKXTvBwYjanZvOrQlpFdKxNZ6Q2FhcBfLsh
1ZoECbuCYoPo6tbbKmqTf9BxU/hECkZJtrb3IzTMcbNT8fXWZWSo1g0Iy4NsWHeb
twTBNG2X9sQrBlkoV/ljgXzISLt1JhS7Tm6p1PwNMfk+aWn5gteYSqnk83L0LUoB
xihRkUHg/2DDk6E9D1p+gfl7dg2yFDGrsm1hy0QZL5SN1r9GwwGV0+I3aeg2FO6Y
FeidAXLZctV0FZPxSidCGggBxgoDcabW8wtT8dY/dFUyVCeSUrvaLOnDS7gxXtXp
EHxZjyYU1FBNKlXRN1GR6GIwlbA9rzX6T91DqUNn6mxuhZiDm7AJZZ0nYB01x+1l
PIWNg2BlismfzRupNXUS8qmkyCtz0PUjQ8KlIwy8rrLZcpYwM+t/99cCax4xFtl9
M0FjlIxjQ95KR+RhzqKuRBhw8zaSDqOih3CvCCT107i6/glQb0xJMiz/I+n/8YF2
XBn/NxdJXsgyl3VMkoOXfAO3fJKkDnoZNBdRHHuMX+qNp0ZXIsUS+JEDdrQxcRRW
zhhHceg4tlz1ZUdxcIEqyhKe3zIZ/lukg4i4oIIQuL5KnnnTi2ALMhXJsS8OSINf
bEpr/FkbB9JaVKMxsPX49mhaYOovdaisLyLuq9LqLHhBxk67fvIsI+chmxqNP3a/
gPlBGKf/L/UUKRlzAgAT+iEjCwg3zN7/dvh4bwpD6TWQQBqy+JcQ2WF9xnfqG6Sv
GfVxorT97KQXQae6FcZvLG4clC3Di1bsM1BTPfYrs0foI47F2pgAyu6PQm8aIzuM
Pzw2swG7lMajiKQxOCDLYg+4fqOBDNlW3tMvSGXQNnJ1Ux3txke5N2S60XszpEVF
A3btfSkWN8T1C4SM0xx9o0IAMaFapN7evlminIlVZwi20c6TGc9At1g2AsdDDrej
cXoOyg7VWDDA0+BtAN2G5TkDLAf47PzlNClXmbS3I7oTV6ZeAnQfCh2rjqA4T2uK
I3GQaWuENhnZjGJRvuMc9/NE6a/OmXlSa6u3CcZXaaODu4TaCGG0jsPBRM3zj5VB
9ohNH9ZR05BFdrRhbLIsVujs/OSLyENJEhCHi9aksPF2PoIQTNFJ6KPNErI3bSRR
jXVCTPTvX2n5Z8UGAehcmPvcaNFqnOfARxCQDvg3DQ7NX0+wtzGlTxIuBtivO274
Lvj4e9fYoYD4Q9vh4lwdZdoH8r5nqL/IkU1GXL/+YxhxmVRbYASefGqMSk8kUovw
OZKou34/C01Fek2abzYsdR/z7BWQN73rZxKLrWiozHva/vL+JTSWTQEG+Uu3zrVs
WUGxw4F3C2mDXH0d+e9rwlRIArPEhD2jW19WxJeGAOxBTuAygWf61vS49UBtvX+B
58ZhBMZoko8rj2MwQLChmGjZR1lMDAVSfhe2JFwn5yRNLI64JhzUc8pa2j64CuQh
eOruHnh8BAQfaszLUO3jjfW3xLRhgrL0Ig8sqLhk67arf7+dzNHwrAdFRxc8ll4J
Xc7BTLFjvlPUC0Zu/KLF1f+HxE8n2mtgMWTQk9KjaRCCI5zC4ckKGyCH33X8rOOC
UQp+gL+rgCPDFD2ACcbfOLW9JTqHvZbzEDD657TWSUtm/tWgcYqjlRFJ/soP9Yqz
ZtQL0MR+K1h8acGThaUFMG5LnrAzcQz8KsAA45erYCefofeJHvp3GRWC2egOqbRR
CVR30kMZrNFEN1vz5hP4emxFtCAAOp7niiDiripvzSa0bjDYA9CuEMbvdc2di0ji
eraUROarThvIJwEN8clvYEl2JbdiBNU0kpwR+F0dfsFl6xkDS05FpOGtmhcnnVzY
ntMIVslbh+sqU+BfqWPkZdoKUl72eYlpLYKmKNz8X2uOEyJ1m40LMy/KyefNcHpv
Gdyx/U60pimiHSaPtpuO72+cDGssb+/+14ERASEJZVJQ6MMPA457gjuNcySJ7TcQ
ynWOMcoIoBNUWWYhN2aG1ZLgrqajX17xbYvfcj852e9WCtJESrKtch8PaD4Grb4D
7YBI/DwkKV1DO7dcJ3TkfM9sRDlmQA6iLDcpNo3WCHxhErLpSRAjy4l3CcboFYo0
iQFu7q7L19AE3NrzAwyiEu7a0tHX2tuAufmQ+Ifm/Ntslv5FTbyCF15Gmterx6nj
HExurNhgSaDWfthIydwZeZFZ1lBwtYbTx2IFjt8zI1kXEFnXbvuoFrc6MOli1n3X
KoUp5N+t8JG0oRFqSSXNXoWSEAPSI/oHHL4+g7f88nRjwnxMRp2gfc3ZjtOG0PZk
RIgvArPJghxJ3Wh1ffDWxZSHVjuOTcCdiPFzpPcIcHelydMM24EJKd8W+a2C/Ttp
wMTf1fWzr8kmiFUsHSe2y6+CIIeCVMpjmgdFZAojK/qrRXbD0YNB0pp65kBlSE3T
1Tp+O0T03RGxK6NjnmYx2MCB81gLbFeyFpA7/CGajr0u0dydwDBiTaXyAuyJaPas
cWP5+CVUTTyYVx0gKz3DQAEK9IBhClSNoGYKxlR9JLq2p3oP2wN214i2xhy9Y5Bx
FbuwLwLDoiMD+XuZowEnaX7gXJn6pY8una1yBcxtSkGhZJunN+DXc2Fr9ifCGMqE
0aXImmwIpI1fgLquNOnjaQzYiEobrGr0qsRRGMmHm4Hy99ph542uii3rf4Rc3v1o
DuCBtJnmuUxIveZHv+75q6Yom+U5I56bRtV7ZlPu4WPhPuWHRfDysAgjJ8IRzmpB
weKv5KKp8H0J4y8tK5kzKvgKpsfnwq88NGbh/ex2QgxoVS5Vna9tS+vJddANpQmg
VzZlcPDFCwpJ7zZFAhqsdshxDw+4ydoKmRywLmkC/TTTKv59EsC7MNDlpPtU4YGL
zYGbKvj2cRuzJgvnDYzhW5Q6SIcfHZI8j/Az6YypkVqif0sxBCrdyEhwtEQWE+N1
Xaq5GynBalwurbxOywrcx5SUQjdIV9ezVSMH0bgMVcpR3DmBgYwaRZZeZGmKO7Ed
37nRFTLmoePh0wVNo6ypJ7fxZ8bomxuY6tLjjCPtw8+X5gwV+mc8Jgbd5ZmZJcOS
lC9VCrZCJusKDkxpiO5EWK4HhTRvecF3FEYwW0aHYzu0vr4HScYcWiGKJI1K6WjN
yikHQkPSZHf3uE49oeSTx4l0b2LN7Z1Uy6vLGTYQXZo7R0BZTw0pUj+0sl0MrPub
/X7FSeE4Fp1P+MCQYIEjkXM4cjaxG2OVlavZCYPC3iu7X+wCBhBAuq+jw+aBDCLg
OLBYhLUb5gekhgCcZu//knltcPB3ZE+Fh/7mGjumPzY7uorp/NGF/mRkzMKQsWuK
Z0pt6PidNgHKTybRn8Ek4X9MBbeSNSB56TwpRNZ8bT/BdqXkjSpLlbMg3yHf+a2t
2CCXJUbKDPSWp2aTSG9DTJJoN8IVPpj9GBB2JC8DCE1UwPIgK1xan8hys7qsKkwY
S2gj7RD5SfefX4B99mlezlBQsTxKWtl0Uky6Xpfb/OQJ+0NtVeZ3ZmhGts2L+rhR
ZMj6cBVoZJmRLRThqnF9aH/gQNfLBnxvRnpmVlN1n3dXDMy8FEfdXPptC4EkNBMR
4JNSy8VjEwGZNh8WLkU5WG6/GJEPcLNnIxh41awWUMJFwizR6VdAI3I8W2LzgMNY
6F5rTK/HKTSHwSt9CIq1jAslxV0i7Uo73jgRMubnKzflYmA+szwFUhbw3zlswGJC
y/ouvr4sTaRwgFf8tk12yg87rQ/JG0hDu5E6bPBWm3p5Lu/j/WhHHXQbxSrmSntI
tLKduUAYNYQNb/PHcbka3nwBlHNpjI32VRjmi92B4uvV+to7Mfc8FpqG6wLq0HWy
4BarCMAdjSWJQfITbLYs2pWXwU2VjsPVSk4t7qFTofQM6ZOf6oPxP/SwR50FRV8b
UXGOpJl2NmEpvT1o3OdsrGugy0mqJHf8WNNVKTDfvk/edJy6aPFK5x0pid18aeub
+2BEwwHNT8UuZTzaUYliAQhiEDDIUKh13aP0UAaYY0LHlR8VfYCKFBqILlDtwvQM
K3c3L5zuJ7wT6cJ7aEisAsoV971TYFjoLb7yN4yt7LvlyHWsZqwip1Mv4vIV29/h
l+3tx3yozL3PKTQm4EmMetNoHPaqwk8NlbyVpK7BrU0CjXMz4mgNpIWjJICPDrB2
X3cXRhOrULentClyXYPJzWg7OyXq/b0NZ2zfr4lapMtiCg0Nt8M5BrtR8Dhvc9fN
Dv133dRdm5pszAfO6gHdCI+9bTL+YvrLG7QpbfqZnuhzv64ta5Z5bN4vfMsdPlWS
Il7/SfrMjZsy5xXoJAOjRg0XxWbV9XVBPquzmjx9Zm4n1ejqw0pTkIfz2iCHkUoj
wspL6RAyp+rpvKZFiBHrGpTj9k8fpSTfzeuciFrckx9DHqmMz1urZxdHXWVnvnDp
LzVXd8sdm1rcsBW+jq3hFB97Q4jHsGbODdd27uL+lc63CiSSeZBYDMFscRkmLjl2
YEMIv00HWnLRnLmnTmZ39VkotFonqoz7x9Axr5ErOsCbvTc+UVRX61QAdfMLwFJf
s7cQtWLqOi3KJO1uxrarrlLfZqAI2iEDkPWQswtrIAdtm5ZwOw3pwcEePC+YcINv
8e28UbttqEhP4xfl7ZNEERK0rshaEu5rzTo0o+i7u0ahy28MAzAxhm0/lIbVO9Rq
e51dZiQ0aF3sQfadXn7JYF7wPLc8mfoBJeCufSzGsYp4FAGpWiLChR9fXOSTE61b
fXRyC6jZJLdIUJg9JBghk6M7BCwJk7S1lV/HsQAqEN2Qn++6trQyEaRwY0d/4siq
gxdWjndOVauyG5Bg+aZ+gghuvauhm1YRqbqCOT9cZPWDFAL8X7jJXdUl+75K6387
MVlB3wu7agrM8TXzhjGuwMAG9hzpKuOQBJoHGOv8G5pwOSUkV72sWfXgopZjP1vT
34tAwTipo5baRk6wic0pt1nDW1b54Dl5+bIbQRi7yhZTDVii4xZP9jqFi3/f/zJU
5pBckzxscfSxXgVLV7hF7Gfi1UeGPefCS9X5STxiWHBJvWgkAdGV/Z2VO02dFPFO
BEOFTUzMuV7Vpfq+MuYC+clshbSa8Zsz0mS1U5DSNcxQMskYZDz1vLRbbIqKmWwX
jEMPm8RdJ8lITZoboHgg35rz++pDAUdxuOUMxc0sy6shJMYLNCD0d1jykz1v90LV
ukYnYOxDJ2CyROUJs8ZXndGW6Htg1tJ92G6lR7yYlpNe5NR1UwydFJ0me4h6bKnI
VOpAamAohIYUuhABrJmWzcOQfjKIvUqCE/dTRMrkOAsJrah+Fs6diQyRqXB9Gek5
1N2MX5YtxVt/Wt0681rJkGRbNh1BjHl+JZp3GjOwMlnDScii1LXD1Ha0FC18gwPL
Cx0ZR27HNwVI6VCPCj1QBV/QiGNC9UulBo10M8HJ1Sj/3UUVsEYk1iCdUAQlwlV5
7buLRGuoM/riIziM+YGcQwiCOSy82SKSAa5B0PmZrS36fPGZYiROzyPQD4xFoSiQ
FgEAuhKy8+12N6m6sxAjtv/Svyqbssl5d+M+kXXi8O6oY9ZDgv843d1EuqH7mU+O
ta8Qeyg44C3NKdm3u21NidhO/DsDlyxuERCFz1KCTDOTSpj+uqc7QGSSETpGKCj1
Ww/afkd3HndR2C/wQPfZD8EsNpw/0e4acSOk5uXiBqw69t7Rr8hd9Dfj7CuOnJ+B
sOx6JDt4jw6+h7crvXFnv+tqtP6eVh4Df3BYNZCEspSQlRlb8V0y1q3IV2vCL8Gd
7IF7lzstr8BBgdV181il68tZj/VH/jDw9dEQTP6IffyyKDReLuHLnrU38NlGWKFU
75epWdwoM1G1YHNiSyQVDcFrVQk6rVqkOCZl/Nfji34fq4hVLwl0om531zBnQXeP
HDHY+IO1sgR7tUgIU/KynqmLKvtU7IkOWra4R1v4hYtKw10zMRFiQGSw8kbKWnpS
VHD5JSiLm1YYsGyK+27QEQ3teEQV90wgmRiZvXRNof8rxBywkJCMmgt1Rzzcd9h6
5aUcvfpbcK3paOoLBqMFBXiv6Ldu5I8w+ThK1v79rzfXTGI+UiHecV3wOacsSNFk
D1RXHTaEoqvMDiTev3hqU+efSm+nNt+6i8nVA+zY/S/PoHoZuaBC9JtFZC1fY7Lx
GnekoG471w1UZsqpIlKwZEXyqKQEPN2BELbojyxUhK0G/jAVr/WM4fpkdzaAvxR0
sQeW4SisyCoH10Hjg71OaDa/h0YnLXWFQyLhdhZ2TBYeSwCu2zwWFXLT5mpYUeSu
aFNeDeA2W41HNEbpd8d4M6gM3x3Ezq06/umSt5BriBPiP/MvZIM8BA+RjKy4qOAm
dN3STSFajRdKMslljRbIKY8KWhIc7O1nVUgwaZTIwbzaCQmqMPXexqCgICSX5UAX
BdpEzhwQNt3IYrD5xt1enqvO4CeC/PT9f4SLITLV9Fl15YkpquADphTm7DuHHjoI
8CN0Z73buU+fXVC3nQrZ8MEPE632KJ23X057liq0XPmP8P1ycvjXckWaX15uObLh
ZL6BDLpjl836zxnGgwzQJwapstXkgNH4k+rj/gD4B6knsa4beOMuq1b9FGbkoh3Y
jQyXH3ams3N/YczhS2OTMNJ8u8xLD+0RoOnTQxK3VuSwEB/80uoL5Uk8ZVNJyGOp
M4oQhLSUvZ+0gXXD+Q8xn63UvGe+jXOFVxot82WKYrhDJc6vmqMKwBNEXE9XxppT
1R+46PK2weuCwKGHLlDfKe+IM/aXG/ccus+x8ptVCruysKHTuwGJ4Ehlutsl6FjQ
O/cmP1qYpzFqn1P+N9PyWBFeUQorDtpzeT/tFKNFKxWQ6ngyIDBKpm+e5Neoqjz4
ty3lyQHRVn3mIDrmHKRr9Rso2hypfZcWS0Jip7VIwZ0j3GVHBgDLCnB2dBmUx6E8
n/Nh4gjrm7nuU0bPHUCDZZ/Xs7FASqQmZMcsK73AzPjI6sAvWxR3GO0XfUk5Vf8m
RQChvJs/BlPTjUCtkKIddT7jdy3HmW8c//RJ2Awcv8MTFypv3I5k/uLrxw+TCWxV
B3/1DV1n8Q9QAy/T56Gr0NXiIR1FoWjZODCyESJRCy7WLwfTgb1qsKpB5gMc/u/6
05S3hUWCv6i9XiC19na1zBCGw2moTuUm8/T3E/6YOPUxAfORlon4kam5bfkawLgW
mhdB1cV/CvbIZz4Xgefkp+N7582/YVJitt5P/dUQvN4v+p1duSSu9dU4zUdoo8sQ
CH0ZK6Z8xK/2DKbT3D79m24OMR2h7xhZW7Jvh5jqL0TEHhxZypqSOMueS68BYfmr
LbP+Qs0qAMAiygJsmWWB/ayzVmU7Q+e52DR/Sd9TdFXZzxfdc/LMOda/bov0RUcD
kBfLufmvoEYcnXB+rMSembsZBnb+yrvjlGCFjRVFScM51DJIN9fk2bbunTuVzdTo
mYX5r3ZXC5O9TKVh50z9OmVJ3oZ+kOEz3U4yzcfk5vKDJL2CaO4vW3RzGBjpjMUj
HWbLHS0TkWYKFcmRfNtpz/fF+PhRzAT/3+CSrsRQ2FvFWyZclp81or16kpOAyUyN
kxz6Xua6XAjYv7yNHIkL9a1ApbhdFw7Txsqypl5w+xDQ8pOw6du0AZOGy+mpnW0O
nyJdonKFIo9VvoyqmezK8O0nRiZg533IjFEgewVoXFcM+/KSjtfyzIKgx98k1d08
WaZ9w+6cCRE8zXaE7qxMaxbWEN/pASLScHM+7RzAUahpAlYmzV+fVJhosvzbixHr
VV/mFHdQi9HP4y75tfyIf1zq31MQlhqPA94XfIK1LO7x07Lq/wRqh/HW7tVqcwCA
iJUToIb2ypvgOun9hr1+T2pcchVXO5UAaCFg2lj+F+tZHD3Hq+DrbqLltuyvccNo
4nbd04EvdvMBBmQZXmTDPwyY7VmLXBKTtp8YPH3pUfSqr2CQk6akaC5qTfH3FV6I
u+Za2091c/Qi4CTG0yJKyKrkDKAn+Phtrse8bBST0xhb5bRhYQokY/e+Ibv0C4S4
NR6OgL+lRfkg01oukkmmBQ7IPcKmMPAYke6EYe2a7WbrS9FCueeI3e2xzvjTJNoj
MwNgw+x4tYmeb1x2iBuiZFaE+uejIUADdc9sToqno1vuGDOpy/VQtQjyuyWeni03
8xR5o8AMZcbDhclBmjXBLGGKyV6/xYAdT0sgrgmfnUTw9AamQi5/kiAZCW4rywx0
5IOHzUbMTk0YAXV7WbUnduSn3l6Ylxa3skrnbEXMFLZ0cLWwuRhoOatf5sgTk6q/
ou/+qlpvkubzwonypXhJToozoR+lGIo6WWmqNIyVY96PaXVrSYSUXNoRuQ1/t9RN
cvyCjDItfdf7GYgRJuehIl2tIVxaw8Pwcw51qAnXv55xM2MVc8Mblm6vOr3w9CWy
P9/1cx67BzXbcPhF/QwStrYE0ojeLd158kohwD4Lm62E/wjMv6ljS0RAlriliQOV
YrIVkJ5Yg586YZBv9pd/wQvznUtmead87tSAp9oaIA7aEMl4NPr3LDyHVxIRRjli
l4QnbE/bY+n79jZPogWKIaAK7/7am7KCJrK0NiW70DHIBN+QWC6T2Jjg+7HTeFEb
gNy4mhX0xO00WST9H2fwiAv9S1r6qC1mkhBZCazo4sLhYLJaCbGtYznXb9Dl6tr1
lJYkFgVZyo/atZkRnWFlMLG4uMlTzie3bn4Gdg0Tauz4xG88OUCqi87CC+iS7C7u
ruc+AeGuageVl9H7GR4HonUKjnYldnInWWmhnFP+iP6QFSEcad/Fo7uhDP9ZI6BP
00D607y6/a1YeatlOL/1nnHByefplPn3t5eWeOghW35vfuYhc4kRrOrny4aKwKuF
N0eMaeM4mouKpEPHcQb7mpubH+JP8J3P1Q5FYQNK47TeAQJ0Er0Z0T+ySUEal+21
QzSGGO7KqCRZP2ABrB25YGNGgvFXTvqLwzDBAaHt2hQSnE3zPaLebDOKi2sAmaC9
hkUtEqZDZL4ZrKnWQ1lS5EMWGjfsLKNJxCsh8eJVIcCqfwdc1p9dwTyO5Zp3ee2C
yW8jyeXD8Vku+2u3MMmnCpph9MGJEIoBsWy9uSEAfExAXtnc1oxPDjHkxTnJb/+M
ZZdSC97DxxFWwBkZ5thMdnyEu37gfizAqtwMK6c+/c05A9KRlPvyNOqoZO9zloKl
DZsEg3QMKYJoXuGZ/e5TSsy6EH++PORAoJxILzfe2zrq2+SlrNgFhQ6PmWFYgAXl
LA3pmr5uuEs4i3YICD8MNAojsosu8a46nczZB/OTzNtKrODhQ6gFbluAy9EuXYVs
lITxICbSEJeGSQV/L7WBqrDo3aY1uc8pJ/XfK7wfPKRxZ72eNZa9fhjCqPWr6SMZ
I39LStO5pUyp7EHT1EGZ6eUuwzmD6wM3VPsXDqshnyQFCqR71VhtLbrbl7T6HsfA
EpM2O5b3gIQXS3vqWsQd0AhrJGKEdgZDCs6aP6aDeAkirc90jES1NIcz85VegTE4
nOO7CGtqEvDL/czQWtYZ76n9onYMqfbkfZapecC9VHWYDn0k4rg8KHRi7Kf6bc3W
y+GvU7AI2uNLyGn4d7LshXtLXFnv+i1W7GFxvH9bE9yhC8ZGUIV5TlOR44wQK2GJ
E//DEgxb3QyAZOekh+HeuTBea8uRzntM1YzgsLvKxqb8OdRaZCXgRVN1KBElV9tU
lf+Ak/TIm7YvUWbGumHLmFC/vR0VFP8Y4qzhsAO6xvGon9ywKmDuS9qax3X8iHbX
n9eKRQ4KZM8I4Gcwaa2SCVaaDeXDmRof5/dYEv9om9Kc35VG7wYj1uyHc02UeYOa
IDf0/YLFAkIZ5XNNFNQDhC4Ro9wrOum9K+AVPtHH0R/VDe1D+UIViiBEkOB7WxPK
GTtgrpO90LUt6oyuUd0S4QadSAOAOBuZ2JuFzAwIMJZQ9qcodiB7fGI6z26fKukV
1wZTZ9ULg+JQtGqz6RSEOi+Il1K7yNLPg/8hGR4dpEcZ+tjwGNrm2ycILx/Qro+h
ljmEbHDvcs6LnSVB9el9jRpyGAxes+2pxonFpVst6bLVAUiObUf/1OR56PIz3udi
YdKp0ZqSNNQrcvIm5chpVkoP7UNncnElo120XuwUW95tQVbEpsL34ql3qTRC25Eo
yB7g5SN4McG7uFiyx76CKITvECDmLK5gT/zJDkLHVx+0T6PfM57FaTVDXz4csDfI
rywfgvj4QG7jX2RNtC/dn3UK3WD5tEpmd0S3Uvb1SV0XvqEApvbw1zOVJuPMdj4d
h0WaT3PP8vVYMhp7sTchVDiHFR0BoqoJeKlMO9hVJIlffGRJWs/7usZlxoQHQJsf
sUDC7ReYCBAAEQz9/4sStyVazVpj4ig5NrOEAh/1BZYwfiMLa2Ju2bntKgrd8bbT
gHoivNqdY53YjQfFOZob/Ontt/AWau9TdRMh0I3eKNSuWShYquQ7X9mmapUbezCw
erMvAEbMZZzsH1tCQ/6DPJ/zEMeM/kTCz/vmmJkr/Qo8RDQS89P+nzckSPY0Di/P
50AEunq1GpihStKP7GNhXJhtFfn+Vz9pOXGyYV2ZEGy96oVp6utSf+uhgOLh8xC7
6iuue5XzFeMM6PmIbRB9NjoefCEz056eKsuC3x15XJrQj2RUB+3fUzWtXyp35z/C
qVky6jnMdTq4CiROI31GoOH/DPrRRqAiWnfR0a6zo3wMQ9OaEMZPWcSpE2fyRdK5
itmtyoy6RiTuqBINxPxJtWUQsoo+ShiSvd6iloIk+7Pff7U6joaYQk3DPk/9fTA5
TeyfUh4dl7UvvincZvNDJIOtckxyqtqgapA0alqOz47b5OZFWSUPvThd/qXotjh6
Kthlz+b+BD9meo0LYSRZFHCmOpPpuPSFiBB0vvat8D1vvX91MrJzQDiZsUgMvG3A
q168iBd3ynTrzpZX40iyKLMaC80f4MHZM5SkLCeb0ATO+VYZuxNGgllqwnfelyGo
c8xjmQ0JFfJ79815RQKkpJ0zOI2fV8apaTwNuWmvyc6EEIUAuLBBHXncwyXGXujB
bV4nDyrnQ0R1jenExxpQK2WFSF8PStP3xbCiu9d4qW8Nk5507PtXD1q1GmXMGPmQ
X4hAFz1ovOS4umfsT19ZoPtg03uBojF1uAeVwF9+qvo8zR4s4OGNy/59M7nb+ykC
iqP/Pcby2z+JuD60XA95K72XBKMVmj1b3aRK3uuZjUUWjrrWx7D2pl0Mjk1xBU8z
Cegid+mz3fTiZ78KCiLqMgfqVYATEMuvpju5Hi9dwZTiSDkzrfQbr9X7N1VWC327
4Zt5whyfFNHRmT1bdfdaU0YcOJ+dF0qwHql7UVRuAEQiFoadXyfq8kS/OigJUG+c
7PrS+D9/013NsgetkHbvZSmfjGnBaPXsG/WuKVKrA8fnsJoeLEdDLO9/GU94Olgx
ROUiDbxNvpJwe5bQF78n74vr3A6whCe9eu8jqPMWo/1LcZYM30f86dVU7AeHDYqM
kXliNIH86Cz5hmzkrg2oYYq7awL5j7ttn/klgagSOH9YHPBa5egOsZi9KqTSPl/W
R7I/5pBBW2bW0W81vAzT6xwV1czVurnzvV/Tm5uyfNXJziHBxOBuRqNKTB3rFMHe
s2pDYTH8NgDQTDc6nhslQtm9UniQw5vrynHbOWtn9/avZjEbMzZ/QofRCHbqFXLv
4vzYFsnkKYmWVoIFngDmD1KGSRKqSQuHOEqNacEjKCegVVKpMXtxhXZbZJv+ZY8C
AfmKnNNzYShj/ABWhdOOJzsvgmsqQFs2NGxkV97SDYaYWNRIOyGNgsPmIjHltT8J
lNZfCjkzky/oR9EdmrkPea8HaoomovvPT78Qpq0LeEPyc5R21CMIcVuY8b9sDwYC
nv/pQp4d2W0G58Zw2IpTRoBR5kUPdzNOURtDxgqMb9hh3vLoNVLPB1y5tCawF2N3
LN43YUlOkDBC59z7gbGrKWjet3cXMn9rYrdnXAtl0J+mk0ldGhQFsEFwexC+r4JI
ddNMf3PytW2j8uE7FN8MzMXwg3h7lxTXTvRp2OlMbAYvYL24+Ap7pwHBXswnuPMK
8MJpaIhvg/caK+etAFtpTkFkteT9BKsG7GIScg5n3kKLr/TivLZXQN9ioYzPueFf
Cs4uXJUVr2zgWnwK3xiHXJdJa2JAc9CFM63AKXdYxm6eT7Nlm6MENSPaEObdmI6b
nBCjDNrZ4GAd4VmfQuvIvZ3d/XuXguBUqZPBz8MdkTcSYMoY9NKYyzfSuSL+/0P0
cZh44CY4dLASAxf93i9bOHjY1syF+23nKYtBMf/w0XDhjxBuGAqzRP5y+Cotsv9V
S8iKBnygYUDTiOJJeE2tmer9COGXSdhq/lRJlh7ear1mwt5uKHmynhHGy/beqcWi
OCmpvZuUpFS+/4pxbElV773hKXJmtrb3+81OJwdVmsHCy/3rbDq0NPxjJlu43OJO
//DOzfLZmag7cWMStR1s53/meRTqKHpuAkl2z5R2LEzmaGGReeVH9rEs/hjvKxVT
lKzSpSW0W3YFEHNCdh5zmmpQPCSrr/VwjM/Bp6w/SI1rWXteF51R4lvhHt83Jjin
OhlH3MN1JJjC6BIsFCvufCh27E6Bf95vxBNmBGNSJeDTTK+1HzgaWEvNXNuJfZoX
FFplnqOrlwjOoJn4DXHlDjX7e6CqH2zrdKfembt/Cwig2qbuWp9VvV0N1RAaxIb3
9HnZUaTCIl3rVvLx7CAdPlARUMebNk18ZtU1BEFvXsFwW0kpX8f5OKac2zYay33G
+6wtr7ZqeFPdFxEx5jQvMaslO63trrRvMmtLm47m6Qyms8WaXC0nNY1c6cDigwUu
TGJqqtOMG71qNFsJGNWuUMh4fb76urzU9Ap/LcP12vt4JnCMsw949QAqbX+os4vw
lhZRJVcq+sCwh7oDIF3G5VVZvYZNXtCapdfrE87lwxk9U7pg/Lex7pWCgVLDnWwp
jlMFf/FmOnyuFsVHl3A0dlDXrt+rrAWR6UqkCfyOZq+/gCzumxyp/2mOlUsWgkox
vQ2ADTWNX7NUu7SF0xlpRkNTSlh8Wj+zuGqAoKt/ESurq/7blHPEOrTE8fBGRAyi
9kjtdqerw25wsn3L9/5Uqyl1N0qCjyybQSO0ZI/478dYn0CX/IQUBzYyiDUtLTmK
JbcJOGO3nRZ79LOOsGAf95mbxF79B5rZT7nVJ3Pkqq0Q5VpWgwMgcLkTYRMevKsM
Mn9wLqs2TjvQBItLTUuGs+BIK5Zi8OvG5WQ4RhNYRyHPxoDpIbh70vwhFDJZ27IO
qPMjXhB6mo5bASW5kx9UlcT2wIdGdB1rmAqOPhAUqgSLfEdwr7rnKvF4qLuyvxmm
fZ+nPkITv3oLxl8cjjFNvIu9umhW/SqNAr5OFJvKbUhsIJkY5VgiLfBrpiC/31Ok
l2azEv6t3n5YYKoEhjonYo0/e02+9FRalpJnHMgCS/5nld0yO4ktz0oXmK107C80
EE0RimkQtavUmOB98jmJojA2W+U3+GObtVQbNU/x8309V2oiXNzttvJtslaAMicp
wzapHhElRX5yC1BiHKOMN+LexVmiuoyIJtjXjgNkLsH+eM9aOVDYwd7qQX4xm+BU
cD8BpINm35DPUiMUu5ZuZwMkcFN0PFboBuJe7Cah9/tRXn+jXkx7eV5YO4TiAKvR
qNMjpEVGuzeh1/haS+2R50zXjQOL0svDtB8N0N+jxuEiIo7Vz2IpQX1AvK0UTVfy
y6nD5mnxhQSmV4TQIUle1QcrxVBp53WoeSoFwvXf6tavkfqacau1cpcnd6WQZ9L2
xHXhSWQB1F1s1l5zTmGWbZhMa72wWJOkLTUCDpe+j0SK++tQXa5J+Lkie6DzuG1/
b6uvGzRRivjJN9ptNHOZrRs0d2SqI3j5ReZp1pBrTac/xKA+uMthrxWOwX3kMcmW
X6izYti6HsqYof+tbvhi4v8j47+2dF6l7lWqImAir74bNtEtcKC3p81dceLFF4R/
j/6Pm7+RGbzYfeIDOmwjthfITnpvB/krWS985px5QQK/ZzPgpheYDxL7MiGaot7C
5oUju4ddrYa4UVDuWHYYTrvNLNCTXCfoD0nfuZgJn2ZxzgMUI22UM5+M8MpDgjS9
hssHvVGhNWb6WSSgTR5wmLWbulBR6+ond0l8wDTnyeUyTYTqUbrQC3mL+mVp20Ad
x9zzWPuPhHc9zEaItTMIhYGR5J5pYB7be89zp8qjdoUmcHkpiHXMdaGKrpAe4+BM
obn0HtptrhJmnNNQUwcBZNqHU9qfSn1Vf7ZsNgkdVgx7+YwnDPG4jY5D0400hgxD
WllZzo55e97n61JbQ2efouLs9lSVxMq7K+9NORhfcDU32sTgXghn68ufIMgFEooy
4kETcCOKWFlDalL77bPpOawT67BQu4iCpo+v10cUxh/ctVwp8skZJylFSgkNaaaU
1t+fneSxwC8uOdMAu6hRR0daM5gGQNdhDkeYkDotwlFpLgu9LhY80siGwRXFGDhj
DUb3cnpvgh45UtH1+RhrM4/eGfXBOA436y0prSacIohjxnEqGfrD2Pp/dp1oKIg0
l5V5Ay7mJ/u6Q8FhaazABcpzc88kYUTQMteqhV+A1P5JKAiv7txwF62prdytuCB/
YBe8ZcWMpNrQpddQQPda5rbiym+w9IgG4mWdgUgxy7PeXq+oO2s3BM5koiR1cNus
tCqLYLAvWbN6HLZUHQcA/WZJKV409nPggrb3V65NFhIJZ/nLq3HYT+rut5UJyDCp
FrPazfM+jb9Ci+1pSGTLDpV5ojxVs1Q1nJzVehr+pTiUROTWaAuu+IM1d+iAoOFH
gbVc4GAsG8u1TdYjzSwaHzo8K+noNo3lij2HBLtJHpUMBYVirRs5AQazcDybX0W5
J2lh72cNIw8mChUJwyFNdBsVKELvnwgIvEQ5Ude5k79jOIimKDaL7j2mRCMmSmWJ
UknvMu+hIop+yWmdU6UnWMCW3alxtqG6aqDNwurt+tm7RVvZNc0Br3ygDnD+ngUl
1IS8dBMckFggLDRpvsnnnjSUfxIfQjo8U9bwczjaUFYvD+hpY/3YBF35XIK8GIaD
tjl/n6zh+T6Yg7yjRzOvSux11+Ee66YZmJoTM5yhONtZHGGLX/yP7VGsPweyPLLt
5kmgQ4zkeSZ+jHRQDz8j1TU9233plv/ZLPavrd9xPzqCpsCl2Gb/Q7JflIJtDsjJ
S4/xtL3x3lanKdJsO8jD4B/INz1hk0TbjiBT7OsNFPib2gHn366vzmnHC3oQ2fZu
bu5oPoSioejr2gul3A7hf4Qr1w0FS7yhnqsFf0uQjnWwL0rbm9ocTREaqD8KjEKq
YJ9Zt/lvQxQ4XmiAfKYLOkpAL1ClYZst9AOjAMoQEWUshGiLkXGE9sNSpS7To8yy
092stVT7P5b18JLC8O/1XOK2Oy5HMddPMo0CvOJrQxtfTRjt3/uktdeMyGoHXrOP
X7VYVytmCH8gIV6EcHN7chpWCasgHXijbqiYpfWzkfVAO8rcWR5wkVNRvj4FGuJp
SO3tImFmdHiLHy+iCU4wQjOK3otIy764wn0HsmECB9p9cPQOYXaEWdbqJQPUHbE5
iqdpyu2Sme3ftr2mo8/kjLLYD9BRbSetC28ecA/ivrrQ2clBrOwww+r610vXt+LJ
Cr07VqD9rsTejdH0AzP1A9pBftQjeFMj/chN8DSS8aO1V5r25BUaeY1SU3efTWqO
lXJDPc/xn20YHKKo8h1Sgdy/+PWEsQKlX22fhFXupLWjUdPDZ7zmWViYkVC1+F8m
lUG0i/igX3HqOL6bqsl88JyjIeb8DuQkluu0A22swtieM60E1qeyyluTIyTBi36O
UqiCb0bX9+tQ92mysLuc8ZGoZZ53AnQzVMtbvrOK1Sygi/XOl051+XuzP9TMQunn
dbTdsx1LLm9GJVeueK14xVI/swk3f7tZTnTGvDRXtT4/mTFhd8ClicRF7rAWWOkz
m42wjCaaik3n6519rV8nHhj2AaboBvIQ6UHC8vCYdHmoJWYYyk5Jl8iCv1j/GQz3
woY13sL5iyPr8BbWQfEYJMG7tKa7gBt6OMTmz5SEdQG3+QtndUjtD0OTEmaajoPt
W3u21JzuXa237YJheS3fFQ957eDklb5WyjmOvvDvZwymkKpmlwAct2AO7lrSfCvi
rRd0wz7C1bsr4wEp8lzrWi358P9gn2MoYLwhuFk4pgXo18FyxbKaXRshAxZE2lur
VB5S2fk/fiIlHA0KKJMHiNcAAj8fMP08GV3s2feABjWBBbTVosyDWhZYCJ5qeKfS
G93Ft/Rep2Cu8ZtctIIuKusCNM6atn8l5a0TgSe2UkfQhA2RwKugm3Sk4mL5YdZH
rDNtkqvldVQyo3kZITH/oKvtxshrpLfbezG1TMnjeyTRIuZsyU6eldaXENzv98PE
elmTNv8/4gjahb6AXzPxYhsoHPKzJy/hB2VCsANW/itEG2B6UHJDePR1VyUy5by2
d2+1NILy1XxtZ+Bak5/BGiHO97YhBWI9i3AC3dxWMwmblrjQ7tCYJzaCZ9FlC0c4
adKANuIzrxuAN9xQnVmF2XqTpFUSduphpkaKZph6Lvqiji4sgs+KfJe+QMpWWg8F
9cXI8wAaPk70aKwZVCyUmZ6niKux1ZB2DVRYkNCFH5/dSZlANop53utUNpEbW/9G
KsB4YUMyILxYlKRmuBiRt8re2v6+DMoUg+Sbl0ee1j2HGqh1Dee4tUyTalYWhRze
iJYALopBWlhJZJbgXbmEyAZ2hw8/TL/IxYkmxqiQMhEoWp1v5DR+Zr3x38w8qSKO
24gWlqfSXYYpBy5JzphvzhEDaogfWjHViWTGl+IfvW1zvt8cHOWrnRaBtrMlHazU
VgGInDysMMFBh0GP2XwjoAVpH165ffeCPywaUhdZhVMv4VHMUi33noC5sUJsKlef
s15lqsopfh/rNnEfH/yX2fijL79NvxEuvl7eXv+kuCcHacmIBPLplNF0UQFtvVEY
D0GxKYemErL1QA6AJYvA8wvkCdXwwIK8C6/tB0gsx4iJ5rkn4BdwvwUU/iiAndZA
YpEK3W2uhZyOB5sgSMKas43R1LdgMTW7K5N3VNLDgzPR+geLuJjCGr4VaGWEhyDe
TWciAj/2AiN2FmH0ZHd2D/77AzkbqmHptFMWOzd3hF36lXynZastZlTVNo3AVihr
oDphfPusChvVbExt4/THXs0w//fbuj+tByX7L/Loj96B6LmtaaoU0xb07Tyq0IRW
YpMr43JMgj2zDUfgJEOM1/oMEOwLr3yKYK2dCPkHRb/zWIWvwtQihMEDrQykfecc
7J5Tc9hJ8Y9Z7LNhJtHheDuul79HAbSKYVGnM49eOvgv3hEFOr+5FC86P9YgQHgi
xXr4KTX7oH6DBdJin2Ulk32a56W+kkb7oG+t623qSdnDgS1ONjJNyOMdlHztNfal
PitYOBRsgJVKGBPRabos4E96wOlJOSzxjjzErQ6iJyfXZESjfjJnkEXwcwrRBu/b
sCgQ9easTkdu6Y90g2LdH/ebRx+BTtR6u0spGbaxDkEP+5w/Wu6iMSDqUQgRdiAc
cjM7skbh2ZdG/cE9f6VkaYG3kQW3m3LnkKdWMzvLWqVLty0KbWZEXZrP2l7XufjT
Ngr6feMJ2TvJVuAvP4/1smrvh9T26LEuy7QrBseOlkJLVWzTNkz5+1EXyhIuE2om
+YUbwdpYXnKcbizcFR20WZOg7TxSfq0HdO+iDu4uuydJJBcmYKgvb+AcqV99ylTw
9CA0JbOhx/4ns5mLElcZT+UPqKMHW7hfLneihLXQXyp6aJTuqF8Hmg9HB0ue6u9T
7IuuSMYI+GO2Y59S7uPiTYPOq/IW1rjzYXzSTZzxUTzrSRLTa2Cc20fmeD/PPl2h
TbapPEzhJfzt8ed6do7W2rrgWWaCEzluvZPzu67/JBEW+c1ZG/GVXYoFGzscMps2
IWaciedZ0DdRpNFiEJlgAiYYhon2yOp6R32Mzp1OAETFEIWDkXQjtYP97PGVfPfC
5LQUHGD759xRiny93garPH4uxnwOkLKzFkYRwi9IiCBrER+3HulKq+n3Yp79FwHQ
zjjWJP5OEdIBG+06rfMrrpPEpayWVP7FIPQrGTj4xOH2vGo3ba7J8Imhgo2d69wH
MHx1gBE6ocH4Ifdhn32Z+s+wCUEoXCEPlvBKzHVyeQb+zVK+oUW1Gje3MlPd6Iko
w2lUNYLfo/71x1DPjoK2mrBG3MJx1DAe9Xnq3lB2Fw0z8LF8g4MWUI0dreWcC8j/
kzC+GEuHYpvvM0UNs5rf9svG04rMfLNZgBXMJ0bF4rDt1TDx0m2NZBAmV4c+nHGs
RPwxYg97th26BH2ZRG8mcZGyTLJtWKT76AnMZ65hMQGfJBCwD8xJ2fcIF7qANcAQ
1bn+okAaZEZxIlBnac6p5Ca/85kPu/x2aQlZany48gnVHj06UaPCHKo+Mxg7rSjY
G+L3ofH6U0j+ceRyAkc4YJW2IVjRzrLEJU0Yye3wT99eKemagjBk99HaXvD1Aa1h
1JBl2dVLyRFjlGSMfDnFcPCHd09jjgnfQ2DF7UwX3MdV6YkeKaL5x5DWtUJPf/4I
PeJK+BcU/9OO2dnJSoEVyhDsyzxABu636UwCHDRGMcqr2Zq4YEjOQkTJhpDAyBkL
hFGaMc1kMTdYNH+dLtavFqlFm7+sYKMXFiIw6B+4zBUHUd3FgHsmDP0hDLuAq3kP
2fKyMGKfGFsJ9cXKW0219213+/dNxyWV+oDQTrsYB0af/rqD2/clS1DwwDubVcV/
mJ4aROBSEd8vQCUutr3hieieh4euLI5pjGQMaEXtm4YF+G0y1mYdlEIsDb7Bj5lH
+eU8s7f4xE0AYOaCa0Xu2fxypSZKNYXY8Do6aKvWYvZognGaPptwi3KJGpd5cJSb
dWax/uvZPVGUgB+a1pBbHm+b8tC9mOVw/NFxAT3PY5OHwA5ugATxLqOS0AXKB3ev
xdkAO+NFzlTW1E3/p+Pl/tAUPImvDUBdQ9WUkKHeQFonjHW8G0Y/qv0KAyhKecBK
jClVx9lsbkuqWPm5S46+acN5FBaC+VuVrE9d9oVtEYirI2RYFnGIjt38G+gcREL7
JVy8U5GHYCZYsQJrTxltqSDHUkCz1RedqWxshDjSWPxVBlHu4yqUffm1vEs+3hdi
YoaXyovZy/0kBqYM7aPzoL4G1bClUnHhyTV84AXlk8Km+rw7eZRTwL57/TPY/mZ0
xu2AGPrwrgi0dUBZVjEzTTHhkdvbPlITerFqdJr5JMeTvEa4/Ccy14OB1QFIvben
vWT/MY+L8LbqBU/JsVvDA2SzBjgL3tO4SgkxOIvQPJedMjhDmrvvv7gP121Ld3+E
YUXZktFj+ocyUhURxDBUwwo88qXM3GxHZPayuBLQ691VnoYIVQaHOftdTGaePxQu
JjGGcrNjJZz0/dgtlPUf6Hw7X3b2iTaA9nemFzpTTBF3+lzMYHPx30JjUEQH3Zu4
/m0D3Lx7DwOrQolgVjN2YpduMVa/mkTYdHZ0VgNVXnshB5fVQbMA6aWzD63ltzNw
2RZmO3LeeBhesRnZe9LedcCbqzdDhTq3bSRTG0JQUf9h7cATgynqE2Y1Cq7KR/Rr
Od/nwAjKjdklXya1PWzEzDI3WKZ6hI48xNTDnhVtT7/PqsiSQ3paDmGpM74Rd15w
BTSuOiP/p9+i0WLX9FhbvXyCGIDS/KW/ZEH6XzJqFaUuBGnFWaJ6Gx44KmqMreZo
9lpxp+00Ydrf7Ig6xTIFpTVaLy4xJun7xs1cC3huucSlwsrlwzPa+SM8pHKAf0pj
97OU/P6jH6aaVWjCRWFIPuYenGq/cPYbm3trmGi5cXImLbC3z69PMfjce6pDQfOq
tdcwmGHEkpu+RKDuQyTvy7ksTb319MKuDhg+BbRGNUIAcnRBQT64dYkwPBYMiUY3
0VeZeK0pWYJiSLrWf9gdXSwCZSrNigCM26vutjAvI+lV8yURVUT6ow02uk+1r2iq
jdOURaTFd2dnKN57+Sx5xHZLFneKaDhJFjVDsQkW+Vty9a4PWmdBnnFz7siniCOX
yQfKsbGGD2QZ6GVk7EcqSfgqJBTw1BffDVA7vrd6Xd70z8P8W0WlnxU8kr3ZK7j4
O7I8FctjX6VZx3j8cqyIGnE37d63/wwTv43x3gcdqzDi2giHDE3Kzz5sJVPejO4G
LtmKsIYAPB0guhhMlG1jUH7q0vpCKebqb7+Vo/0/CyB+0hJbBgmQcnTqG/ua/cLE
EjntA6JkKJ4dlMreqenKAthYz9qgOJyA3d+TXqGxM4C37bJTK6M4ubGSTJOScO1o
N59L2SroMw2Uc6hbVy7NhzWY/256/WZWOUrE9fkV3ZREuxGwRiEdQgxqAAP/tWTN
wMDjJkrpxIs4pJFGnlNhuLq0Mbq/j936X2oHWL7S0GvgQrJa1H1SHU4TM4d2PeG7
KR9EYadGmYtAg5Hk4v85GbDLUt5E04AUXCM7k9hb/ObZ+0iw1wxsfWc+vf2fyAdQ
y7VmugkjEP8v9FGwsBD8tepWUU7Q+sqao65AjvmINjevkp6j0Cj5qGPn6UJrtGxg
lIoftPIMYDG8cmXFLd4Ne6wYTjoo9Ptvw9mAlJDsxdAKcGF10hfNxY39yGyBKbBe
ROiUZirjRaw1b1cL1wsuUSZzkEUR/pkXzb+ZgM4qFHrCtWwSRrI1fbFhir9Z10G/
8y8oxU0XBiVEEGi9BvdoaTSLAJpZe4g/3zEpnbeeSLlcAvDj23MR1M0OUWnp7F61
vkVUlmr1McShOHWkmzBwu6GdBcJiB4jYEudKXf7c54KNtCQiPag4TIn5xwWwULfp
IrmQtS1KkdyJl6yBQ8b6xMgIEcUbbudfNw4YxeNqmo0JYNXwq9fYPz/rKk4R7htQ
ENvPwjkhOYsoYYdkBYHb29g1aBLuHdfckbKdjgg9PYbpIzHVt7LLtdicqdcVsGRC
+U8rSnjs4XtoqNsX+zU8tkCGlB1Tm9WhkEUaSDJwxipPvyeia0zn3nyEYMtZ+bzr
Se5kyZ+F4xQD8+JmRf9cErXwpPFUdFxcykj3IctjbPk6CZmQ1tvs+Q5I7BnJCqk4
nxD4Ar/M+dXyYBatXchxcXdIEOIchp4ZDMsPr/VQOcUySC8N1osSeiniqu03Ag6A
8ZjEZlVEPbj0mOyTXASMTLLB+hRavCAjG+qtCXUNFadGTp3FuHFFvI2BsCVtInKD
3r2+nOt2l8saHeOppQCL50ooWqIshygRw/W89gZd5BwcKx4zk+Vx7Hbg+RNQ2q+R
zptsV05hKcKx6QYDZkO9TM3suIn6HMXL55jt1/gmIZlhzSlLaZ0ifAI9JuwpMFXr
9vf5y5pfNa/6/BTH8MMoWZNDgmbE5oDiixrmBtqh/Q7keo4DXnHzLWwPIq5VEZY9
PkOVYxtjE0Z9NlCKNUQ2ED7WFb5u3E7UPXUMPb5DgXnHJJziysvkV90BJ70eaxqV
MOZmyR2Rv1xROOOTHD0jWxR+GCbxMcjToJ2tuESbpGWAwZPLYHgYChvEf5ICX8qT
ExG8loFacA3fyBeVZXTqONC0s/OGe35/68Owzo74HIEhUsKQoR9UjyAcXw4H+Kxe
3EvF4thTbicM5kqe0KPTKrgnSIxUA03yfcGoJZ42qtyBKXR1AvZtOOeQQuNplaaW
IgXRzzvwVqG3itojTSAxCPlxPcoMaK7u9dGglIZvKpzthnMnsu2AkRSR2xO6P00b
1nQStru4fE2d22jf9QTMoZQk8FEqyCAYoFZiWFNfAYvK19fpxJMRWxFhFAq1V8xZ
oPOgLNneEF7dl3bIMNZWN68E98NG/zrR1pw/+v9Ifk5FO6Y2LQw22sLaj79ViF/x
lBnZ593bAuRBpYLM0vd0clqzz8tMRHIZPD0wqeOtDxuqNN3r4ugu0AsdJY7UR5Dx
HihkpqwkLD+PfQ03m03Hao4/qgOVf/H5LcIk/ZL7AYg2wCw42C04p+GX2yhi2U+w
fq7gjSOrDFFWnzAz0Gq8vol8VBm72FbCKua87rGIyw+ewAgMFyiIpS4w480gm+xd
rzmXKtdpR2xZlvcnDDqFyDxM3oh1j0GDEZ1rTH63rBT72ik/3YsUC9or6yaidm2B
8XwXpBhGnqyHJiXbztz9zE41KJioLOW7YcbdSm2zuPpq5Mr6vjxozQiJOMTZUf07
sZ7qi4saqL+G+eLrrDEDn1eO5amPI3ICKB+6FI8n1HQzGxj1m8xW172JOleYdxVV
My5jKNIBg1qJy0tvvFXcx628H0wr41rSNImjZMnoUrF180pULSNi8Pc5qETo6Z+s
NJRD4kYZkKQP5Qdd8oDSeDIqX2Iig3NDM7jUu6CZx7xLVvTpFKZ93PIvQi+aRrBP
SMXSKUz0I+FmDNmxY4g1DQHXjzNwbuVOvGqytMK3EqoXokqWL8KzCsFr9xWr9rji
jmgrSWp7jyENoMLEOUqgzNjh87N72+NO2KuOvE7F5dmZdlaBXQtul8Qwu6oiiX1G
XqyHe5VsTG5Bj818fiFWLpJP0YgI3tuByyvkOOt4WV6//oe0WHsNfZxsLiq0fOjX
OAO+1yoEeRVcyS9SgIzy4sBjUfDFndMsFIvtiME0Uheyv9tbUpASxh7bFtve0oDK
N5dFggjKSiDmpYV4EoZE6nqki4KqIsuvlNv0ZZPaLUe7K6TBETPFQJAOXytT1mU6
MO/QIZwhmczzEi5XioFvPCb5FbtotSzKW7Z5HKeDCQ0EjPgr3KXGF36mVwPl3jw1
rpWPoYGJRHQQdx1XUKoPb2xXScXA6NpFRcq5eLLSJzbI4Cn8k5iw4kE0bXALeV3e
IJL1lhwBbXmTIkF8zWKWbq36DX9yamnfT/CT2o+GVa1VGV+7GYQojUZ+awWv6bID
FgviYkOnxNmQ2m5tVTqu/ZKmdw9TvaCPXUJ8un5aqOg9OQ4LBB9C/KK+GhsSieb6
mqfoQinH5+TzGed3iKzHlqS8FqKNkbzE/sVvWxLGV5YWXYpHNlTy9lhsJv4Rw7lL
IEqPIcWAghAP8bSYRKb11E9ACxLAo7/cHO02IYxUuxWwX7QnDax5vwrZIzYxVAHi
VDD43113ztpUIuwJAfmcAx3BvfYspiRUTHOrrn51pHVXEHML0w6nAvRFETy5YOoU
FnD/mpkk8bOud6gO+achUU7IDgn/CO2RCac0Ee02tcnA5lnz3HFtlTkMFAhZcNoj
edY0KS7RXGpGR4fJnFvdmxTGP7/GaMXw+3dt1vN2dZpsylRejGjWHdG4tU+XQdd5
f/lfk535LQltqcQslsh/R4xZd7zyrkBFQH4etoNokGovLTqlJz9dnf/GASwhGp63
WSpfqdeG74vs1bk7A5moW9IZVOnbBg9niz9iStYPFE1VKO4pK9r9zJqZbsd7Ctq/
CcN0gLGonu+PRkllVjPCS9rINafpoNIJ/QV5HUHMJ74nGKC0P+YQGm9lD/0w4bnZ
0WVf+OHJW5h+aJwyIeOTjpuZQ/TjRw9LnCZ2BTheORMHD6WIckpY4TZeokiSIuCN
DS/o4POevC03XdhPCs7VVShUd4DcjkoIeab/l4YOExHlwiKVuUzDhFye4z5y/ORY
eixiUFl4CAoFUFrEg4MPEyVgzZGZ1TrCQiQIdoI7WqOKBUvaxVb0+uwag+uj7B80
gqmyN23uQMbnCL8MecDBNc7NTJgx/OPivsqAb5AjSE9CdaXKV+r7u5i4nV0+bYaQ
mv9GMfjRQhWNhoItyCW3Q7IWXbhljXJoO19adKamO27BXCWEK9t5NFvzgOvjXWm0
un91B38hLbZdcaSXgJUC8D3az4q/5cUX318KfjtJRCxXzBAWsR2QjSPl6xej/TwN
sNzS17Wf7m6YgPOxaXT7px224q27RVZfD4g/g6fSMFarxbP03F+sFo+bfvpnWcRb
dtuQn5byKvPIkkZoSjCdt8AtpeKgu+0uZkoEzR0QflTQzeAM4Dl00cErMvaz0Q5n
3OrPTm0SykQJm3y49Po7u3Zh4Su0TUhz0E25MZQPlgNzQunwiR7+AntguNNfbTZS
rr5OkQtiVPAACEilxexfRXAvEgRChgsKWaYl7tUs3uY87HYl230KoTABiPcqJ7Db
S51bUgp/DewZMYXcvclM/Odfqb0dYjtVLDC9gBo/M3JsftIFgX7gG9+rlyXXnwAX
6D7iBzm7HFSQu/N8IhSoLzob0JideGnDpu654Q5Y4UN6nmFziqNn0EVvG2oG+Ggw
VzuZYCZSwl41/7ueZ5r8q4sVuFrhXm7qojPDsEpNlf5RoRZOG0n5DfyZgrrtnI3q
Q2HlSIFvHnsE0eVkpJhnVHcYYWGA07Vb7VWASmSmVuIoqSpPBrLCfsDdBJ2sIWc4
v3hjwKNA2GoHGGVjVdA2RLYKC4ju1mhuSZp3CSKiShg0FmHzNSOz4bwhe7J2xHvU
m375PgcGSEHi2xnvIDG2IvtcpC/D06c8jUAdMYjSWeTi5xRvcl+9xnh0bK/fyc63
UwfOfELqDxoZZDP3RnhISJ231513vm6eAgQqmyB+EJlaH3jcdMdqQQXc7Dx2kdvK
R+MSuFD42YE9PijO2V3rG/hjm5f0a0urduZuxJmVhjfNW5hBOaj1yhaXuxmsnnb7
InADl2cCFEQGgKW4iWHC6d4nqJf2J0lh50MfAxRTECcipT1mg5mSi/JmFMk9+c9Q
3HyFugGLA+l0M5tN6dxkj/HRXOS4iVKmMEJNJkxbVGOWZJgoeerKTzZQOgrnn5fT
7rGg6yII2XCIVULLQE4N11vHjKVNOLpbIWSZhbno6ZelURm1s4Fpbu/p5jPxMMjF
VIe3TKPn805EXI9+kYEUQN915l3MjuGBAWJ0Y3R4ihnLW3/dT+8cc5c1fdtA229r
ySfQ7tVd3db2VAOpqekKDhb0R3xpPTM4O5rwlaUA2P0K595MsLYi+AzkV633/g+U
j7EDknndtiIxeRJ/yFj8+vPTMIzD922aTowTNyOK0PgjGrS3yhEzTh/WJ+hzZvW6
Z9bcKnS/s/c6YCODg7yS1tx7a7Je2B8+/kuSsENwWEToC7/cXjWqbUiyZdWwiYoi
Pcn8nTms9PRGPMkU5sSoq5vowzF97xyvG09pHyuET6sOKxDEAAcILobTmT+Hgqs+
K79K2YKh7TpreBYGDPna/SfQVI1UOG6bLxg3hza4kL08Wn83nUfMjJY0QK0MLXEN
MEI6/k6x2zRtYbcMhZgfygtKhzm8WPpH6ELBHXMwcg2xgvI0ziwok+q1C0Jol+Ko
lhiWEAKy7M4QkuaIFHlts4yR1utcHvOggg5io9nmdfskQpye2r9g+o4JtnCI5In/
t30/lzp8r089bJyDzSYLUNmQ/8vcuq79zQAmOdvVazkTu5JH7gnfAHXca5ixrHLw
kMPtHtAwh/yJMCw6JkUJ2K2b1tlZhSV469x3a8asi9PICiHfbr9nKy6vfsXID/ot
9HH+Yyvq3ba8tMwM/q08Iu7JjPkCH4Tyld2CHq9ZyoLK5NC4FPNI3uTRZfPr0Jwn
a7CEQQ250A6oDfiJezp7vmY7v6XU9JMH1KVxbipOA70qdC4MrSwTtz+fbyH4wFhk
01ZuzpCkgBqG2BqdJvwurEtVIfGBio8BM+BeOC3ZoKDoXnmyMhKMBxOYt7ioNNRj
waSc/I+dxIjiXicK5ZC2JaZTCIyL4tJeSwrJKdqQY0DqQJ0dB4mD3oXdfVmQQUmb
1tpQw/q9DGZ+VUkBxS0DTk5U9vh2tLUSWOocBY9z3FBpAPmJFThaNbyWBct5z5nU
lEgKtiX+E2/4P+tc4nxiiOmSLa9+BEdPskh8lY9PovGMmbOSrWVtjN/z6DTcVKG2
AIo8pwCZjs/SJK1LnmOdkCIPoNIaGSq11HQtD7pwkHqD235odkSOtxFixVDunzFl
2PBQhhtqdM6+7fJ57BSwevzubOn9gowrsHg/cotKycCKYPYSpqeLKFYwuJYqtoUf
bnjRV0GvDBFgNeQJtFSDrtOK463NTE+CDETxkc3muArt6HgKimHZyXhw5ir9bi7N
YXn3YJqj329InP5Vd2E9hCGhWZCvHij2AP9s6Tz2AbmvAql5a6OOV1fbmIx/mg2b
DRqDuN74ZUyuY/WuAFlgTgt8bd6uI+/ep0DRwrOuAqddF8p+VL9Cr//0WK5hjP2j
0QF2Ntjnj1LPkk8WEar66+LbYRWWifqN0etUpSw56B5P4g4d+wvsGmuDyZJvW9eA
VjldOb8ln12eTTATgIMnGQgmVQ5LIvSkIHmKKOCau9KDjy8JmuIs9KNn1ejhiZ52
ISPbw1QIeXe4CfB+ZuzwChyWRiIfCKPcUy0XuJZVLHhFm6Pa5gKJ27WD9k3jMMFs
jDHBt0IKVTE3zIfsbK0hbjcAV/sBZWOP1BFP2NCR8D+RuMwonZHvEyUFV1wD0xQw
dgCpLsdoQ3ANjYEqBQY3HsBlJriUzx58dUIMdjm9FNWbE4YJxNADcsd3Bpgwdmmi
j/RAKdm72t3p6RYqqqsKaL+2QayeRu1zBpdGE62ReJvakFC4a0y64rRALGNBjH+Q
acbvaSfyMGUR+KppFwyDlo8mb0nrxAhiTj9jsIzcxHoIoldauY7Lwc1y7q6CNoDw
VdGqlj2qAhoZtqaIDzgt3zOZY8q0XL2vtBJ7vCWiwd8Mb0rLiHAZtF4tUq14C4EV
aHkNcdqi3fp6QGE/9F0ajiqKJF/hjGRL8BUU2B80cYfrm63Fmw2WpGFeErYtZ+YV
rrRMhKz3IIbXASYG2ifXPhtO8wpLo+MBec+vpbGEjTpO2M5NP5cY1HM0/0Bc9dWd
CtlfOJqy33G19OOMEQ0Ln2sy6gIXCvQOsI5n5E0U/TO4CJLTO6hxvyAM0k9gc88F
DiyEtqebdaS8RabjtVmEJuuHuYGsJ9zyqs8qsRxBk7AIHE36GdEyDSYQR++ay69U
WhAEsbpKYbalLEztZwz9C7nCOpbVjr0hOib8sQjVWgLdydxpPZd9FsyWSD8XoHNe
NZAVdCQZVIOvFE20DurKV2pTzX8+HnzuDcvQOnnSqnOxmbA/MKNqNgPLc0nSCVgL
48oqrnLgnbssyCyZlQKPA1+QgOp+i9dSv/+CnGI6PTBELMAoSE/MFtsh2Dap+02l
H9CJ3O+8DfwFglEZVGess7m6iwnbBLzWmOIKJcc8fhZ6E3xmesiTTDwNj7za0XRr
FQfMTo6MqvW4uEQTwXd5my0dkFss2eztfNYut6ycPaQRAR797GekuSSuZkaqbcue
cVnGmc6UCDsiuGpuOn4FrO5nBOGlaeie1hHrNTZy9fXaMQ4Mxi61JhWlhq0j9feV
RyEbG7pX/jdlvLBkTX+FJ2/V7g3340zmS4eesS32ngr8ipH8BDM8nsJwjobn/WqM
J6EXzaasmJh2JhH9sm6efciDkZGxVlPdvEJNEGrb8CdWnj5KJ9QDblc90RgOr+Xt
lNviO7gLED38B8NZbu6UmPdzwqN5VlCNvQ8M5G95kIY+rSRUh9nZNDwgyocMap6Y
uACgtvNzQgJfKgw0YvRg0UMYnpB+yqsyUwOajuyBKwVKBZZYPH5ZfNJtfMdXjGeu
CAJDYCQK2kPlvs4BMgmzZriRJ5chFKeyDdwqbXo1HCOD+9vhLQDvMEhFfAd8Ak3s
4GRn1fbDk5h0lJFpwhgeDObhMYtLujBP9ezh+riI/WNVHmtg1wI70j5reEClyGtG
D9L73gqrweahqLZSH4HAkqB1E+2BbL4EovEPDaeFwtCWKjkSH1bC2rBDDQiZghCP
1Z4NcKNZmpG6LBjeuXPrZBFkMqiVONjZh2x8jPpGTM7UuhZ0WEsM/npBXhykG+D5
n70PN/f1KxgXeyDLF82cFQSrBmpCM6Z9EBQWpskaibY66K/8HzJsG443LceeY7PS
NHmwxinVWCafrkolUn27eiao8UF5Djb148tkdwSwQn8WW2X0UuVxFa7NltOw/lRR
rQM6zK6yOZHTkAu1Nu2ypdrqJhD2CzfadF8rxqGMRJ3jllJ6ef5ToS9Ffb3iPYnG
kXubQJiB93P5UM2lIRRdo2gZUvGYoRnVidB+4zlZiODDKj+s9MFlJFtBnuaEjYIo
GCSupf5g0on6JxP70gaU/agiF5kT79IG64zA/n1RQsHwGzehqTIaNs9H4PhRp7Rh
PlycqB5lerOWE7peyNfEMHg9aYsNnJ551kPYDze83oiQDyBSRP5SXrOan6MkavNg
nbqoSiLXYcysYQ/F8lEt2xkDqJf4FHWfHGaQa/HWumaRpbTCohPvDJmwTBRISBnk
sacUj8254TMdpwBRgWo1ApKnwhThBHVIyKay3uA2V9DZNcTC29Pa25hbdYNB6Wv7
O216a5l3issW9y5urzRdGr24mmkT2zZMIbbx25qd0Is+56KziQCsN9Oqjh8wsB7X
6NiU8it2u3AGZMeq//Ao84bgXCqamamvgiLfTr2hWkXJD6QgVGW5OAoyk2/h3pjm
Pt7ohiAmorbA5DGcH9pZ+eSVpTWBGf5KGrhmVG/1j+owmH6fwibzIw/BB7cqGsf1
NzNO/BlbFQhUi0PeG+nuXvYO/6JpcSPk3VE8SkKrBUeq+i1agmV/fi2XSKANFON2
VNBaoZEzgjy+5abIZteDuUY4sQz/f8M92I3ia8lvVCCXaogQFN/YvueLkFazdSBQ
afl/zmpQEGGQl5YzpHRP6k/NjYep3HlKPswpBTFRe0xsVrzsnvMSovg5tXQDv5eF
llANRZea14unRKhL7AwR7VPeBw/CK+n5ixLGzd11rcsHKfKhDDngGenq/KjNkYAi
En6aYP6zyctpx6GAjLC5Iin0Xh0yaZbpHAsNiM2TGPl2c8WQ0UmAMGfOcU0alkOb
AzLMR94bNcTs1CWytURoLWIf7MRytHMipa9O03p5Tzw6mRUVLPf9Q5uyOvBg3u12
PLlC+GFvAe9wkk0HqRLGeC+bkPwwbrDajbVMZcFQNeZZTD3y6jxjRvC4T8XhaIW7
BdvRhN/HcWviwpqdn/1gY5l+mkXYfkmtvfgOgVBtWDkFx+gefRODCqv15JV37Kc3
cEhRwGMoVMcaMOe6j+rNj9aNRH2xOkFif12tisdhkH2hY34+0Kl2RiSiVkBinCaf
4UFXQBdXq7L9+I6/oyH73839yUaLudBuviFiQc7ryDeVDsVlJAHL6Fod0Y+Nw551
exH0y2nTZ89G/QTPgOrbAoJeWkbYZ1pAD7wY8ijThThAZ8w/4agQbBUGbxglAUkp
LSU6yHtB+5X3l1G58GoFyDYtrxVKX41lCgsvKnNlN50CXx08gSgCWuZ8SQ4UHkNJ
8rf+OHGhQthxe2qKy8Z9Fyl9cOBJSh2bnmMFPo387+vqgNYeiW1GnGx2gzEZcCoN
DAPyX4y92QWEanQhThmh8usfEwwKwdpCHLBxDT4dNTvgmTIyoetKyGIyNZ5J77bB
VhFm94CyKq4ThfvIAgjpUw4kOquZ2NlXibXJEND32ZYWUepLxyVAndpOJtQWRige
swGycUTmoGFbgzloJUNuy0LODkIEMA4JNQY9jUEfW+Hkh3uvPQTUX6u+Kv/UK2Id
qjLanSOpbLjmzJR4/Rz30XLdZ+D0dTQ2KUB+DXYL5T2uHaQHFBXIurEwbbbhRh6z
q/if9BeNB0npBPsw+rUNsPgC1wH1is/IvsZUbuxx3h0QedVzXS+qG4pGuHZjJRfJ
+7bRjlwfhIvbSucaOdSHUZX8st1WDIH8X+GibAGWEw+L/4E6APdy335G07Lcfvji
5xr8xloDCrlTvyysbwg6Oztn5rvEgD+MvcXnEoFnzSZUq8F1jo6SRluu9AowHHRM
UoCHP8m1ankIEuPuJOlDkhnVN5yJJouOyUoURd1OhTGcdSTUPHEpTtKt5lYTd6PJ
Kb4DwcXvkecSpYlTspLTYrYRoE8d6Q64OguxDb6z6qOQXLY/a7vUQxP0/wCQ5f6w
LyAyDjg8T6+Hj4GqTb82t0km1SMbxnHWYl/jQtOCyQeNVtX3LHXGAXF96pMf0m5/
eClzCSjaV0RqSwGdK/3yG7DGUHKkyrO6ssB0VYJeL6PQxctPT16ATkXBAzL9FrsG
0WEKVHoSGisdWhkXSNgBWgV9obHi408uzbiNOx0uURn96M7qT0kPz50I98nRh38A
wpv+7dkD9F8ZLUZAJjgnZcCF0yrpidIViKZAtEpbKeJW24vnM83K6RFyJSP+u+5K
Qm5IIck4mZ3KiHVKEJgLc5o8/rsx0D5J6QXO7c/YwHpf+o1fG9dxPQyKgm9hRUGe
/d3S57woOmxu77aRQiV4dpzFcTjkVJ/bYMIMFBIZPNN9T+qUV5FAC9neA6BQ7ouK
tRgAMZhLm8JkiLv7MBjoyOBkjb8KD+dYVU10ROaeuquf/5d+xVBZm0JLDJdkuur7
RbJnZD6oBXSAEvGnuphlI/+Rm84+lcMz7BKIOJ3mv3fhDiFEO08XpF6/S6Ctf6ZM
hP5l+vCpjXAFqdvHVsQ49mNJF5IWJ4uVGjOlYaChuNghPfagr/hY/nyiIg3iAAyu
Gb7Yk3dX6wVr+UeEdvLYSkDGJVB3AUKfZegBCIPlRyqMGRCFVNxsDJaxgtAKhtJN
Y7akYEfQ/hWz/Mx1+yKR0Pjm2Z5MFPp5gIG0pO2iOK2tihxmhlpPojbn4G0Q5lux
2xeg63Zt6CSwu9OCzkbHbvnsijq8gdrhtR4XumQwX5Yn1k/9Y+YqkdA0MuwEj2Ty
cwwF+lNt+VxmkGXQU4lQ06kjiUv/oYuSfka7hVqRtlNqeHcOKG5xqIGM7lS6HzWo
S1QExD6w3ypaPgz3P+6xuvnerUXGjmqr6oqx7QYxHhoWeN5PAKqaS7P9aoQaiuj9
ivb9h5OzqEDZL6lmSJQlFogGDa+ED5jXwkzM2GYoxwaXSmFi0uOFVVv87TYPYMqF
E/vmZyjuRCYBQgAUxNJbtaXe4XqXtKOXB4fG9MwOCE28i5R48dVhIPBYAYRUGXXL
hGuvd8kUy7/FVv598LQGWXXzUuXe37/XAttvopjRc3pDveTbVcTV3nBglJurQ9/x
rNT3MGYXM8awGPQ1n7CeuQ9Nv8zKxtQNO4D6aYyRC1/USE5aLPRbQR0m6t+kpAmW
OvWLVRddfpO8TRhWRteBeA2gsUKO0YJAi3tJAQYRhJFVJGXPHrrPdlLVXniG50IH
63GKuccBi1GUVRsdZ09Erxn7LOHIDpIHUdvCr91NX3FFHl/4moAlu+lkv1hvk9Dj
JPrSRmBovD+g6Z6vUUNHEPdXsKBp8DLmysuUzw3bAFiJHc5DLED3eST/O3pirUO5
rjeNKYOQ/Hn++jqzMQv51w4nxrwyFm/7MKpKniPSFRmachkZxxGG+kcRk+lS8vul
LHRSwoeIP3pd7y51pmOnByq2G5ZWD4VC37Fg+dYrQyG1jnbPJpPvS1dlIqlb0NRq
5hVs07dw6kbulzawQmMZNMK3oUV3cb5hEJj9TQETkCSAMJiIpiVTR7BMZNnnWaUq
7ehH8o0J00gdZz6I35STB4iL48tOhKapB8IF566oyC5No74ippoIDAZamdJBuY/n
biUyI5GOp15yPTRoRC/H9wzjNjd4tO9eggHY2Yk9SeewGuZYBdCE2dyzKlfQRIxi
ym/knVZONmSxSMI+DDqGzuDizY1/ZXTyW2Dt4gt6Ej/eXlCZYOiT1z3KKHpGnZ4m
GUJtO+n3kcH2mutEHIVtzOs19SULgeYPbF5WZLOpK+2A0XcBwtvWAloGoQjSwBV5
H+94Ect3AcUliHuJU1HVysFDzxZMbfcPnTBkYcFoPJoH+N5PvAVSQhA7d6iLizES
FNX3qyBA7zv5b8Zu/a7zfEzEnUBk274I+n+js4BlVz/R1keagCLAiBbo/79KxAPa
3YFhRw2py2lYmji1XyRfbd/MbIYFopiq9MA88G2cZc4KVzf6ORLoDMZ72PIkzqfY
kYgg47l3Hbb8uQBfzw5ecvm+XyHyNCTL49nRNYnoQUb/XwRYpE/PgraP6Bm7yN9I
Ce2MoZkeYyqLurORAuTesXr45PkMr42QBqp/TsHmBN/ZJOOAfdekzK9RUNeeKXrj
XooC08psLtj9k+Gm9WrTwOlToLPrMa4yGBZkOajtxx1KKtneMaVRTnXiziJZfsqq
aBoTikEIG1dz+sUdxFkYdlUP6x+cxCTTwtlkQ4ah+hR77efNd1qTDTaX+PgkCKk7
29fp7d2HWhdTrOLhaE/gAMREYxuklZkqeGU+UJfrEM0IhZKLiR7EIE1cyoMgySRw
eIvM6wXakYO1Z2zs1wszfsiSnD8UHx8tWSjtWcf0g2zpeKmGIbj9nFpGNwnB13VH
ajXqYPXaPdGggdaSRY4oGuH6XJxXJ5Pk8B+f/iEzvNnGwRCIj7fqMpayukScK44m
C1WhP658f+p657Cea/h5d9akdUWRNSOWtOQTrxHKp3IqGhpieGHiCWJgJAYift3b
ubSXM0EXHZg7To0oVfuouZGnH1AcGJsTj922nIQaFItpDnqZD+QgG6UI3nyT3Y+D
B23uN1Q+7nRzfiDCAlCXkEmQCEx0SKcijik+1yUv4RcmAXW8pyP2S4SL3dYwrpHJ
rn7uo+1yQYBu18w0aIYkezU+TVgJtumlrNGGTUS9n068m8ndnH7dTaLN+OT+4l0M
hluGRQnLCzZqKkj7yW9/OgybcFMDdRoaP6zpJxkA3V7HmnGvkL4fMMWsUSUO+8TU
0lPTeloVDIS0RzStdOVbdovXbDrNfpFguDuPv2k45sLJbyNGtUlV2kBRxKG8EF5K
/0ciJ/+on+GBpbkLnfpyBPGfqMQRld6cE8ddctbZchwTBcZ10vuJcjw4IfyNfAOz
2w/FAWE4G406xt9PU0u1pImClJwqbjNf0488DYDilUDD+M8vw2dm3JlyjODRc31G
TlIMS1NdOdOvWMtGf4hxTf/7EOVIs4xx/yh/vo3xiq68zBDrqTn2R/u+4CMGufag
yJyBfvyxC4euBV1f+N44JQnncaNqitYd3IR45El5wIjBRUJItz0nX4svuXyd9JEl
SpMoI/nyFIpf6MqiwNtlV4KARTNX4JrvgPDIEa0cwvU/nfptaaBJzl+ZH2MKTfy4
JSOjNI0cJo1rhOOyikbbIMGVnuPWO+DClJzq1q4bJuGWMZZWhI642QtXKP8vEOGx
SpU1k2IJRTW+8Z8HUwOv2FNH2dvhzUZGMVHb1XEh/Tz28v8bID2Acx+ZH9jKeIRV
kGdTerFiJLvcYbXtMiicVKwuVA7R9qIPCotQmFuTc0/1Tv075q4VG2MV9psNE5+J
6ol30jcjdQVY+veYDjEr40mHbwm95cHnXv/q4LGOPvI7MBGA/zIMedvBRKAQNwoj
uLRyBdL4wUl/Rq9KmsTe5eXQi+r9issNt3VsP9QdaOUMAyCBcGXCqX1is/D4G95f
iEXZO37gJjAooM/NobnzEDtSlbRp/ZxA1iBiC4eqP4dOlMIeHSA6/1pCrC8RoVWt
DYEjI2zfcU4kECB5hhpOjn/94q+Hhlwk95aNUM2fNuf9k0qhRtnquPIdxdNqMDhh
A23W1d/IFQARm9s64K1HD1YnKLvs4jMq9UsaiPPRl3GQwtHtymz9AqUc/yRnpPiF
sjJm1+6eczUKfLPfvkhfgOi27TFshkN2RoWpuju7rdbcHLs0EBbGGa12yxHiibKB
+dPnmb/8DiCC4llYHNQgDUVmPtPXvanSOp120Cw6K7mJ4rCaSeOhxOPsZVALe+WM
5Sbi2NrFGm3A4LgIgtcHTY5qhICfoT6V2mZ0MgnXm2SBq1TE2d7dYhjgwSjxgNxr
F0oAaqYN+TKK+7LQ6twzhkd5u2DKbHLgYrzgkrAWjQmKXrros+8nylk8+Wp5SkN/
M59p4NaZczcsrXes++qmgOavU4ecR666thlrfuIUAdvenPu7Uzk+4GsleAVQUw1P
0HJPNvze3GqO4TWbqCg1xfEeKNiZuMWM+e4/9IGPMS9EJJ4LKOE/dNYt8s4pfKde
rUuZxkvCSINPm1RL9V27X146S7bhi6cqARUQVJLmKN2eSq9J34T8ENWymfruytI8
ARlb452Nodp03kjS7hObf3a0ab1KH6creD3C/VcO1YFilappk61p43Pf3+6rKPx4
dC3BLMPkGmgIw7slS6OZojPD+ZcsG92uzI28L4j0GFzPULjjmVXAMGDEecBrev73
ITMTZuOEsbCbNegB4bGE9Aja7BXoAmNhtvAa7sqmRO7IwU+Ghp0EGhVr6eJCDQrO
MHsRJvJf5/pBVHpos0nQIUxnmT/mAhGQa61zQAupTcE1WHuX2ayfCMiQ8ZH9Gfy1
BF+ZKW0KEKAZy0s2+HrARXtW6ixFNEcpL+FmcFqFIdwbgitE/foNVyYRCsYL3vCG
Z3t/BlUArPjL06oQtrCA9LBMwB3FShgx1jcqH3AgIrn0tH9MCdThZd1A+tq1HLwh
h4+Ftui/izP5hHDTdo/Wg5QGHXAGqvejPAmwZCAJjMdmGCFrLuq+BPStzpMcVAnR
NKmB3CWc8HXa7npxpu0i0ZOimueTG4F9JDTno2NAh+CslrCMYKAon0ClzQsaDrHj
N9POZL+IbqKmdvjytlRWEoQepIe8aD4NsZixyjtclQajdXiwWAWEP0L87C21sbWn
2/SGEIS4+N/TZ5JM6/tvttF1RCILxHWNH4b6MjpMEg8R6S2a82tO8hMYLzVpVPFB
uNJSdIdxpWXuQH/IJscS2z6rc8M/PnSHwIvFSDW8ccpeN7y62LhrQpE4M5UCkWCJ
EjUuVbHs+GV26vPB0siI/csBIm6CBqY052BNpV3KsKYZpVPuaUB3uv2rbCM3uo0A
S/1SmUVP4E65/6OZ7ZYH0Nsco9dC01x+5ALXNIXqTKCsbG/VjNxGQkiz4tIIJozq
dx5FAbqvvSuWOETaL3zAb86wz34gi9EQNxbn4stAvEu+goslRUvu0Rq28ops69O9
TYQDszInlVDa4AukuWKcsPkNipdep6ufQs0OapA9T27ODLa0qdMm0SsK40ZDdpN1
AC8k0CaYLsBZQLTxcsetBlcm87o6L4KGaWn0CHkrA3e2N0IUe/Ine8ka05t0LQ63
B67Viexok+OV9IyXPqxYNeRVXAfYe4h4sDOe2SDNh8E71sS5nebX3/W2vMj3UuiB
o53CFoRVe8R4FwRZ+SzWKv556tSXMCFtvmlnMyfYDy1vljHMVN6ExHiU92GR0bhn
CHe1ajr0FZ+z0Sg29OTiD0iCEiMZUde3aIXYxg+TuclaeoA6wdIqM9adMAGdV+ud
/NNL+RKteRyll6oaSgbj1kL8Wx4xIGGmQc7ch8AHkikkKcJMruju4T3BVu+VrQ7K
WF1y9BNf3aQ3LQi8QZpbZlDu1m9RPcfyW+BjzAKjZw3vU5TzLini734vuyerB0Mp
S+Vw7WFOzUmu/4mGzlL68Yc0RBEqlek7DNMUaqoNjOqxWIfVJMsJqrjlrym30t55
AYzzTOjI1v4w+OBMcx3zbVdNhsutQtLosxjgv9ONwm0moN1ZZhTGCT6NNeHSmhV4
HUNewkVZYfbnNzXHS0zgqD7sl9G94r4HNl6STCqAH0jKoGZbS7ocYacR9TNgdwJO
yZSA67Wjvd9ePXyDdIrvQfTdv87kNWXvHPTx+xGodYV9Bscyit1IJf3BmFfH9/53
Z9bcHA1qvFcJ1HcQ4yEZMkt8yya8Wgthmuc/geKlU1VV44HoS82XAobrhYcYWEa9
D3W3h83SMuqcoF54rU8s1jZypXy/a1PhLlavB+AnMpuoKYgw/9NYLo9jX3qfCieP
pQXygYNOMk8rmaF5S27g2/fRGpcXKLJjVGiA2Oh/VLAHfyf31y+i2+7EbyToA04q
A40HotLQO2YNF2IWnwNL9pF5HlWarQABvAekoyg0f5hbE9pdKqr/uYb5xq94Iv/t
mDP21Nsgib6k/3GHcYkKpMNP28nxWNaKUQKMtEzyPv5L7+gTPEKLY2WsjKMvhh3b
8Z3q6tjdN9UfiejDYxHRD1LdPSWz1UAJ1uAwnMKq8KWJB4pNQrXoIsy0pVf4w1BH
QC/v4mFQ7yk2n4e1qfZFTJopFTAbk8YY4chpa7m0PGPqDYdIWzN0QHvHd3IORYge
LxP3P4HiOKkOpImo9avuGUKBlY4eWcgZKP/vnd6N+ufhL6AIrbAR7BidMdzDEdij
7XXCTE0bSHj5dKHahBrBOGvdi6Ke9AAxzQtt+Gfna06h37dTkedV/kbj6AxSpc0a
ZFf5UQzG4iFMlPqGZv4pNkjzL25a+FQVdHV2DesngT0ymkKJpHutOnFhwp1Gb+PA
expUy59gnZbrYxBhdHBioOJAfaMsEhK4iS6QoB1kH52Jo6JiAsKWfByUucUfzMXx
6iwPEiG+YkIamNQvn/6AntdcHgvtlGa/c9MnFLfrP/frDTb/1oIlslnQxV4Fix/8
I+BLXSfN3cKd7HgYl7ujBA0818mKsABJAowg30gW84FUhsANxyTeRKIlQXFzNsEN
s6j9QMQdUv3S+B2K5i6xJJImcwmizUFV55y3EEtamVMZvL5JNa7/ft+6NxvZUvfE
kXOTZjuy11YnCv4jZYir7Cn7iSffmuGRw9L3jeraCAJPhu7siBNZvlUOemlPtf1U
imTI6VPF/cfE1YKhnSwDKG8SURl669+X8ho60ZXLBJhi2qa38P+3LU7OJ8R8OejR
eYD8dODYllbxpoI/K0kyLL6QTOJfDEn2rtzr1wmiTEjhO64XLeF+ZDQdG4IS5PLg
xQC/zDqhdfiEOe510OgbnEo4kNercDSWmySU6HOD+vQHUHfFLofyIT50aIVDrpwk
j++ZHZe1Vso+b/lvUwPvX95pra3MpYiVHBmnKAVo0DQynA/FFwCLrKPLuZ4wEKrt
5SwFlILfBDClXLI+5zi4lqKfG9NB7b2mEWCbBy2nO5lcnoZr4/tcYU27Y4opZ9Er
8Qgbv58dAutx8hShcor8BJz9B128D3j7PHIQ5gcpoTyE5bBV/DRx/P8duMJjbzJS
rCIqyPOneifJZzMNKgFZCCHDpGtcMXh7Z/iOGo0QJaPFHuv9i0GvmxejqdHutuDI
KW2UWat5Hzy5jJ4Igd2TiDIWTDy5oTJd4R2u4FiO20x08rK3i39+XyCfdwO5SGsE
detr38O69I4u+ZgB7QEGmSpUaQH2pWlt0uJuiD5XjTCzAsmxif6P6Lx/nw6GzvSo
S/ES4tYf6/GkU/saQ5YZRjgaAN3iWqlxNisWQk5trqQMqY/ZCToFM7S02r+rqVHC
e/rtXegbzzFfeIIjXolh97dJ5f6VNV/NXrf9ovPg8IcQxKTCWUsFOx06uuLNzyCg
IBjQ8gi5lXgQv6YNuhvma+KChf/cC3ASQZdc2uHEMC0ssR8mzaNhMCwWaxgitAtr
+NKsl3514iRs0uEAjP7ALy463pVFgO9b95giwSgoKJeRv6R9Hig/IiurHJvqgT8n
Aw/mdVHc9wcSaa01/gcxprDb9cYX7jJMJNVovUIMHr6GDx4mpo0x9i0qw1toMI17
VYn8wtnqGIipgS7nXylEz3TxGVBUYF9rnDnflx2Hmpb8aUkQwBRzMJBqelFA2SZ7
abbtCTFsYknlO3soH0gBbW3nxdPT4vGIP+u/9VoS4wjjExIVx2aSEj1XpWe6Pbkv
MkoPoyZZBcenIj1Hifw54iIYggEDlj+hyJAsAmHgpcwlXXQpDjZvRAipX5lF4rdg
Pdo7h03H5+hqeBhnPSaky32QlQWiQcT266EAWel475ZZrcFKSCX0NmzHTYNTlXU0
7bnc97XV8yjhrGvHlW82lpDRldHmJzMRlebyrVPYlVSo7E8mWXn/EPjAK9hlLI2A
cLf8T2uQckjn5aYIQv7rIoAEuRIYkoP+b4YL0zmaSL21c0JAJR+gn/XjUolhQU/u
ILwmK4z6xin6QYYpRASxXqmn2puON4WRUuargWDA67nkc5k+dJ4/p0hRD0BZ8n94
cdJ7zoHKtxtDkBxCBv/ZEct7rUOgZmYy82KfKPqokfGbN7GhcKdnGokB1+Rxh2+P
TiScQ5YEhZdCcb9FfMPj7M5CaAvNU2iiHGFOatbMmsVMZW3naOMO54+5LzRwjl5l
wFOgW9GwNWxnpq9UXLdMPZvWtxGQa0r6sMtDBO6VWScj1W6BRbiTdKpMFHQRvwvC
ql8m6np/intIKEaAJa2+2qJdSE7X0ev+b3XfCxv+WKZajLPsTn2UCf8jwBvXmKb6
zEkkxZSFIjs6XmWyUSkwf375U3ii1iGgr+5KVl6Y0DoGK55U8A4hDJUjrSHFHdgg
FmjkfdhUXluHTrn5vrFKJ6tdDZEn1KFUm6zAnWV3TwVh7pl/CGSnfyXNZQKvOKEf
+jC+qwsoo5pIKnbE/TrYjQa+0L51dX9wOpxXhEqAoDyGAB1HL/D3cF5qEFGbgvVv
43jjeWzf4pK1K49+08BMvd27k3ttBtrrANBTlxYzT3jrrCLox4GzvTJ961Ube28x
S2bVKnmLLpIXzstOiIRyHjDkZN7VDctHd1V3kJq5C2fvY1mMrsxx/7A4w72OqSjS
4MoUJr8psZNObr/RD5fn5ZpA2d8D0LRQYCpnjWVbuxOBP7vwiZfMopVdLfN4ZAA/
1afO7Az2K08aJQyJas/HW0+IdkiLkUC6ubB3S0foQ8nr/gKzmToEG2A+96oRPKtW
UC3UG41MaFjvatiDMGzbPp31NFjtvLptiOu06coH0rKCYhxWIvUCpmydLJ24/XJr
Ji3vcDWqeotRx5RNI+1RQ5xjnjGMPnlggekCim3XnCizSFHp70Y27XQADA==
=QvUV
-----END PGP MESSAGE-----
