-----BEGIN PGP MESSAGE-----

hQEMA0xBmd614XhhAQgAr2sWFUw/MYWUV+cljdnuzgQQdzxL5Z51rF73jTKJspkU
Iz2foE/EUGeIv1B4Dro30IwJ1ULq4UJd++sD7HeJwTdNO54MBPWS7XBZcQTKgbzq
UDLViJvr0GMC+602wY9pt400JnjszjIJIs9ARkTjiMUb9j5CuLTuOVN4Lt6QIEB9
o9QGc5pQilM1k7/Dcn1kpZIglNy9b9XXNfy4znN7VI7b84O5seBDcPuy241JY+e2
kXwxUXxn4MGl1d654FrXDy6Bm2FV7AvlSy0aLCnaPWrW5kHf93/98RQxiyb8S6XR
mm6vqXhowwwm2XzaEkOu71BjrzL+1zV/5u2bG5Mr+dLpAW39XYvf2u5c/LbGys/z
8tAMFKDHa0sHRx6yKiE12S3bpTq0lbuMZhiR3fDHeliK+R8r6chXossRiVVMMc4j
UAi3zDHAKQ9P+Ed4ArzE/RY/x3+FBn+sKsqXr/MWqyX26v4c7fclGye7aYM8SIT2
y0cR/DCK2EjokRsSkBI56lAsUGWEU8xZfVnD15hiwJV5n/rW2hTV1JLsCl3gIv/h
0rQwc1D2zt/8u4oiGXRMp5z99aI9tjP4oC/gHlg+M5HR4q5Cn6RUuQbTuJ2tKiRJ
o3vRNvA4Zbxpopm3pYmFkVTc3W3wH49khgX2rowF2R4wQZdY/AXSW+0UhHtVvAFI
lA8aNO/JOXRfoDyL5yRk/tq91bJL1ZopaWxAxlxSTacpmGbrM3ppckfVFvfQEi61
xy8t9Sg3K8GDUPQ8cl+yZQWyWhGL+Uuw9joO727rRoyMQGqX+ZVTcN1E8G7nDSxM
HgsuSnz0HyYPT2A5x/ry1rhA7icymqza3kP1yv9po21JzllmA39JMGUDBP2WitPC
N5wNS5FTgD4y9ybRPSZiwmRcTJBsY8PR2GZEQxpM9cnU3h8DHwPqI8dSIIXNgKDz
g8TUoUuKNaQki+0BQvdzohHOI3jNOHPXD92hkkB5SXuXsQSrkGH46CaG7GK/nuy4
VRptdOAB8aZKWtjAq+PUFMMXDpjqJpsp+8HUYMgU64fvc2pIohZjBHI=
=2MQW
-----END PGP MESSAGE-----
