-----BEGIN PGP MESSAGE-----

hQEMA0xBmd614XhhAQgAumnGwCBZc3Fh52Mnop5VxsX6wGqm+YG77F9zYEgvC+8o
5GTAsRmaJO0Fshg7/R94oQinXOKSf7Rk+dItpJcQoY6Qxbwm1aAWRNu/nVqXJ+3w
6Ax/mqwKwlPoYuy5eTLJ72MZMX9TeW3BiBIJZ++e+/fOEbxj51DtCyitbKT6BS1v
0oKfr+lDKDxGB34RKHn5WiLiHhqB9lPHe7dyTtsxysgwAW2L6JgovmQuewwcw879
3CENUAOwtFYPB/jVUL2eOpONuCgRkRNbq8hnu8s1eF/85dXXp7vBwwykzP7dXt3+
F8OO4DIN4vXyZd9NCrXoY+4JsVPdjfkpTqB8NbcjTNLqAb48voGfIzbPMwbPPsD2
+cphUd+CK3RJjJi3+cpFsPRhTVop++jmYmxtJeAvGnn6FZd7ACKlLOP8byLhcu1s
Lr+21yoKmmxDaxMgnxu4jvyuWsyhvKbvpyuEGumiclqTol/wLhOABZuZ9jTbPyEt
BeOOJNSm432FSrYpZCCdQOuJS7zfd2vUYRuqAqbbliYHXkZQIjyQpiuI7Z/q84Qo
pkMBdOWeQHuzc1X2bUaIcshn7rrLW7DjLiQ8urkxyzBsILe4bXLKZ6/w9EzgN9Wm
dGEVphAx8sYWVGr+368vuJRToptu/CxlzMs+ImUR5LaYYB4k1ajHyncX9htTBgZ0
cSevRWHZ8ARiY3t9LauziWTcPhQVcocaaeAv/awzNPYniNRTXyg1rtdtsc3pSIRV
ecDAEeAOO1s3SipRndoGeqNqBCYzqqCNYdg6HrvFvFZGqlbSpNOdIPlGyDGvEua/
pdNVaWwXdriVHz3MJI8vhVe7jd2d46kfqMFcRW8FRFkEKIkgwzDTVmhffb7pY4//
b6cIjru7hOSbz8aHMvjzhlY8ys8MAhCvX0QneMM9AoQfUdOt4SwOvEtk62WzWCPv
jTlwtypb1rCk9t5r+9cdCvhT6TeAOQBVyqs4h74RJ6WXCGPu9OSQGy1N1xZoHXPu
oVqbLMlJqxt8AnlW8sOmBEvMQQVwtks/nLY7zOa5fT84GzAT2RLk0NSyWUcfShUO
qx7tCGScpQ3fJ80hI/DCNJUw/eYDjXl8w+Ak0C3d2XyGVmaxRDOpcVFy+WxGJ73j
JmA+7RjV7031k8M0ESqbmtKlXVUzA/BG8q4lciJuFrMDmUUu1cPskkE7/phEvcSt
aQsjGYYBBPmiNogtTRf4CydVPrvdjrLEO9CJKvu2pOyg9xpZ1ghyNSL3j8c8eZuq
B9xPnJQktK8wI2RUiBx7DEko8nrsnmzSse1ti4eHo1yY83VJ4CPg1N92lBQYu/ET
gbfquRiMi2x2ngx8tSpwnV+V79G0DogCO+5cDgMwUC3DsLcDyfTnTujSPd067IbI
YS60vBpgqD0QjzgvBiVQr4gwyQ6t/vUpOdkXZVTA8ejNYTSSjpS1tpMGveIHMtvS
j0y90NQueVNFReqo2GTMbJUwgUm7wVzN7r1YfqMokZPms97WxSyDsQRBwQBGn7s2
xo4Yg1o5rLF+dPX4/ubjD4gbxKHGeAw5M6Hlv98xldD51HueE1idmcmx6cpfT1eQ
dcziYa6bLqYm18U+LmUOWR+l6/aDeb3CJ8PEy2dXNr4RJg/HTt+4Hc6Fh7aqbO1D
m0tCzMNknYwkEjhdS8YRczm/ocvcqCqmUluRRbWqjN/Ru4JAaydMg0030WV7tSC2
zek73TYtfwXljUNT0xqBewmSKRe6lZ4EAPIVTZ7O+FFThuHMQtYJl26ZZNqkdCtb
+nYr4uX8WBmtV6z0cgLS59pr9/wslP2woGIA07Ss0N+LJnIdl32y8lMsKQfhK+ZD
UpKRs0f8JMF4czpL+OcFHgvViVRcDLH0HfQ3uZZPr7aUZm+f0mNmfm0g59AoxIMp
30lu2VDv8M0Dnlq3nVb9oDkcD5tCS/89pQjb+GsBOxaARbxSbDzN1TP6sJrRJYKi
O/Ebw1cfZE54iDjpYQsiMoPfTw1blkL/kYl9PpdbvmOSs/V/aNKYlP7lQEAPiGu3
ytIOl5xR86/fZ2HXAe0bsOvsqcURVn83c/spO8wbBihCGhHIi3La62Eh8Hlrky92
0mqFbGOJD/kCMv52K+FfilJaQ5NuAM4H9k+9WSTgkQ1DiOP5+XKawoIM9E1jchGi
zTyKTtLlmwWBSEYzMCk/MjBNTaO514kGGUVWTK41Bc3HYREbnBESi0s2iIR5+hmm
jzYb+l5b1SagtgvdD6uXLzIlPJGyOQ1b3AYAUB5pCVvA3TshDz2LkiOLdeVqM9Pd
k9V0yxXfv1Z+UnelvklzL6l/Co3yoxpMSxTOYv/B/lSyBqCzO19f7JXb4Zwd4dN5
MjfCYtsfXVWf8S1l9HyalYcZ5NyNO0kxe7hakmcg55bkzcDiZfPCKyRVNTEUmL0v
8q2/R+QyxY0bmA7G0Za4U4oXtikmt0TWI3a0JGgVxgTiNVZPQqkHyIluZWL68vOu
GEh+IMM0J/wixWdpgs5y5RpJBTOS3mXV4G4qneZPdUgUt51zHbHpskcGD6EO4uGc
hlwZXFT1C++hESvOWaqJMADfLHJmEOG//JAPW3ulgNCku5hzo+drDotJYo7/C7aI
nIYeIwjepkQrQJCuaVBaRRE28/GRoLWFzB441GiksP51b4ePHftaUFrBwjAYm6Wb
F93QRS+5GJfEkCDZRCBwJrBsbjEaoudQSzZgBNnxY/9tvHK5EzAvckzvhp8O4QmE
bkL1q3WY3p/OyfTweU5T6wi5YtjrQRDpSpAepYH8W3TGx2t+gcc7pZNj941ry5fM
T9LqRLgN90RovSc6hB3eOR8k1YCiVO0MNWl3/aVM31PCeNX7RMbRiOkgzSzOCNzp
WS45HUxxl2D+OX5aYhG9s32PVEMTbbk6O+bpamc7Hnlq4L69NQDtuTFxpJ+CWAhP
wYR16Oy8qcA3tf3E86yFn2NRcv6lPw==
=2ZWC
-----END PGP MESSAGE-----
