-----BEGIN PGP MESSAGE-----

hQEMA0xBmd614XhhAQf/WAisw8jlRG1oIUtLRO/1xupAWaQMwWtU0OoWhZ8FF6fb
KMg6utF95rggRC1MW42J5qjwU/oZ/3RVXbEbxENmlxRWbq75s4pH+6FaypcHDeax
IDhv4yxFPNNJ5ScmKmEMIYoN2pRM0duLG3s5FEzlayngJohar9Ivr0FJBnXRlQrd
7RbQiSq7mLRmZeqJ7xlD5vy1Ln5MXNK2M9U4Ln/rcokX1D9I4x4F0g///dGJftBi
dAYVI8c8DWdXOrBGUubn+Hb9mFW0O34IgKJ4fyLDMNj54M53+L9m/6dHpuRmrdhO
P2frQ06s+IFJY5v9gIdS/fn+nZ5GxNn79fhnMNnbANLAwQEsZ2+480nwdnanwvJn
lXYmoUK1RWQCqV6TmePTdcWHR/f42Wt3TgwC2sDlETcrPwGiCUx3/uI0YDuUDo2/
YnHx5acrxkZHOJIW4M5WoD6puRIYyq0PNtm258d4PKy8ztoTeoAxtqC/gVxWQExA
iag9dfXxQTHfMIfswqxYdXtsMa2EqA9zPwuKnbczOSeW9FjWzA6Q1rqn9l+DftKy
9tyWJmhDxLpN7QVgrKiIK/BAmSjtkpuOYo6MAduUL/Py+y4U1ImpZ0rejPsyXbpI
xlxEvno2pNnj54SCCu4c+0rcHMWwRr0vamNhxybkFRNXArKpCDx75eGKaOlRg+pD
jtX8cqRJxGcpVfUK2SzBJQJ3oQRpFKoyN02AG15kUjHkkH0xZwstN97sO02SCOE9
DVxstwYEBaNx5jymZOXOkTf1dvsAgOGfiSHoeJnPpS2LuOEI+gxaSVxiBNVANKra
45y4lpWD3A5ArxFUEYeozMQwSEjAp78aROHIeUmqCxpm6Jo=
=u62/
-----END PGP MESSAGE-----
