-----BEGIN PGP MESSAGE-----

hQEMA0xBmd614XhhAQf/RS37DPHZZle0SX+oLZbYwwLhcszLNheu+yWGIYPWBO7b
6ekZwel0aSCZzM5Yy5utj56GrJed9zOmdxlbD2mxS+f7l7x4nx8JsPwl/c7k34c/
ZXKXX7QMUItFNDYSzBQgSlTRAGkomDG2FhXydXCe7bsZM8q0Wzixx+0pYsd/nsTc
C6Io+l9MKA5ObYgBrBYBADSIRG3pABpWsBlsaf1rIVuT47SOs5dYoy1mrNxt8pXu
UDto3Xq+OqQBzekPnfBrAqtGguzodVO1EcMjrQfVdfjPsaDHH5gKeLCmITetltMt
hobK/z+PkUbghTfSIIFG3pincvZ3bTAtVCdkLpFc4NLA0AEGNtnZ64N5g7ryvPG2
DhvzXNBuASQqbSqCS3CNHjAagYbwrrojTU9f2zqM3jsETgxU3YNUF9s5RAKT4Xad
1CrBscZdanLqCekvTekNGyZ43Safw7FudlQPV9ZLnPUiNMxijYg49jVMfsmSt0fB
OAFxOumvBaD3u9E78Pul2ImYt4tsHUeltMve+/zPAK9NYofaaUz5v56r5dE4SkZ/
UnSXp3vQ6QSxoKc0K7BEz602THjVsA4WmeODmTFWfc26f0dkO96ixwwLJ6JOD5hf
vPJIiBbZh5PAMgKkSyuz3M9hXKSdkEF7VhFzz8WIYz8BgFAlwQVdNUYiGDS7TA89
XCzwf/ILI8rGxqZBPekT5X6IFqiIWK1i9lsamlWzojRZTReKjqBV07p0JNT24oLF
Q7SD/ADnTJS+3ic6NIEmtgaXPdTI4QFhBqxOVbfBMO+ae3kJ7ec6uSpois4m0yRb
iLP5X/Kuf0v/euXJBEOIhwcnWqp3ueIYTsEwcAXPMJIAD6pc4Or5Nz9vCbLvsPcL
lRs=
=F57M
-----END PGP MESSAGE-----
