-----BEGIN PGP MESSAGE-----

hQEMA0xBmd614XhhAQf+ObYxu30DLWrxL8hkWefb+oWr/e0w4w5cWIQoeRxqNRO8
K/jw80H6HxNrRc4bPhFxBAPk1U2Mt3+V9DEvT7bTuI64iW7ulhsUNG9jzDoD3Dfh
oR2f0UqQEkVJ00QRPKz8VtsKqzh+Optq4KA93EIQ2sWDyDwKEx4VqI2cNZxOqMoC
5wR3C4hv5jEU4mZvxi+FdXHIjE8l9tvOfEcTpAVe0ji3rKSsr6Tx0o5+mv/1YWuh
pq/P5ZCtT1vhWG67iLgnzkc7+9vQLcUzjr7RqmAuBsgrMusyokdot4YTxHC2GvSc
MOlyr03f69s1VbuARIfzP355Mvq+50ksAuvI1rJb29LpAbvQSH6NgCGnMZhhmvqx
AXMHO7rE66xD0S2C76ODAd05YSKSTM9q3Ahw5lsN58n4rty3s3dM5HNZDgGq63gd
GY/0zd2Cu5Kt/tNxzHyVLWvkLCxGCpUhH17ytGnEU+2JMyf/jwpZrgk6ymfixHja
S1KW/q7pRPywWV0+bQl4HSvhfRHEuUUN5or7is7apiuvXxAn9nT1gmyRcKl7C3oZ
rU8yKbWPoSx8ALgQEUdTP9++U3BRhu0x17iwJJf6SXAzR+gz7e8G55zIhsO+Xr4H
wF3yNC/whxkdHmDmLSGe/1O/uU4AcKkd3SghdLvMXLtyRU3h7I3LcFbqFbgkpv7w
gn6MRYimXhKM2r47H7n44qtqcto5y+VjNWMB3X+qdh23GD6MNKzMma0Y0+C+mHFW
lI6BNKmy/HZNncsUXpFq34Wc9qFYGLY3QAtmqCbQJGp6n+Kp86LJAXtrzkzPZmzZ
kQTbzY4dmEmKV2woikvoy9PPFPe1etAIpmwu1C/bXCYnMh6wvYJsMVKkw032yiZH
U1/RA2CjM2Yxg5zU+f5K4eJOPNMsPFagXpMXOq0dELP9QI7jggB2Y/ahPRDDPOX4
PphrKne51d38f7yuaZwUNABq+Jlj3ENaEdS1ULhXSPdEqkhRGyvlcJ8QsT6hhBq2
GcYOuo3ahnZKgHtzhVYzBfIHL0DnGVQkrg==
=YZaw
-----END PGP MESSAGE-----
