-----BEGIN PGP MESSAGE-----

hQEMA0xBmd614XhhAQgAsf71jaynmtpVAzsuLqUlhmgczys4/0Vss4Lo9bwW5wqR
BKPJdDa7x0sSLrRuRKeAk72t+7/qlw6vZhFaM/ZBZ/OvMzx2+VUcpioFrdAzKT6x
75KunUcIZQiXQJDcMjC8kR3p3hAsYbRyA0By5NRe+e/bFobpvXm6bv51cPifBRrJ
JuCVnyWGPHcOk3rWOBIr8UzTSgs7q/xZk2uDJTiKJTqDCO+LvIcrfCpZwQEU0uwF
p//UbLIUzvl7AIgfWqRYcselisimGME5Df2KBu94mUfGhPJ9Wt26gp4pULrzEWew
RH4Yu30V/mCf3gyKsVBPflsiL/kISm6GXr9DAcdLutLAwAFX4W4v4ZKMEP4tkHwq
ysz15i+5apuar13WoKhYQYrGG6E0kgoAMft1JdtdjjIGEFY1F4KnHtuN+cGfZNDQ
xcBKb/kyTO07/6q7ZiNcclEVcYpgLkNBrPwLPmx+IzNKgwkh2idbVLIUhXJh8MLv
iXP7mH6CQzZGvWkeXyp+Km4G/svxPMpM8e6YfqGRZE0xTsRaJsmtOtUEMic3FSB1
QBql2xSKuFzK7eT3LBdaPy/ePepDtnKJMzlqrUeetiNaSyIpw/gG1eS34YP/D5Is
Kx2NOkhg6wJzhSivaDfa0NGSIhZFCxoC15quyc1kJ9TMA8Vh+Kdn/yXuFNcxtd4i
VzMWJXShAHA8pOmSJkKGcHWvoUgyp0NjONu8yIgnuWc3ov825ch8QhgNdcJj5QHC
J/Y5kIyRui3/6tiiclrxI8Zh8nFfLYJyHFi5qtOduVS0zsRuU3+koRkZRamAvuR0
DqxjgfcjjoF8Ax3OHEPQH6o45sKQki0SWR+7P7EzwzAARw==
=M3eE
-----END PGP MESSAGE-----
