-----BEGIN PGP MESSAGE-----

hQEMA0xBmd614XhhAQf9HrsOsrCG3Fs8BwA/2L9LAGYeygr/QvFJn2VYROyKyZYT
j1tHux5mOaRZGh0IMsNI/YqJqTHEPqufkcvF4WQj94FsQaKA+uv7RSOiEa449iWW
/rK+Dp44+QyAPbOKg5cg/q9hnrVDJ/NqZT+eUdOiy80yi+8qHI2pgRrJXnTeP5g8
PgM9Z/d8a7mWnFCRV/mj021XXzVfJwIoURJWi3lpQPhFcwlaj4hyDEQG+b7c17d0
7oIP/KqhGkk119d8+JPZkcgWBSEA5kazWeLD00N/IKGSfo5OQxSF8tjrURfrzdLV
F7/jlLekcG79UahTOAMzoQVubLuAOJ49CIsLN8p4UdLpATrdhienLkEfBLRW4b4J
vGVUGUIHVsYU/wmJYlIGdLjc5ZyEJt9uRCQaoKYJRlDJfMVu8s1iYPA3VDn2umKf
axrn7IViPPTfEJV0lK/6KIOAfO6VE+LV7Efj1VZVJBTz8GGvh4MagssVO6ibrZBG
5N//RXl7LjuMmge6EUw2wA/KFG4sPKmvzDaGnk7ZFBuH5Y/a2QugnK/mH2L3aB9H
RTgtfJdkZ7G6AYJbYH/11q9eHq+W6Iop8EOzk5swom1Ar9xSG1sMMwL2B/XsUGwv
o8H+L3AsSV7H28XRoaBFU5ZKV9r5vCEvbZcT+VSmYQRbLbNtRFKtEMGduTNN+Ud3
uVPLf9w72UZrNCeDt+jdBqAhW1FPFr+QOt2ac8qVsqhW+Xu5j22YOodISxgfBK3m
eGJ66LbEy+o+NMm92s2oa41ArCCQu+vapeipkLfUJsdlJYMqR6UxaIuyWtupokDW
EhL/2qDX84PmUvh2d0a73PV6kEqbT8XEhHqxyBTLC9xYgP+xle+SNkuCJsPyHRhv
ekq35kWbkt8rfQgCLZV1FAY7C0zQGPODpekNSabX2e0Gb2aenPTlKBduXYwMKPzE
fyv7uQcRYM0mlD00DdC8wKqrQi5/iniyLarpg2Ac3PvJLAzo+TnIaljjm0ChkEfH
rvuQB7S+zgUMVGlgxuk3glnAqJb1ML4AUcTZAQgjqHos0XB0yA63BS5DY3nYa4O+
zeRpZt6vGnZKhl29mOGPDxvfQGVlHY3g3VB2VyijIkJVDjlMLg6xwA/2jI/8tb1Y
0LrdLrbOsUnqtt5XCPZUHCuchyN7Btj9vf1JwDEudCl/Ocj/+0EmYxRpVCKsbCi+
O8HAUMImZgJPTb6FFSlHPIqfPDw26p2qKLF6fmPRC+3PF1z7l9s+KtJdE1YJ6aLU
3WoT4CxpmuFjJ6VO0dHbfawFBUc6tIAXdN17GdzEIyiqYtjctfujaqay4O0afE7f
ebxf+GB+EIhBrpjCVtZwyEgXIvsevxdFdDmGdx7fxxBtRRNxez4oOdTgfpVZu3Wm
JKbJXVWcbGQGB9Ufh1eHNGY/MRTyjsJs4le2bjYZA5E0Z4MRvOxeY+UWu6konsxR
2AXVKZWH2/mIHnWGTtgwY1fNzwuHlJzsOF6hfY4bYsje8j0caNjRrWfMuw==
=3wf+
-----END PGP MESSAGE-----
