-----BEGIN PGP MESSAGE-----

hQEMA0xBmd614XhhAQf8DAheNopEpaEdoOnwtsS4LbyQXCrOdbBFsDBUdoto0pje
Ne8t1bpZjnouijDVbHxzFLa0SLeR5jtTkY+XdmYTd2paFnvBMES0e4ZY6fn3BbV6
nVFIRKusra+JTmzdeqg9IKAcr1QSc6MrsrkpirwXEHpleSZczBinzr6I86wSxYMD
mKX56B1sjZCNt5pmiAcRG5cjUqvHqLt0qjfmKyOjwcC1YkoDMbKLOZpeUc2d99a/
Rtz3KaNL+d9N49CD3nYSdBCxXXPmPgLMh2zBkC7blRa1dFuLJjuYmK2vsVH3D8Y0
oSuwQLx68u0KmzU7TVSwQ8pBEq+uittnywOEHkYMxdLAzQGI33dwJ+syDgfOhTzs
OAgapPdPuiZz1j6ruB0QScQWmsQyZv1yI35RLRk/fN374iJwykajq23+1qacQxop
ridupo2MzEpKWJK49Vr+j0okYxGrTAKeV3PPg7KPM0ZNbfrPLpFbfhdFU/EHAJbI
XEPdZzbz/gzlpAeT6g+JujLehTNqMCgmhPgFKV3XJqYHcRXgNjydNfe+t4o04kUq
N9k8fglEN+IT0QbeZmxUE9N5Jcjr2pmcFeS7EQxERUWv1KIs8+agnvAjkJ7pasHH
QZPJiqGzqiNdFSLDyA8+XDnoWjEz91cC0FUk43PAG0HpzZ08Aruec0uc7ueFDJrh
90vmxaoCtvJ0nQLMt6v7om9VDVmNiTfpPGeDJ0rUydJQl69p1Zg+K6qn1zKYwZeB
ftLNg8mm7Gp00KkZ7Yf8EKnRWWwMXyFG55ZMBG0kkk4fKuiHubOauY7eJzJd65Lp
VuLgW/R4AF58gJ4UbNc136fBjDbpR71sy05YtFEBqG+Lf5CgsR21PZz3GjI1drw=
=ld8t
-----END PGP MESSAGE-----
