-----BEGIN PGP MESSAGE-----

hQEMA0xBmd614XhhAQgAjrfdFrKU2vtyPUJY/B4S20uukJ/4aEtAav8lDt6+LTNZ
66ijIFsUkMFZTb2bT1r6YtAGQzX7EvGqhk1ODWhRbPie44t8yPvjjUdDfrWnzlr4
cpNX1z6gZ7uJyCedPfAxAuoZbwWrEcF3I/OVEr8KRKIKPSGg0DrzP85dK0C4iK6r
VpAeu8v/f8BmdpVt7sGz3bD58331k+o+JBksWOarMqECilaztcXNvIln/eErg8zi
Pi31NsBxfZaVjHWWic7OKMWsohKZ/eBJTXUsmd3YmXtSXvBCfUGpt8/tXxZXf75n
YxfpDz6vMfP2xhs4YK9cnT9lpHQqsMwQjgDIckXHDNLpAbOpAukW7CfOudXpkpuM
0Bb9sFeWSfdGpDUfyTzMGs/w00gHZhla+InV9W+vWwe6qBfYUM3lczZxT5Y2Wv1/
9N/x9FzWT/0mGslAbEWUOXflKjPzpE13OdTjXSd3p2iplBUg04/vYQHx452lsVI8
SiikRfuVVqv9y3P0XeQsCgO8n0w+YYW8I1gMpGObh0/ql2S4vMovS4BBU0NAPIeo
ljW2LGQdvLa7/9eIWmcj4TH3EdULI9mCw+C0h7X7769DpL1rKSQz1tVaKBItSK1f
TTg1d7YKhevw/KDbRVhdQrjbQo675FgpWbkQlobIzpWgUaZoD7/9g+kLPuYcGDWt
dn+mP6+zLF7hoY9m+hx5uqTZOdxFQWnM46x4nIlk/o02VO0GFgfOiUzzPVuiizVc
0xNkGoCTR19jLFk2u50i4s3alk3YIcRfP7TcMPDC8FcDhTUO52eIBpsq/xkSbKBM
omoj+f6+v2YnPce9smyRab86CqxPMzr8NJlSq+wujKVkCQ9YnHsqEik+BetDvo2B
aTglk84/Ed15wNJQ/6eDPyna8q8PYpSfFAryKUR9TwR/Q8lsVCx/t3uI3nRXO6zs
LQv5kB9sPci5Cz2ykoDUhOZp1fp+99/z2fvbVK6GOrTR9y+WRpquw3adoirN8I3F
piJt3KDXBbsUQFYPZbgpcplKO1JCXM5bWKRK0TO42h+mfsbdkSqt+zi/hV2jOPlw
UsusBk5ve10F4qpQ3owkeHWSS1d8Prvr6b/kEPPRC0pQBQwn8NoylU4047Y=
=DFYK
-----END PGP MESSAGE-----
