-----BEGIN PGP MESSAGE-----

hQEMA0xBmd614XhhAQf/e0+FjBkPtEe5vTys7EAoQ/thnYvaQgrX/ztzvX99X1/q
O/WnRHjaVTZgw7tCGnykrbJ21fLDSgTen8rUW/Tg9sBGwp7maD/mSpbTbDboH3n0
UhW/PEvE2DwdA54mqUZzOXFbN0fuU269Rv9//OUKLSYjQbJQUG58RJ9K1moenePa
IRpb1WvZLOrFl3gT9r/292svYvvkzW6xQnf4REoXnk1GsIYpNfhSCSpAsfDYIxvc
8j3hA2ASWO9v8ND3oFyPzCHqkP2J1Ko5OvB7gNVohwBOOleIzlPQIznnl3U/aZnM
fBDVq8U17Am/rLv/3GI3TIHRZ8mneIWirz6NdLo8/NLBDAEHwW4FgXt5jDWgDtpQ
4llim74LohHcmsiJXBKjmGAftvmh0qnj/QLIs1QN08f+0r17fynUg6CFzvD6oZnn
geOpZJiy3uFH9QqGLLU0YRPC8eV2E/cT/QV7/CQ9++3OwW+2SW/HLeBod2ClelnD
bAAXCsNPxI39L03lpgWV4XZ0CwAQhbevTknVog1Wu9BUM3nP7V0u5+j0wIh8MEpn
2FV0xVOYFCg7egykJW3P4FOfaW+sSqQwANUBHZGhIAJHJCuh/0P9tvmpzzIiSq9O
FwBCi8TRoPzcsceODPto60q+KRgMW5Ml7+ArTu9kGvhzvPvHhnFOeWRgXyTf04zX
in0BQuPsuiA+yH9mlRNmkK2gR7T/vanA5IFZ4x3NEeB+VNLkQN9Ic8TjujHWzv4+
wymRP+vuuk5K7qCG/ckVlTNWK9WO0RPMu+OgS5WeSc/qQypFstfieHNlQlpwk7+n
JRDEgW4L7HohhvgR47v/XflL0XPm7TikwRrpD0ObLh8FP19TnQ5lH16wpcJS0xtf
6WvH8/jiSQVUIL+RD6mfdQqWzsMFKEJRkFFwKYF4zNl0mh8oY2U5NSmtPChsyQM8
TpW4AtkXLthxNsmDmrs=
=uqrq
-----END PGP MESSAGE-----
