-----BEGIN PGP MESSAGE-----

hQEMA0xBmd614XhhAQf8DPzDfbemq+tomq2DVHzq5baDYPEUqZ3vv8BVKR+tGPk+
8s7BwqXxKW55XHW7uOH5bnQa/ylYchI8kYzVLmHOg6pX12olJoTs6b4hIlLYxvPE
GxpMxIm/O17k7FQ3wQ8A93z7HV3ZbT+uIIP2UDX2jqO4y2IeU8WpFQIiXlAbGuDX
/NgEoS03V4QibLPHlZEk56m3PULv0BTERmQ3UJK3p4mI0B6hweJTBWvoxfwildNM
6HOJmYDiAmv3qKEwSIluMgxorCWTr+lR/TB65UrhEv8hXA8s063sbRyJwBJibKx2
pnLDd50VrcypbzY1eSVhH6iKG9/uQatFBGVFD3UnNNLA+AEfzmWAwQz63x+SE8Au
LfkeZZQLIvP+DpF9vYXvuelJxB1yGKdSkw1gQAdF4RUTZ9FZp8xlnKwkHwDiFyrd
E4kAeGX4pb+edXHYSieibCCXqUzUYhmZQVTkx89sOu2AENIR7e17zP6Jp+nog1Jz
VIn6h/xKOZ2rnzMhJk18uePAEXjvm57oqE4pu4XI+wucL6+chH/rvJk2R/0wIXsx
MoPLrciRJqnAza2aErn496MPI+0SAs7oqRZeOL8VZm4YbKzYK4ge0byEpPgj9BVg
UgNg3FTojKuC97oKCRd3oqi91UJgN+ILgAdbdNRuwcaSU6+Ufs4ASz+bQfCWGZe0
PwtMoJw3ATzZRxZm2KYPP2CRcufZuOZQ5+Hgkjn0LbXH3V67l22q4yygDkk0kN+h
AUthzxU7ZfZpykbr/4vCq/ee00JM21G5qpHRFXGVFl7Ht3Ivi9HaWpT7dS1Dhdrp
PNCD17MRaXLXKFf2oTvHAD/CJM11QsUWSqDF0r+D/34WB8tetMcYIZTXOeiX/Klo
de7XwiJWibWP/4k1eAHTnppN6YQZQ3xrcadpUlkrPWyUAktp/MnTCWti
=bIaz
-----END PGP MESSAGE-----
