-----BEGIN PGP MESSAGE-----

hQEMA0xBmd614XhhAQf/bZJr16e2z7jspMb9y7R57qt+Uo3J01ym+ABK5jZzL02e
lZb/GrqM7cKbM54z5MV4/xBKD8j7zvNmEBH+kEhPbdjeE8ucNj2VRH+wFzt1BXzf
rqimxEA48n0Yy5FdLMDZK03ctqXpmKnArP2+fA1ozELCwkxvan+QqhhBD4uPK5u3
ECdrUNyznqLXtciQeOy2YemKymbixqdIoVLBh2mWOoZXE7pdOjTypvbXdt9V7G06
NWn74A7WFsn8ROc4C9VW1gdLNZkTBCLECdwR+dJvknI0w9WJLU9UN7ZEvp426PVF
MMHC3CNhY2pn/joSUPrWVBVj+v7lUbcOw5NM8rAHuNLpAamuI1WR/9boosAAi1ZD
R1LU/epFtQjyl5M6sr7bJzy15+WTzcV2Zr1MhCSukMxbCyKV6F9i9Q5I/3qshsUq
62iRhFlChSZQH1TV7OczquHtdPWZ8pSlJb2Rk6yZ7NxWYqpIh+AU9Qu+h0yP3Cxq
lCFDLBR9S+CfFwd9CPhz4NnhggxLnvvhtoxmalyyqLecz82AKAtVObirQnzIlhZn
DoyILnm0OulYF3sZvbAS3Lqn3QSvyEMxo7QUBYvQknYipzcs6oJkfW1QWouH4ptu
6VwgHXlvo3e3hEO/kzfG4TKUcpB06wz/s4ahVlPMIdlO2einU9JY2yl6PXDKHSfd
0bPNNKsB3A/AIHihZhMFJmsPt9jn7BFYuU7Lfxb81Z6b7UDptufim6MvLnDqkgqo
8xLJjoxZdboMGFD7Bz4VT13AvjeRJkBxEapAlK6HMYxg+IXk9j4oiKWD0n0vid6P
wqfRbWuxi4wJZwtmAp+acCA0v9eexeapga5/H/92Fh49R2GTdTJ0rOwOwD6e9bRr
wer1lR+PUVAeSzFmCZjTEokhqaSFWc1oktsQh/rT6wksnVv7da8T/1z7Pn2orapE
yprjJoDz3TmrwivBlMJd2LyiiBpokne/xrx9bSlIH/UCWHZIzIzy7NZ/bPFjx7my
sYWlBeRg1HPJk+2NGCRVMHdtLByML88hlQyTnjrScDoMvANsDuqe+TQ5oejjjAjw
xG8REHAKrOB4ec1/54rYEiy8otfPAZbgazbSo6jox28NqLREIz6d6EOAfyQCDr00
nGk3Eod9Ck5RyjzJmf7r2dDcZQu/OwFv5/MIFRVLhw==
=VJbf
-----END PGP MESSAGE-----
