-----BEGIN PGP MESSAGE-----

hQEMA0xBmd614XhhAQf/ZgNcPzzb1XqW0uImLYsYSRW0MJpAktPc34/2H348AvB5
Bcwoj9mnm7TbCeGwz7iXJiU+vsn3XEFyk2xYyH8m7Dylo+DY2Ww9nwHiSgwNhLXm
ev74a8P4na9IgOp9jO0TbXZXRdYOmxld7+M8H0BG0sDjqEZgQskJnGuLcY+rsOpX
banlWzw5rQC1Vms0c2JeGa9DW4nAiq6qD3z8Wa4olz9mzVTCUfPZ9++4koFAKTTP
aHWgj6SMajkQA1yNFMqn8u3mfSuL6Xpm2gGDExw6hGt+m9nbVBqj1sif6ev9p/W9
J3L2QS++IlIEs4DQ+kMFFyEl8rGrDza8yrjrKAGy69LBMQFamDK6fZnvnR2Awbat
9IUpLGwUZMSpeWAp4cad15Yk97WjKoNuFPIrsnqiCyYCmxltfYloINQSBV27wo9H
zJk4P68kczQ81Q/S61lCgp0pd9vaRuTQENzQEwxcXErGSw1NsI9ml8wp55w9yJbe
0oF70ziNv6fz8uEZFvc1j3mnoiif/+QTN/2B2ckivCsTR4c2dln4KAzDAmAOfaSZ
cflPbFvwC5+JBgeOutsT5u1w3KEBjE1cJBaeYKvu15D3Pm+34kiHvJMjCijPMq/r
ozc9IL7W1tfryzniyCW0bBiwytE8D12ZbwVZM4LBUclrsz+T4YIwI8OEXk2vk4NK
BRzpjOpuNtTJBCvkjKqb9mk5/TlZGoRhil8PECRoDcgEjN8WUtJvU2Rxh0ruraKO
TSB0saGTV2YioITLxlanh9uBvQDTXHt/fzMIkhrg3amlhW3xKjUqpCqPALtINXV2
woeDZUOLjL7in5crdZmuaNIs+Mph5bh3IH2YiNLxoO6N5RuPkhM09RhZG/p5VhGN
A7jyVPJqGRM1bu7V2Pn/7sfAI/dr9XR13u8g5p6mBzobQLOw9BRjryDgdHAi/AAO
YrD0Hrz9Sx1upS7Hsx7SzBnxmb3tieLHkzj2Bmj9MEsJ9yiV/jEz71VZkCxDp1SD
2PmA
=IiJG
-----END PGP MESSAGE-----
