-----BEGIN PGP MESSAGE-----

hQEMA0xBmd614XhhAQgAg9o9oPZ59vwNktqEEkUaHsclox5cor8M3VxupaxyrtvV
p8Lk5r77xeKTmLXEBxVA68bo0Rc0Cg36doKn9u8PMVP9NelcOwfoylAaxcGFXIHD
3zRvzv20wJ8kgrWypseTJ8XyJs7OlK40Oi/zqvhkUYRga4gD8M97EHV0J1tIg4gD
GkscZ+ctYimNfmEJqdzQb7phcOd9zXqM1eUlEJdA6+ILpY+Ek9YPAQRXLu7PoBCG
/7AwgHtHA09L+tVx+EarsICTprsQgzymFFQufxpmG6i6q3ub34itu6qlTdU+9SG8
UiRvcGyWSZW5AJErZzZUwBwMZoZR0/1S1JseH+9RutLpAfwGdrs/X8uVTNrbPIHe
XnyaBbJ6fRGiEi5ltB/6kuotxmJRMHJeHsYSZe0AUrkOQ+tCy1a4xreS0PR2te44
QotbJqUlX05q87qVcXYh7IwQRyEFrckf46Tz6HGSzUBPL+8ENvGPKHvb28tb/uRb
5IerToK+R5gFZdAaa60HALh8r3XtKv40cGuoug0NOpVsjgqUuVoYQIAkGqgoiu37
P2GYQdH3BL27KmiVMJWG37IZ/RR42ajdZPH5txshBe+4zn9X6Q0Kq801E+xfuLdk
u6oWakyCG3bwaxj7BPLe6VQ3nhAYERWTplkk21ofH3Jq1k9hYHlLd+wo4R0MhlRo
VpMisOHRbaOMcqRB0reH+reAP848wCTXyGE8aB8jkVmxczebXYAq4fiGfij/CmJr
NeXbzCCmQkfCasLGNZy4EEjuTilQCsZE4qQHrTJI4Q4DPZxcIUHQq1m9OEXJgnW8
/7NufBnfgaS9ayH9wN1Mun4jPlKu9dI7WXegpyJ6yGk+KikP2J41dqYlNOsilbP2
v1GQJIbsxshv/Gd0V7WmCNEZhYcMNsMA/Qi/Bt6ZWvvBGE6brZVhePPqnZirqTYK
sIIb2WxTeYua8iJYyjOcnuDnMl07YqedMWTUmE87bF//9JHkzYY0ALWLsy6GGrZT
xy+bEVbSv98oJG48PT/DP4IC+B8=
=wU2d
-----END PGP MESSAGE-----
