-----BEGIN PGP MESSAGE-----

hQEMA0xBmd614XhhAQf+OLC8tcTCrZi2xHW7WZa6MOl4aYEslJ2Q0Co6tXY72/lG
oG9OgBECaSKVSY0U9YA9hrSQlecM6QoWTWOZfGFy3vh9XFoySQPcbwzwf/YG/dWG
pcCwwr9fO9i2JXpHjeohFag10Gfa7DyQTBy0OkVPyqS3QjKEWSA6l7Bn/DlrVdUM
M5xXzRLD9Is5NwKWZWlsOKlJyQwIIz9tNJ267HQ/1Lra5Z5qbOAtAmjWrWfHbw7h
qn0AWRpPY0a2hkBpgxA2GeGNfe3wkW2pd2jtUou0m2QWtUt18Q25aU18gdlw41CU
JleE4zOdso+5zBzPUn6oZ6Hhxpm/kQWJ9dCJUXd2wNLA7QFTo6ViDN/QU83VY2Av
bxHcpgASFLbutX3wSo47fPcY1FSdb5BIkL5RcQkgE7c1DDp6Kk0zWYMK25zu21+j
jt0hO/hprDhbQwy6n3V/DwwForSBehJs4hT7HbzgqJ12v7AnXjBFYFQSX0ArbCWF
1DB6bY3IteolkKiAzpmepoQ3rxapUknsuPPl3MpecLS6rXth1+W6IsbRkNf6sUXR
Tx3Qxrl0KiuKv3CcfhpBOmJ7XvAFBHakvyIwcRrxgX/4U49PpyiuJF+P6iJos8vp
cg5fa8Ytsr8mH7L95syXY7mq2+9Xo3t2hXPOJt5BYt2Aq+HJu4RQLTwcSLaJKano
oMwePEbxkFQMLAFZgOY7u+gMuXIYaqc5QCMnGbXSvTlVgCdw0pxjWjadsaanAi/+
JFHSPQY9OUNsdYAiESdCM1UEMY8jtibHsyoPMEb9sAwD/4OcjKQ3UQ311cUK8v7Y
fNw13nyaw2mIEpU8kRgFyfj588yTUF5mWlZPnyPG/+SbBltCyMojcz5Scr0n4u3E
GW5ofHZSvbcG6lk5QriYuDnq0ZxSjsZDpP+7ZfLOTQ==
=/T3w
-----END PGP MESSAGE-----
