-----BEGIN PGP MESSAGE-----

hQEMA0xBmd614XhhAQgAprXfn6o0GHKvfNihdJXQ2PFmIiUTdmj+hQbLNb0jm/GL
w2NtLikuN59mozQwNINE/Lbya6mhiB1XHj2VrnLCmCTO62LYiDIq/DLEwAlZq1E4
zkrgvz4+fY7sLqu0yYn2BDfn5PthpGrRIOmefN+gtI2XYr9uT4T/Jqtc6qXCcbnp
ZQCtuIDTISao6bC0WWFqkKQJf+faQNxR0k7jxHcdOTGPDIgeQb8F7oROpVSZr1N1
T/1fJc3+nbgGBi3ayq/N0uxOqr0AD27Y/F3YGc4Fy/DezlK3YftsUiLyX2+gYXqO
Z8/G4ZOZw0TTU/gAnTCsCZz5Mk+ZJFnea3hd5/bpw9LAzQGyrIVsShwHZHo+017o
qXSYxpKyMG5tOlWthzhf2q1Z6lmG5HHl2KRkfF7spUy9JtbOdi/Ni+vASO6w66Mc
McSso09vCZtRCGm3W5keF09XdJjgCnCuEnS2bLpclDEgLPOcpmMCGvLiLxF1FqP4
eNKuHcBhnv94zwqr0JqMt6tgvsMDEAW3r1+GGZbBoKc96nMWz1YNPIg6lt8laE3k
tf3uBfJsGUX0N/yjBo//I1tYmbiPwz+PXxUq8Lj99fnm+Cw4ob9o/QPHpdVOrrDf
VDRsu0u9ajF/DflDjsFVkW2IkA1AqZl92lSoQ2oSNP79l6Do84KeRSHvs7r8ARUm
kBfI5kHm/moweS7DQxPMVEHk7zqgtgVGKpy/zsP6BRszBdIwNZMOYFui+xLz4HoT
zVj25OQ2WZEOK1P/Cu9Zj6/0YKgtLHFq29ISTSJbtHR/cFEQn+Lb05CqsGVBwwxk
uAeiXnUM54RR7OwQaXAA+BiLTuRGYNzNY5xJmUlGeWyJTsFyTsq0a1eGbeR6xrk=
=2UY4
-----END PGP MESSAGE-----
