-----BEGIN PGP MESSAGE-----

hQEMA0xBmd614XhhAQgAxjeHxPm6SkRHjB4uBXS6I7zgkhgxh7M+/Kbs09Ybboly
IFubXzcttVduuxmEPkq/TRisgFph4AzwPTKQVgMuh+/NcvTgAGSqnD2x8bvxjbnB
qlYFUm/lp+BPZWmiudGKEFAkChA92EvLc7xg7MqRxQiXDK+/nVzeLCp7k5rrKCcS
ao9C3K9KIskqf+zJnMl4OKnYo6jWefTmMRZdfEwFOu4E0gmtBddpA3DzmtXEwS6W
JyWIypZdAruUfqc7MHDzZy0Kh5sl6qMJhdvuIRZLDEH/s6mrrqMVGottnFaSUCCG
myA/S/II6fWJazL/gSJhZN8ERd0LGuJxwlR7C4lKLNLpAZWTW0MEeb/V63G7GU7k
D+DeaMo4pqNlKT0meK39KX/oId3ZzAaSDkdaJxnVN4SXvl9hVGMsO/6D6S7g4IR7
6cqKMkosy1BNbhrSs6dIYWD0OknTQ1SLUfpbN/r3ZtHldOBDkh4SHugtvdDp8IHs
3IpjONx6OrWkn9oRx63MFQx7Ytz0Pz0kwX2fJMklDsoYtez7heuEPYwM3bUyBtaX
edx34whION3bVOK8QUX3QF0h1t3izAUgDWzWwb0JtwRM0nlEb+lLQP2nvhDMgmBU
1sQEGzuE26/Pmydbc2PbDgh7549K/IR07isRil1nzOy+zoMtmtgyqLDwHd8ZvQe5
V56cUfsHfGB54GvJ9xt4fu4xigaTlS9iTkasS6/1OESDTdsjWKlaJ9RIknApcne0
uQ1Tdeh5DQK1V69ojqklrWV0TPJr4pxUeXvFVYeLT6eBswQpWTHrjqGvfxrJvTD5
Al3u4JEBgOXSob+1GUVFBftti5XuBm12tLIBjtSIfMr6TsbUDj4pruxZAGNvGnyQ
QwgXYNDH02cJPo+IVEbM76gAZdb/cu5bmzajOhfGOGRQKSLZvF+KQlQNsYl3HSb/
/S+ZkaGd5x+CMbeOWxdarjkyRErh1WKCXG/rIcv6amAExlA/Ls+ac+YR67Yyfvi9
YATLFOttmAn4I7J68TB+I5cPcaVg5gpTIdx2W8FdmLTF
=Qv7R
-----END PGP MESSAGE-----
