-----BEGIN PGP MESSAGE-----

hQEMA0xBmd614XhhAQf/XkzbzGnIncXAClQ14yLo1FCtY0qRJiAwmNMyoTkLLObM
+or24CDAUn3dXy51WAnSgXBbLBw2Vi5GSoOow59cgndsllvTGj0OBO0knwfBTzF1
4vtbaIA/nKLmEWOy/VR7sm+Sa7ROo+ka3sxCq2ePMrd2EAuvjc7n91uVQd9fqLmE
TgXwDf7RFcr1DdU9NLyWIRYBx22ZSLO7F5QcY/so2f+Av//A4Pbfh78XpB/ld74t
sP062VuSNvf/4VUp8f0/6287S8e22S4/cQAnJv+53wuu7HT3gXqcN+Derj7Ndrck
cy79+F7makEUOtzLbUoGgQDws4EGgHf44AWY1qiak9LA5AE6xxPmWUIyJ6gOUpAZ
xVvgNV7lOm886imOMBdfpjUCgEPed3ix+d86QgE+jpjuShbAUpZmk1iaCp0AraSx
/TYRi//kRG1ohj387kURK3uCdqKgtq6cZvkUQypnK6/mduFZnZ7ZbdOM5fUQN1yU
PoTTntOH6kfImEPJuJTuEKLhFwoVbGCKnznOPi1y/lhXgzrFq4jwJOUhsUxqyp+P
qSHNrmPSMX9cHMEQDomgXZxTPq48TGIJWExrSpZPfsrFsnL+aUUOGii2qrYi2jJx
WiUVnQq7EofEUpL9G2ExkLseHN8N0PqvmN2B6TcUHC3ez7WiN2UxsHLUrpDsibE7
U2+PN36BCRNduz9fWu9ZMLhejjIf1ECqwKlb3Cj2Aj2q4s6lTtGfDaNiHFzddxw3
97VMpgJHDmBUgbDtiFHmb/cXWhnoZOB6tupXpmFjrcV9lwdjRZajKOsEUIN/MiXa
0bY4xu8TT5WsioU8fvHSVt7zagiz9WueTNUVvldyffjOAR/V8yRW5xINHDnNAsrt
73KABwHmo3+lAXF5OxNjxa9yMHOEyw==
=A8xd
-----END PGP MESSAGE-----
