-----BEGIN PGP MESSAGE-----

hQEMA0xBmd614XhhAQgAw9Lahe44G4I2m5FqwFZX+1zNWc8jVZENGP/VKPk4hf/D
PEkpbxcWpTvifzXjpJFH8hKQswrjxPc3EfOgEEXjAjiIcxFms5XdSl3EL8Cnk+ZU
KBd8LSlWiAaKsiicLQxhvyVX5mvzt9DMDKNdDCBadSmUmReDEnUr3MObyHrJUWNT
Yeo4BkIT2+mq4k7TXvEMXXGx0QlnF+SvEf4dOUR/kHv0zi8Kwbs6BjwdfcuGOlon
cSqFVg2P7WwXEnjA9Xm6Qw8KFWr04m96D0BP7FGfypX6LmGqAobk12CeL51IOueG
TTIt1/5oMg6H1CCDxYXADYH8RjbCCa+BcvpfSe6ontLpAfeFBBnf7vvsQ7ln/mzc
qeYrEof1rain7Lrqv0R6cQ91hE9xkbqZqHWeAeFlr5XMW6aks6p2eND03kt2T1Gt
8tOSHW0ZQ7gH7xPMRkSojzZtWGkKx1nHB5nRqxvOXvPY6uZB6lUBWUFfPI1UauZI
XMBnhHj1Dnbl3sIovKbOo6oI2Tzu3ofcTUts7Mre3Ckh7Zzbgb+XKwbpoR14PMmN
iFbDdLkPbDCApl8XTjUN9pcASLkhsWT3/8wvoBt2AEbnHc4b7LALvV67iW6rLgER
cciCxkCU4QmFac3v/9je5C5NlZYzKiwEqL1skbGj2iWOyD+e5i6ye8u+PjNJNbHp
FbqAsOig55ao3lKFifBXwvGkD0MlCeffVflm7eznpuAnTCekXLean1epQ07JMIsN
QoLiKifCEqtuKaqzdtwe0QvUNsHvaBHFxg2EMakQzz04CTg2d4hfG8sODFq0Ptm0
x04juqLjNDS2MOaefXhvZhABlBGgc7g/n3V4vozUmdFzj78PnJLfvrYKb4/wfZX9
++VxIeBZQ7yCpDbsgF3wyG3uAoe4+MGm8+UF2C6nJUJLHEb+nzbRI6kn7OwcGerA
ZdAHYkMopdZZUZpPCfSOd25kOzW2RG25c6RHxfZL9MI/20/1RwUvHZRvTzpkP5N7
Neuv6JMs8aBv1c8BsSY87Pm7V3XejSD7YcAlHoGXXaPNEFwKTk1xm2t66dBXwE0i
hWkvyDlvJxmL22HdyEBmY2qPZzxWopw4yVYROyjV7UEY/e/TjoZp5NtpoZWb1LeL
iqgJXG8h6E1DTC9XlYbNxr+eHXSFokNkX1i0yklihclXiGxi3J8kP7i2nx/U86lG
Vc6TQvpowgVgpJ6jDD97yEAZDfpA/nT0kXw0VpxP63BBH/nYhRehpsEm9Brigxbk
guTt4C/vYQl2l6yS1Q==
=/V0a
-----END PGP MESSAGE-----
