-----BEGIN PGP MESSAGE-----

hQEMA0xBmd614XhhAQgA4ux0YqH3sfrlthNSkrnvJaVxTyJzUAlWt+aonX9+Sdwo
/aSgxdBQz2iPNv+EQDB5ana8jH2lci+90iHeWdA/0r0LPUFO/INaLODwVS+GS4e+
pvSDiAemyquEZXf0WwKLxkAu666mA17XvpXahq6iOLvAFkv0p3Cy8h3mCFHAosIg
XFbRC0Z2/qcQbGutuIE1CYnXXI0yfI6vHqxUUjn4km8/sjJXzHzgwJ0uPFiZhRvc
umGEQLhsYYjA0KOIVy1Up8ZGhhsxslPmFBajsYV0rRaSgKJ/rfaTdeWhr2ModRwE
/KXZf25boUWUHwYpZYG3D5FAUuZPD7qLotQlJAG0kNLpAWoRMNnjNhRRYzTkKrGd
ec3GpBMFgi3OjTztPmQ8k/U/QmT8lmciHI2qc5AuVi3g5jqgzyuhAn1W5ElIXAFg
KnocchDjrOTDcjRsVGFQKMVR+jo+iBcm4hsU8+3e9gEzd9MRoyZKMpZ9S15iuKQT
6bl4XWdR3reuDCkITiIsL/37pYWnbFicrla5tf3JQLG2tinvZdys2g7cLo30Maf8
zKXia8hdMBaERL3Fyone+EkuYjAvaSwFYWpkxITURV2Nnd36QYLMBs9ozeUxGQGW
hRlxbWUhq5Rs1ZzSttPR6VrgOt77Gcwq7YZTzKKmlqCHf91TcvtGTRNVJuyeDTrs
FFQs/gKkqGz7Khf6Tyk8YYwppKOJxoVfdGZ4nIDpX9VzqEfyVjWo5U+zBQVpREZI
AHsN4Nv5F9PvW7KF1QvZvae4yR2vhq7Mm20MPfDKcHJdKm0YEwM4sPpT0LgBB4To
JbeQ9HgzkSOIAu/RKQYv9auC3qowyQRAL/RLsocwC7kNJLjEZtUeJnaKEhtenTsf
SfRP9MpJ10EYmaHtYcNq7Kpm0+gc1z7XpMSG8OdWvY7gZuSmEBq19m/YSjjWy9pb
k+r4Px5dVr+tfeXYxdHTdmE9/B6oW6WhUhzaXnheqNbzrwA9m60ML+fC0gJWn87s
yPi4lVf26y5/m9uuFQyJkG4gObLtOxdjjM5olFA4n5ofb8I/c1IW7G2QZrGHmNIW
C/c=
=lbRx
-----END PGP MESSAGE-----
