-----BEGIN PGP MESSAGE-----

hQEMA0xBmd614XhhAQf/Xiid9PNnHQ1CfdMlTJuAuAwvPHQZ+nhcYCogzV7QBHRn
+F95mu/20MjpPXuh5LHJV/LsYEonDNwzUSeJoGeb02qOJn9p0VEW8X+lzcw9U7rn
8Ymr1GvQw+UWwHpf8IykdAgihf5/qIPIyDJ5G2RxIQY838by5lnGRwcNKLjMhNRZ
ZQBJtqFU/hmv7oi4c2lmFCgWL8CGB/VHOli0pTZyoN6pyauRWOTZBlC4vL3vfdLO
Pl03zvnWacsIlGxS0+s8CayiNl2sFENRWVWa+MJ1ZmyQ8zP3knbQonvWXOAiMma/
4mRPiNRvauc+tRSUanu1yTmmTvBVV/309BRuGOie9NLBJgFS/CAXbgBJX7QpbpXH
/Hq6O/lhBZsUvcagH7dmlQmCpMii/uOmNTf1t5bRc3iUXwny57+D+6V2YvuGa2Xm
pqS2//VmfP+RpSZ6bs5vrUhnSADHNSaAeMSTXagSOVo+oU+Hfgt2728BoF9ba8tz
8Mmz4nrrpT6XbllsSamvPgXE8VF3VwTF67Oh9pyC3XbpKD6YY0HMCx9wqHjJlOxo
DkrWbpgohENbhrgeRBPLbLqKfFk7gWMA9UI0O33fu5pJStE105u+MnxPo+ukXWh9
rYrC1rcjvZapl69j39CQbxESOgQpajMC6UbpkQ54Px9gdXdgx1xHyLWpObmrFq58
s0tdq5Z2Dl6+laxYRTDsPSdZ4QJg71mLCcMrh4ak7S+T0XECAz4H4xJy0hXxCM15
6ebc7RjM7dl4ZUFGJvt9zyg5v26zHuYDYv5x9a+WKXkiIjTttd2NVZMnnKqisnDn
pfCuBSue71Xlc5lidXexPMEdVGdGMugqB/UJ73BVewV0stuGIXxv5wR7cBd3ItsU
wsFxa++7hxEPcb24v1vai2TkKjEsSFf8xQY7E87rZTTqewNTc1P+NAlU/+wjv/5h
XaW29bZMMHoayFB1lBqvsoxOaDB8JlXV01Nm5CeUH+nlrL1MQOYCiA==
=yVwT
-----END PGP MESSAGE-----
