-----BEGIN PGP MESSAGE-----

hQEMA0xBmd614XhhAQgA4/G+iq/vWBSpQK2sxZeZjGIqbc3mT6sCcw6BV2Rd7Gat
fkpiAvhvc1u6IlzFFsGxpMA1F9aqaP1kvlZQjYmHY1fpkakieLXy9XYThp7arn35
bWSOCkKIGSdoycu19+dwqGAqw3jyYbKRdV1hyi51aJ3yylhqPjpHuc0RYZModBnD
x2H5VF6W40pxpMdpnyeAUwO9uXX4xYjVFL+mOc5N5EH/TpYATcKZN3mBmWVyBzVm
jpHdF6Ay8LVCUo8cqLuesCJTxIb6ZL+ac6p5ApXYEJHG9q1Gd7Z53A8Ok4VIOl59
v1Ax464ycFtHNjtDvLKgPcmcXEbL+9yaS7WmKkcJQNLpAThRKId/8uJBo+WhAsxG
orL7HaHQAr67IseWRLMIJxPpdHDLVqSXOikaRrINicZUp2d9droIbyp8TnQY45zM
nvGVzId3X97SKA0ucHOW/TIzrdpiqYqe7ku/zLmROedRLFwrANxH2ftFoThR05MU
/jXrDz08C0vejrwAwpqFVKbBqF3dZzt3kG5Cj5tfswtel4fCifhEhXKj0jcUJ1rm
JZ6XG3Ewz4mu05D7wPHNXJ9No/r0oy5+kV1v3enWPOoDnuxxGcryOJwcp06nechz
nD2HWtbB1Wb8ZsBXsqbN8POeJ7uoEFuEp53gau6i/0uwkReYcA1d1cHh7iOh9zbV
w+3gKmLBidBs6XN2vGlskut6OXymZQVo8exSIaVcq2nnT793wHm3oUAZUtUFHyuf
wgEJ4XW66/m21Ssxp02fkjLwm9ArdyxrNSuixbqxg5+lgJzy4d0yOV6YL+bP7sag
mbo2PI07IMbbFHLwQYIfb8ubgY1KvNeKNNZ6xJ7Wag4HSX8x8eQqCbs5htO8Tp0Z
6wBMb4NeySsMUELpuRbjEVb22WXGdBKz8ktqT5of8SmP3zRYo0p2f6sNrdoS0wyj
56/mGlxBH/WKAZWKc276W3nVFNSH5WOoiQoJU27P4xLDaACo3IfgA9vqrCdESxN+
5tjgOCssNGbGW2e8C4hvYEyPF+aJiNsTJx45pgr8xilbb09ybUaWtB5+UdjWzWuN
Ae2o2gGI2QgXF2TR2CAlU+hmtYvy+o7zz/83R3W7JynnizKV49b2LHSgejGu3Ytn
CntGSs5F/cdy2oe9EwA+WPFO1MC7mOOJVVyqlZNBoMJBt7RxN4ac1142GDw++qfh
ReQ6Ptwn8+QP6awe/KvY/ig=
=acC8
-----END PGP MESSAGE-----
