-----BEGIN PGP MESSAGE-----

hQEMA0xBmd614XhhAQgAmT2+/F1ZT1V/+4R2b/NZJF7Hf8i7wIWF4J5bwNyME3co
gJxZqg8pOPaNoxe+Z7gZeB2rm56/IHQC4ZSDic/hIdTPqHgprShT4E9aPLexJGwJ
TjY8y9kF4WbcbbxwRO8u8dmh/BN7rHUheXOKRNAHJNclifH3fdfrpti7/tu9LaOG
xqmVN7UcR3W26HoDbru1gT8AhSj5aO1SJrii4JI46KFiHpnNkzUZJQ3OfJIKhSA7
I9V+q24gnWLJ6ei1laB2vLkYGamC/mTuq0yLoiXvk70nKC4Ic/dVILIm7cLqVzDJ
2qIwiFk7IIEkprTawVGiDVkE8NBFQcatehZu9rwT8tLpAceywx1CXht/KV7q0VYW
NkudQqHw29GWJnjaEJ9/nM5j4KHC0jQTKWYOAOak1t7j6xtrFMh8rREIhb2VLy8g
LwmB/fKVt6RKPCqeBg+MKPrf8ouX3cndyCAJnj5xv8jLRvhcHYizVEp4AS/w0XR8
lfXZGwA7lzR7XsllxuaQHFeqLAjXaSCZEkYN2sZ/latKxqQD1rMCb5R0I1AV1KCX
R9VlxH5JWsicxJ3GEyzj2tgyAd/KjIFWwXyXOdNbHAil2KZoaCHx1+oVyq5jIdKY
aZibhW143F1EBAD0CV1CIaqJDD24Qoag7oeFqDi0oJ1PLbtwsVdDXSmITvrZGw4A
8JHO0aB07LjzN1cECD6IUgbv/9T3kkVoXgjBGjW8OH9Uf45Tea5pQuugaRvFOin+
FpcWtS+Eu4Bik5bVOOxJmowbf8yqWdtGrdr45NIhPE2lPI/SbgPxr9tWWkwB4YwK
1LKESz/m0jhGpTVJAPlbYNo4+yill+m6jbddO4wchvAEQibGIoZr36bVHpEea5r3
IV1gC2wdqK1+HyVXUfQHjG5+9aMasej8aa7HkKt4kC8uX7Hx7j/Ys1d4bxSQPN7S
8CYYntJbCPDb02yQB/RLszO0hrWEFAF4RuvgczOgfdgeciUoXnDewTndS/M2zWMv
q9ghnlipsRvi2cP9Rgkk/xvANjmtQk5MVqicpTTMfbWb6z1I69f0mJ96w4nGfzFE
+b8CvU1tJirJ5GYaGvKkMhPYO8YlYFrNKEkUq66K4VqmmxPMR4gdVFq5dzFu5TaI
i2gtWelrkcuBolDbZ56fsKOYVXuohNPssB0VLPGoumgaK2dIaRYwwVCyN0pgQuZV
XuRphAWQzFVvXdNIjKl0IZBNKVJFakzpFEKu2zR2qI5GJn74TI+KBMQhowlPKKxE
2VVzd8lHuwpKY6CAeWGcfbFVDiqBeqxr09kP8hVuFg7MNKvDfDBfaJjFzNPLPITK
NwnSHDpnyHtyqkjI21uAA0A1wFu8h5R7cA==
=qTeH
-----END PGP MESSAGE-----
