-----BEGIN PGP MESSAGE-----

hQEMA0xBmd614XhhAQf/alTd0ZRjKLwZtVLgGSMUyCe4GKsjPcIoo57CViqdFHGI
L3wO/Wl3PZdwk+SrAyFp7lDkLrzK/LvRQfLuZutAbqh/2umHKQv6CnILOIhdm6/l
mk7D0Qeyf2zGofLqoWaQ8Lu4WO+VqbC5RK5gbbNGgvp/v/zOyEQ+7FeyESjHxwEQ
muMogdQ1I/S5Zkqz8FKaXRyWikB/hSpXibfoucQNToNR60UurQd8+z7s0YO6eyCn
JH4bVbEtplup7kEJRAd6ZJBf2jp+1CGuGUFSoqxXLbRPd30stibES2/MxiADqwwI
CHgPTNCfCDeiRFsGVVTm763/j34c0M3qPK6A/bvpltLpAY9Afk86g4hNtEb9gaN7
7OoB4tbx1kT8rGZ6eLeM3gGIvGOo6XnN5AZlYiL4A07r0h1bozoGNnvDvnnrvB6T
fo1vYX0yv4+T0NAtE6hEPw8o6KTdXnvrdIAFu1/db39MVyicNoMTv6TlxbwC6mFk
NRilXIwQ+QTEuj/P9CaLXrR2niYl60LKl+DINXKKxWSDmFBttK9Juctyx0/x9Syc
ITnDEllQ8Qo1zvIAPMhcO0iz+HcaV2STHrx9vUtMnKynBbbUQb1/chjXPmg7/veb
2/L9MfbPswmj1QsL0QMjy1FkvW1mUEEnYHf2WOOCITsn2+qA6ZdnlMviu5RVWE3r
W9puVPYEz+mgVMZXGgYrOCuRpUxgMLgc/KHndBLcjTs2nD+YMG7tkWuGYkbyZuXE
hyai+tMNZfulPIUb1psJ+WWYXP+dXyK5RUXjdYs3nBCrweTVPDoA79sxYXrU0d3o
r8ILMhpfD65tqVW08dAt0TUcjMAb3HzngBhF4BxlBMezvZ+GehAYcYZpPX6v8HgB
2HZjdYsO4glvzRfC1qraE6vbFWH7U420L3myIbESiaxnPVqgEd4tTXXr3EwI+34t
cOzq9lzsSXfN/G8VzLY5veKJg9esstFzOo0/cvnrpE926UKku/zORpZj260/TFU8
zZ7jV3gz/ipB5cuKbU7fUe1Lj2Q5rgjKoEa4F+OCqa+pZ9Mmyajx44k7yWtQeXqr
2qo7idt24InwENU8Crte4VrQCrMcHuq1xzZo3prxxo6znyAsQ9F8AI39+YOg
=cFiu
-----END PGP MESSAGE-----
