-----BEGIN PGP MESSAGE-----

hQEMA0xBmd614XhhAQf/fuNinC58cAHflU0X2ZqElN88Yu2uxRyGMWKsKEylrZiO
clMc2DpWrYX/++sCTakbXVDOCTa0bO8dZ1Ajq+ml0t5RR88sN3BH3ceG2ZSwGOpU
l7fAggsmg2zAbTX3fFMHL2ONcvbdcbuBMY4ypEmOnnctHJiraP/pqza2JLla/CGv
HK/Q6wdimkOjGZ+XXKdoWIeA/r8n3VE9p73FJ+PCakQ0zdr5fMT1Ae0U6+73qiO8
TX1xl4NGdxO3+Inb/8Ve6Cj5v/ud4ApYAdsJ2fmhIridY2EPZjTLOnL4TNuQG8ZG
99/cfqm/mtmbfATcFF+lWOQmhyHZT9OoplvSOBKAr9LpAd7AZZgNRVSF0A8+Qpa9
T3DVLfcJCLambeuu2pu3s9i4b7HJku+MkVM9zxt/8RCycJATHlxDoeQ2BPVhyiYY
R7x0AHE9GetSdsOlH5lDpWwT5VlmU5UGfi0GWcXkftgHJoIxzRsGhSZgVGx0+dS1
D40dH+lldhf2iaSrF/l6Ld2eGFKD8D7rxdpzCqDEjnHTFQxOT92T8dgmILjiqx7J
IiM/fhJPUhyu9HuKzKwSXpR0dz5tkSqfBYEe+LGPXWvPnr+3Eh5zRh3UuoJNg+S2
30S12axkPUtADoXF4p6Gdn1qfYOp6tvy5mg0kSwU6OY5o6Td3h4jhtYZF7FshaDF
dkohJoqnMARs55zDzvCxxTD17W7g2q00xR8Q02iMk2UC1Wc1InLC5xr//t/a0V9N
XH9C3gjGpSno+PNxjqc0ErDEinx9XcMUmZ64kUkJPBrdUgFnL0XAZP2UdC/PnDBX
K9jVpKPXW6jAm4ZXOYDFaaDL0m17h1v7MTsk5cwsOBLIfY90ZeLKel2j/+1uJ4zQ
ectQx3fgOnJzLkeJ/rOKpdVARtGXe+AkeREYrQAay6Yw2QVAxD6mGWo5mpgLC4Bv
WrnQWObXQxKa6BSOP52B2pU3gJhH4mFjiYm52OINVsLamLn8KqOdHg7GaN/zZx5T
ciwz8klCjfj4pNTsFU7yw87AZ1verKttTI2OEcZACZuTr7LMnqb9y7EzUGAr1MTR
c3AHzcV9caOA13uTijYVLOfK0nivtt/kA5nk7jrkv68kh8GVewGmE2T7uu9O48b5
Hg1RIdOHYKz6EAxmiu/DOlApucvXAbshmjDugiQiQszeXbZmdNV4Da48Eep5OB66
mkdPMMHP0c3bgUN9TOrxiRx1h8xpmCX8RfKyRKRd6rR2IRDLWafiGmR1xS/+xqaL
MhikssG4LzoFy+jPZ4Dtxw3zlaU8P80W739kMRCgTmUPyuaWalUOf/YAyEZoHhiw
VCFDr/E5Mzd4UNkD/uTzvVPoK2ixHyd4WnOV1CEMaN8yImwgqb3q4ndpfGbp0KEe
Pj6XE8UszmI9AxEDIIfQFiwoPc8XTo0Pwdo=
=hwsu
-----END PGP MESSAGE-----
