-----BEGIN PGP MESSAGE-----

hQEMA0xBmd614XhhAQgA4q/99CMcVwQvvgoVD0Juyvyo66aOgVGHc1Lx9JMEUrQa
1dS/kqA3A7EAcU8pNJp5c6esH42hHiqWLq8vr3gibBPaYpG8twQ4v/5OoL/EoZwI
Ya3Rnb2XKdEwEb6GU4kP/Y/6NJuO20gijZAGpWrkR8TUxcVHvvX5spzGDiGSPemE
0lhdzr6aQEqkM7snAtAVrxjq+8ivA2WIBjDwGHNmrbaRR7G49j/peVmyhb6YNLaK
B2kFvoVv8r1ZXpmnEGxRYqJGWh46M+cziJlTR/HxS7QrPujtXdjYfU8EDuWhvW4t
Ue1fnNgm5d/SyqsHB4TEkiONvgSUh/8hHoe8wXaWlNLAvQGlvv7EKYCXorb+XmZK
OdThC00vr59PcfgVfaikXTsMTNjVGQWjZ/PJe6aOLIEmafkMT70+jNDotVjkXcxf
FEOvcwbeujYjg+SgQXDJ1G9BCFlvRgZFJqmHU4yMnMuZBcI7DWFyS7nIuHMkfrF2
2TmhWPu0isx2Hyga+hEg5kPSNaUDO7/hJQY7TxTNiX/8o9vw3k7gDRDz8agX8C4s
77Q1KURqLdxXy61NqB87jpzEF1GOY5C/m/JXFPAGUnNAUKymNVB2oFixMACqwPfw
MVrANHxaZoycmvjwcWWbnVAjSVrF3VUYJj+WFaeBY8kMpi5H1btUGYuSJmtGKYUl
1UNC9qgLrnIIaqnRJcsQptWV2nkhzSsX/bSk9C0HBlJrr4Y5jqM48D3Spq+T72mg
QGd1E1PmyTyno1vVwSZB6+SjNoik6b00/+KQ5IqfgOt5hms8uswFFhZ2ZE8Cq8Fr
1bN6OxdawqGRVqyIErh7x8FWc+QGrdw5kux/xHFNmw==
=UfIE
-----END PGP MESSAGE-----
