-----BEGIN PGP MESSAGE-----

hQEMA0xBmd614XhhAQf9HvySJm2XIGdQkKeOXUmhSUocRA91V2Jyuex3d2sBIiUc
9o1GhcTGbO0007x9WyCrcfgBLUZivcFt7AXwNq/BAN3stPduki4u4MLuszpPbg0s
bSO0kYiFmjBYEjS713x5HSemc+gvyvH3v2d9+VQS5w8W6yKhk07++gag+nSC4hWZ
nS6H7A/wR4wox09g4VI5hLmk2jcM/WKWbZQOs13JChTI9bLjRLqHNouAK8nengPt
xEGuGjuHn2MY+zWoLeZhb7gXalt4NPRmf2ZolZyF21ve8Gjd1o9Qqge7UW1jx8hx
STM6RGoJPEOf4Zb/s31CY+7+ELMNNCsHTesngG5dp9LA0gGKyAt+zHn4lf2Pp/g+
QsjQmB8YNQnD4kV1MTD7RguSYBaiK0qBMEgnmmjz3XZT04yaQ1MdTL36/TGTfc2z
JbSJmkKto4l3jWAMKvEZurBs+uVNxyQA/QST38VQhPwyO+u30ovSoa+C/6/uWP7v
CC1vdsl3zqwfpWA/sQImhVd6OBob5TGYGfE6UCwmjFB+4f3c7f1eSDF+kyidA+rN
t7exaSHKceRLfJgXiyxGV19iXPMkqGKZ+yNWgNLD1W1PZsZ+YLq/fOcaMwlgHI8+
AI2k/2lnKOZCo397SFsfLve15P0SaHu5gRUbNpvCmSUIpLVvTMHkTKJ1jx88Z2lF
MFWn5+a1Wksn6+Rw3JICJbPMu/OB+ScOxhg564wbCiIs+JQrusoapD+Kxx1EmAqR
s4z8M67nsd2xTYP4Nt10Fc0weVdO0RTGjcKTYYrckou6m1uh3/u6zpkqE/i8vNGh
FzoNwUzzDMExHwSWMi+PeRP5KAF+W0iA7gm+DroWeqpVOehLuWdk8OuOd9QyIyE6
mxPuBA==
=U3rU
-----END PGP MESSAGE-----
