-----BEGIN PGP MESSAGE-----

hQEMA0xBmd614XhhAQf/a+WNAmaQSmxcBfif9apEFmFMhSknKuWmNU0v7k+e27tq
ioHVPq988bNlwMcnR6Gej7jsShbHzAP9FvpyOAZUiTBoGV8BO2CbKvq6syRyR79g
Jsx3Odh3JYpwebecLP+CiyMRi9ptgUn4umfVLxFuhC7dpU83/vNE4W3Xeg1rTfPn
YMYVqv+VU7/Yotp2tD6gRCiDlF2T7RYYsxKExFs8iaZmHLbtVMFNpPFtYbh87h8H
Cp45IgzY9bwM/5xi5YtyD4JPg+Uh8iIVke9VZ/AEGKGFzlou3j0FyZZEWoHgrPp+
9MmtCcDNFmqep6bo+H1JmgHOFc0joM9ioGy6g3/sYtLBPQEATZ8JxxpmMlUzVTG1
uWUGn1ANWROaiMCpnt322yIMfoc8I/LQ4fl1CEEWGHyoAkl3kbano2WGmJWu1/Lw
Ordo0Xw8TnOPKTyKkX/2H5dq6w3CJZcxDEQQQqRfob9KEsy75Lx2BbxmrepqgpEf
uiwzIx4TYn5zvObRBumbBAI6j0caym/cRlLWVSCpm+eZXvqNZKOC75KDI3Hgrcqm
8J3JRx11B0dki7VHzOQj4n/BRh/xkZ+RlAdev/acVKyHnp0uoePnd0iQBbfVF2bS
aTeStHa4but+RL/IaY/B30nNk77FQCm1lHYE/hSKdq98BQxwWSF56S4Fu7bx4z8R
mnIpkNzh1cbjOOJTGQTx6Mt3RAuE9QvXorSaQsKvx1hut7OFIvq8RvlAydnbyjHB
Vp6bfnFOPLlon4Cw7yR3xYxC3SHx2AfL6RgyhJwovXOA7No12sujzyDM+wY7qLgw
4S1BwILpJaiyTtAUv9EOe8e9VI/WFhXV8PDy8EwDE6g6zqbf5/hm3g+0SyhdRheL
8qtqSeQeWBDAxSQ+lS043XTrsj7XRr2D9N4XbqZ8yGTcHvEuhEhGlQ7KOr4dUCW8
sSKvU0yZnYUzSUTTFikAEQS5H6Ug+EdbzYNz3G5CKc/xZYwOIlXnzKZQt8QhRKZa
owLr0MtWkQXpVHkz3SLv
=ivJ+
-----END PGP MESSAGE-----
