-----BEGIN PGP MESSAGE-----

hQEMA0xBmd614XhhAQf+KTOAD5MevdRz2vtmw9CX5QDq/R2Movco6MNi2+BLX2pV
D+hDQh5Zx3dYLZgY/y9705PM1CjaPU0YkHNV1ZAcMYIbMR86C0TjQOpnmHRcow3r
WizEr2rR5iDPJ9Mo+21cgcwzr6r5dlq8+Qk3pe7ljaXPMwEe/oDtJ1BQNFgvrQae
snR1hfrKv+OMtn8HHXDCYyPsggjCeaCkEc3UP75zswLqrCTxABVakQYR8+5xQvWf
x0wMdfxwL3ryWp/1NIebtQfm2nI09cOQND6eiaVpI/bt6L+c3OOKGrPKfw94LNzI
uKFZeY/ds+8lC3vxaU+iZLh0REEZ18d3SwxRuxz9W9LpAVbibkKaUHhFn+k8tkpA
R3Ffr1HREI2VjuptmZrRKgf1GksL0R48GRznZSvu3JGRc6Db3DXeVPEgJz4SyqQx
h+NdKALLGdZVyJ+k1o0QEiwD78Bmf2CO+AXMikQIM7WlvL6bm4W8pg5ANG38nW0s
4Vb9tMb7bNLLHKwpIYUjjNZm22aO2Yv3SjKlEnxfIC+H6/fe4y4EDubapo7dGftY
etiij4LEryLPrxQqTef+9+sJi46I50wH5gfjR/Yo6j1M+eYlW8u8eqJS87P2n6fF
K/YiSJ6hOnpzrTbtIQFnPvMGbPzm7XlQPGlZd6IH53z3oIIELjx7rMZw7k3Pdh5p
OhwPxnUY8Jqlk39Z3Q7rGlXlLcHMKf8ocblKUHEA/tL+2e3ADbDhSp5OXhRpkd9d
e2gzP5mvjOiFrf+bVzt/2f+uw0IIkEtXlAjmvwic85P+PLSML28km7RBxVe5qpCK
rM/+4wxqHnDixcNKBS7v5KnNMOPdjBnFmo3TRxevlKaFGIVtEMiudPLzMi8NrEng
/MxZnB9U5BDPi22B0DAtrfCADo4NlUuUg1jGiOCmcsTLz2TYnmquYd4mSLcmpFMN
VdFer+xTphlq4rUvZstotuCSdN2DGNQtfAjEqe/zUoGluHicQxFu/8J+7fqEDW2r
5S0WYq7yBAFzpmUugr7LIqzAUgCzZc/WmVCTGkeP4PjyxPI9tAjWO4BdDZmwJ3qQ
bqBDPIZ7u9uU5pW2NOx3fLzguYzq5sQkx9bRz/DSaKFnZkGmHW79UFBRJFH2d4xs
VyfOIxYren2DVygeHqCBqBzwmaLYfCe5Y+XW/rq4g4pHIrIAjJHt7lHhIgJcsPH4
IiQGhoaazTi6GSye3MfP0MAVsdSJuSB1Sx3n/lvmdrX+uZXTDGeNgJV2X4SV2DRM
0IaAdX2/BzXmkLCmh4VxWyWs/OcP1+F1yhoG86JX0SMmI64vkxnoeigRIcLlM5Ya
tCOGTOAQ0KP0fU2+YECtgIgcwZEAFBCY6m1WHaJrNd0jhjWFX2LZAkYPUrD2rFq0
U1fibhQ=
=6wYS
-----END PGP MESSAGE-----
