-----BEGIN PGP MESSAGE-----

hQEMA0xBmd614XhhAQf/U7oyfo3MqzLhvvFIXZlynlwmaL5Jz3hsZxiZfxedHLXG
6qFBTOUqyRnPYkAgxRF7CFI9pOHCSmkPC1SCuodZPKvRB0GrcnFEsae4tutniaaC
hWwDRG6Vjcz8BBqvdGXnVzY70QkQ5obMf//SN56o/mMuhvq54Xxa8hx2X/rz9kw8
urlJ4TLxH/oOC49oREIm/U422xd/cMqYdy6JfMZobEr8WB2VD892O9tgBvbZUR6D
UJq+QT0Ldp6BvvsgXz8MvTQp6YupaBmAkAx5R1uy2i4wT9jhWlus5Tmw2iwDCI0e
30v+aCz6KDIG7PBV4qjrNS//ECC46fr+hB98D3huItLrAWWKy9VYscNtld4639Iq
QfQVmMW9SNzLKBD93gGU7usg64H/tXuHkHuJVr4y0p4oNPOEusOAHhcTo2v1k1Fa
MsC/rQ1+pm4dOjC17JlBtAM4NgImUBAIaT6E02OWaVhYIINpo54Ip7kfg7qt2+9s
uKtkvTnrraS9i321Gshn+hEi8mWk0gqZxmdwlnlaxhfr4Pm9tZBF0N2ZVR5Rg+Bm
QS8xObjNxqC6DO3rGt2jd5pa9f/kE1uvwgn1d07tCOfXih9eNC++etbIFr7gQQIx
Q9116YnDPFsLgOpN4ouzCsS0o1l+/sPvxwXns7wnKerxgWrNvQ4rhSj+OZOoBbGe
1aOfak91p84lb+DoT3jMtSCjxgpzcbmXdg6sdIryfXUcEu6YpYanibfc9JUOowna
7+z5jZhhCA+hcMXf1FgBKWulSRjXpDqBuuD6kVXlbtePccSn4abv42znzXcrD2Ym
6RGhO9WTGJElvFiu8QgqpO1ZgQ0YUu1q25boZRck98U1inGE2iw/K6vNMDI7VVQr
HA4TNHlt2f40729U2IEWg3b9fxOImizmvbIA1bERgobEP+1iYJF0hEvA4vKUH5is
0KYujEDsLWVSEjDQGcr3yo6tsCPfrw2UZMzPRoRLYBpv7J1LWNZZRtON0iM+IFyY
Cte8QRwy//YvL/zllQXDkFSK41k/MCNK3L5z0u1ejB+lbo339nYnE07IAYNHEWmW
0mX/RRWd5Qr0KLBzSxSl6KLanxDi6e3Lp8LdSOlKVxh/l31PHS4Wj0Na3904hS/B
zC9jSeK3K1HKOLKggqwsMrRdmd3b+rsDBYH3ScbR4W1ku3BHTntj3Ob7ezzHTu/J
i6fDevppa13UttzweNc+Xivbnv/ZPHdQtr8cgoN7+ErUduuh/HJ8DnXhc+iUwyIQ
Sr0h1IgiWmfqXEM+GjjDIJwB8J7Mxz+nHqm/6EjfZyCwphJHN1m9hpxTfZ8yzEh6
h4n9W5iau3htDX3QJ1w/CSJxYtJi0oQKWEs39KLtMPL7tT9ApWIyytUBu/BX2Ocn
0swJoRNuqQWEUAjKNwAHg2mmCYl9+AxAovlxSSEYVq3SB210sM9ZKjlHLSgjMNFC
+q/qOeoQRX+imabCkw4+FJvxxP4q2xJvWGmFGpRW6iKNob9vlpSdZuPduXv1sIhw
QJ2k4Kp6CZzHUVUm6PQ/IzhWTlPqij1rJ/JD3zb6YDE9Av1jnlFpiRH4qSHslpvs
8Q9L93Un616K+UHzd0JjzPSuAH9wOJXqgOwdBNHMpPlA4J6XzwVrm4QDSLHuWk2V
pEVqfQ0E9+CL+LdeMe5FCA2L+luXNBJZ5YXlpyUWJSYGhWIr4BnOG3pzvPnB5mxy
nlqjyqQ021rUjb+V+VCOfxqjT4fSg0Py493zr2NCDnegV6FmQ6OJ+3ZrJBvsb2AY
p07FQxBScZNFmRpbaLS+/rm3hUxiW819c1Xni28AESTWfGBCO70iKQU24sV+EozQ
0JPNrmTTWbLuyEEcXL3VW5tIUJKyvZ08lqNsyWiH3z/vm5UeTp16S6svi+yfK6CC
wTWkIn5teuxFFHYrSo4+F8Dr+Dbu3oD0P43fW8CTjbCcNhdVpWS5HMcCrHWsZaYC
/wrYT78Ao8ur0tJ4c/i8Dp5ux635HXSBoFysQxihAy/PXGBgykWnE1yMVwZIB1XL
smzObT+6VXIS0NiSMJM2oSfk1upSy/Lob9RPL4ohrFe7hauiH6ltbdL5OsD/uezZ
WaUsYpPNwdwmsnqZ1b4EkupN2XqNilCpA6ouAgTcKnWTyEIUJUE7GFLAgKlmxRBF
oMBRr3FAvQz7wX4tSOpijxsZhPzVlg7+0VLcFCYLzo4tZzuaOljdTxas9YjSQZ6s
1h/o+8DF45XzTMKH4vgv4kDDbt+KUrqA5ByWNF4AWYzqOuY8QdhnFGZCzThSQ74p
/w27Y1GSIV8nlkiJfLKKLD4lzp1SixL5u2NnYKrHGpGxuohOU5s6ZGryeDgMDkZP
RchCWw69+UGe19hQkATpsklIf5hmuqmb0Wn1/lwAFVluzNCDtb8rKvdtlavsJDKd
YCi+ds8zSxGdx8b1uwLauj67+EjDZwlOit3qs7YAYb8Na6BGMvSf9P7F+LAATJNm
KbQxCn75Q+PxS0+c65Pxlr+rwzIQf8xbFKx7bPpYXZevv0OQFtwe+w2lf+BhhwAt
c3PKGj1EbR0UyRqIhGi40TZYowolDv41DC5q+5pbIwzMa1CSDyhnuZaYRDTpZmLW
DmH/UvOBTu9L+G39ekOnGdyDNk7+U2STUCPcXM9Ic47wD5nA+4KQVAvsuSMZTKej
3tEB6YoOBKsjQ4qNG2tuWAtjoqi2Mz9UDkexBpg5R9yUPOWVO3oGg+rXCpOHb583
qlDXMsbMSIdJNle7HuZZ6ft3XI6H+sAqcKQJsKlz8GRUvWGXVjWdyH9/nxf436Cj
WNWCIPBI+j5Ly7WUy9cdmWIQduNvJndux985XqxfjlPptvv5rsm1lGQxwtrcJhGx
OTHZn17yk5BLkJmTn6ORymzALY41Qvre3sl99aLy7KMBWX2xx0kPpwIUr0YaqDTA
DSV1SCdNsi1SbRSm7ASmXq+zs00EJh7m//PMFUuoFIDbXxOYbim0mRGWbeVtnOyS
/QKSEqm0Diu47pHN0sA0+bXD7TTz+kFPMhGReQfk121E1H0reEexzhtE891fXPRG
wF/oyTwBMGgCc3NTUQxuaLfpYaWpsVHz09AgI7/M0gp9MpSpayyIR1RPr/gIsE6C
RrQ97Y04olylno4+MWPRlDwSmCD8HUwIT5fOJBVA9c20JNX7R7Pxr22S6kkFzru3
zFCIiTaSGaZ6kk4xMgFAwmkz+T9dju6NWGJn8VkD4HNH++waF3Uc2bCjoEhG08YP
CO3dfha/cpa/WCQNfEceThuwUGROvSuJ1zqQdDFdiXl1ARFzx08zXZYm19kv2fW1
s72BeZhj+WNFpTv/XjrgR+BCMnbmar15WSSZ0dlgGGUrg1w0kv2Tgv53uZn4VDpT
frMnF/m2deYcRQ+mdGkMzwFppSrkefoAgb/eF9o6aozpAUNhu1DxPm3jrTw8vweN
YiBYp+mi9u4uBuOkPSgSsHIM9BW+6ws1LZQxed5pQYjUSLyUnxEkt4ROOWPZaqSw
VmytOLxRigTIvW9yQiV/p2QUnEPgi05nniwJ8ixaQWMAmdXU5mCcC0wtpkPu/dNc
SDDygGFF9BX9eNN+hGZxspcEViWPEIth34z45TBf9ahC1eK2gxNdgV5+PPlNLLxE
o67hyQQdwpH77FKS98fgoFHr4GQngQSHB/hSCvgKPHYiuuSN8Cu4wwumCEGv42U3
qGgRZW+baHdY79pCDekv2nC9kTi8WcZEXNtPd90ugBLbOBddpKukPG3z+Z2wn3DQ
J2fA/gZZL3iIK9zZ28rW/FfS0Dmt1TfdtRpZVm4CWV6taIN4qK7aTGLne9ZtMMuz
0xQmP/oWCJwzEdxmFurPbQAtct24T3Yj8ECADOn9Dt5SHvO0kdoOYuFRMyRLSFV6
nGtcYf+LYw0B8ra2zN6rgoV+6Qy7drFxyfC+3xzRB4z/GGu3b1W7+2zshdLmi4BC
FR78p47GZc87y8BuyDhTN2N79gMZCtBQJhcvjwKz7B2LCk5VhS8NTs5iNRIBYiv8
qG5uE7nuyh5x5HVCoVy8800pz0cldtfIUH3Tz7PchbhHVw/hsoBroxW2qQU6+HJI
V+3BpmT5Pc7AqFJavTDmfgW+G3ZcEVeeVt55ubmH8C8uB/J7+/V6uybZw8epJ1De
jPILn9zEtqzrIalmgRuM6LtnAmppu6yPC2JXewEoX6XYqY80BPn9IvCgPxdxpw2f
WK/XdsNLPKqD3m7JgwGsQO9O+SxV5dgUqHh01fK40DeF+N5i23YJTfp2NV31/6Xj
ypv1IuwpUf0IZ0f3IYjNl41aLiBPPIRPKmzHk0vLCha9/fMfKzt6CBgJgjOc73aB
sx+tTeTbV64RB1IA3INGhBKL
=4N7r
-----END PGP MESSAGE-----
