-----BEGIN PGP MESSAGE-----

hQEMA0xBmd614XhhAQgAlxwZoh4lQazALsqZR/z/4gmJ8jXHjICoofszGWZGwNaY
s1VoNT+QepxL8pWwTHU2W/TlobOuxbYV5vuoaRs4ftpUG6BKVRbQ1MLsEeWusoq7
MRKsrggLN0X5iTRnVQ55ytJXBEkOnqQmFkCi9EXnB/DyM+k1eMdfzQNcRUbGqhTf
UdkytpyLKHMJsEc+8ki0rlmp1Z+GjptCY5vsn1jYR49a4T05GrMGRVQ3iajZeuRP
l7wE5U99ssYPLy2Eq9pvL9LpUQzqvIKym+poBWct0TC3LFyC71klDfAldIbfYOi+
ViXRoCChXXCMNOJlZw0/gUDhvMG+hngQLHxJn+JWS9LAvgGn85HI439SmzW8zbtY
BGDp+HbvE9aFbM/9rCLVjDxeiMUT7RA3geKMQQ76jqp998CLXPr4r0rbrqm16Egh
zjEg1i52U9GsWuyozDR7HYCn6jIBHpQK03dWjfPsPqdUqfwRrS1ZZMYR9H+NxVx1
KD77BRJ+++oZkjSCOEZFmfGZbaNyZCLAZQSnklxPm3x1znfSFEdLPuhmT35JpYSO
JjAzGPQ+55WA4L1VSIMc5hcsVYIiNPtyhTaGjTSxB31pkBoAxeJgC8G/oWUwjlpl
5J40bVfVnqX1rJYocQ96cY2XTwL0FqIs2Ay3qsmD8PHADS48YuH0z5ROQhGt+sng
ImzICgiWx7myY84HezbpzaqEyS4FWPGjoRV2BzVSKjQgtTyhd8RHsNP+BsQLB2G/
GXCPTElA8vMqTbt6Th7NkNTZRb3a8MUP5+euQEiF+2Gt65gzM00qFmLF0f9LZDbx
ic/IIAXsjPp2JbBYJZFfp+RDn6DDGR79Yi0OqINOs6E=
=g0+Z
-----END PGP MESSAGE-----
